;PancakePainter v1.0.0 GCODE header start
;Originally generated @ Tue Feb 02 2016 23:55:23 GMT-0800 (Pacific Standard Time)
;Settings used to generate this file:
;----------------------------------------
;flattenResolution: 15
;lineEndPreShutoff: 20
;startWait: 450
;endWait: 250
;shadeChangeWait: 35
;fillSpacing: 15
;fillAngle: 23
;fillGroupThreshold: 27
;----------------------------------------
W1 X42 Y210 L485 T0 ;Define Workspace of this file
G21 ;Set units to MM
G1 F5600 ;Set Speed
M107 ;Pump off
G4 P1000 ;Pause for 1000 milliseconds
M84 ;Motors off
G28 X0 Y0 ;Home All Axis
;PancakePainter header complete
;Starting path #1/30, segments: 10, length: 536, color #4
G00 X264.603 Y65.146
M106 ;Pump on
G4 P450 ;Pause for 450 milliseconds
G00 X265.104 Y142.212
G00 X253.094 Y137.709
G00 X242.084 Y130.202
G00 X232.973 Y119.443
G00 X231.014 Y103.018
G00 X234.002 Y88.298
G00 X241.834 Y76.406
G00 X252.343 Y68.399
;Nearing path end, moving to preshutoff position
G00 X257.785 Y66.955
M107 ;Pump off
G00 X264.603 Y65.146
G4 P250 ;Pause for 250 milliseconds
;Completed path #1/30 on color #4
;Starting path #2/30, segments: 10, length: 531, color #4
G00 X274.639 Y64.287
M106 ;Pump on
G4 P450 ;Pause for 450 milliseconds
G00 X274.256 Y140.777
G00 X287.642 Y138.1
G00 X297.585 Y129.686
G00 X304.852 Y117.065
G00 X307.146 Y103.679
G00 X305.234 Y89.911
G00 X299.115 Y78.438
G00 X288.789 Y68.877
;Nearing path end, moving to preshutoff position
G00 X281.349 Y66.463
M107 ;Pump off
G00 X274.639 Y64.287
G4 P250 ;Pause for 250 milliseconds
;Completed path #2/30 on color #4
;Starting path #3/30, segments: 17, length: 839, color #4
G00 X268.902 Y55.873
M106 ;Pump on
G4 P450 ;Pause for 450 milliseconds
G00 X252.075 Y58.55
G00 X236.777 Y68.877
G00 X226.833 Y84.557
G00 X221.862 Y105.209
G00 X226.451 Y123.184
G00 X238.307 Y140.012
G00 X253.987 Y146.896
G00 X270.432 Y150.338
G00 X290.319 Y145.366
G00 X304.852 Y134.275
G00 X314.795 Y117.83
G00 X314.795 Y99.855
G00 X312.118 Y82.645
G00 X302.175 Y67.729
G00 X287.259 Y58.168
;Nearing path end, moving to preshutoff position
G00 X275.902 Y56.748
M107 ;Pump off
G00 X268.902 Y55.873
G4 P250 ;Pause for 250 milliseconds
;Completed path #3/30 on color #4
;Starting path #4/30, segments: 6, length: 134, color #4
G00 X257.811 Y106.356
M106 ;Pump on
G4 P450 ;Pause for 450 milliseconds
G00 X237.924 Y98.708
G00 X242.513 Y105.592
G00 X247.103 Y109.416
;Nearing path end, moving to preshutoff position
G00 X251.623 Y109.416
M107 ;Pump off
G00 X252.839 Y109.416
G00 X257.811 Y106.356
G4 P250 ;Pause for 250 milliseconds
;Completed path #4/30 on color #4
;Starting path #5/30, segments: 6, length: 143, color #4
G00 X278.463 Y106.739
M106 ;Pump on
G4 P450 ;Pause for 450 milliseconds
G00 X299.497 Y97.943
G00 X296.055 Y105.974
G00 X291.849 Y108.651
;Nearing path end, moving to preshutoff position
G00 X284.988 Y109.414
M107 ;Pump off
G00 X284.965 Y109.416
G00 X278.463 Y106.739
G4 P250 ;Pause for 250 milliseconds
;Completed path #5/30 on color #4
;Switching Color to: Medium dark
G4 P1000 ;Pause for 1000 milliseconds
G28 X0 Y0 ;Home All Axis
M84 ;Motors off
M142 ;Bottle change
G4 P35000 ;Pause for 35000 milliseconds
;Starting path #6/30, segments: 2, length: 33, color #3
G00 X238.181 Y83.612
M106 ;Pump on
G4 P450 ;Pause for 450 milliseconds
G00 X236.683 Y87.14
;Nearing path end, moving to preshutoff position
G00 X236.436 Y87.722
M107 ;Pump off
G00 X235.178 Y90.687
G00 X233.68 Y94.215
G4 P250 ;Pause for 250 milliseconds
;Completed path #6/30 on color #3
;Starting path #7/30, segments: 6, length: 456, color #3
G00 X237.643 Y98.081
M106 ;Pump on
G4 P450 ;Pause for 450 milliseconds
G00 X239.666 Y93.316
G00 X241.689 Y88.551
G00 X243.722 Y83.761
G00 X245.755 Y78.972
G00 X247.776 Y74.21
G00 X247.978 Y75.171
G00 X246.88 Y80.232
G00 X245.777 Y85.313
G00 X244.676 Y90.388
G00 X243.576 Y95.457
G00 X243.256 Y98.063
G00 X245.286 Y93.279
G00 X247.305 Y88.523
G00 X249.337 Y83.735
G00 X251.369 Y78.949
G00 X253.39 Y74.187
G00 X255.421 Y69.403
G00 X254.831 Y72.384
G00 X253.553 Y77.411
G00 X252.278 Y82.431
G00 X250.999 Y87.463
G00 X249.722 Y92.487
G00 X248.444 Y97.518
G00 X247.958 Y100.188
G00 X249.987 Y95.408
G00 X252.015 Y90.629
G00 X254.04 Y85.86
G00 X256.069 Y81.079
G00 X258.094 Y76.308
;Nearing path end, moving to preshutoff position
G00 X259.388 Y73.26
M107 ;Pump off
G00 X260.124 Y71.525
G00 X262.144 Y66.766
G4 P250 ;Pause for 250 milliseconds
;Completed path #7/30 on color #3
;Starting path #8/30, segments: 2, length: 82, color #3
G00 X263.695 Y76.317
M106 ;Pump on
G4 P450 ;Pause for 450 milliseconds
G00 X261.81 Y80.757
G00 X259.923 Y85.203
G00 X258.03 Y89.661
G00 X256.138 Y94.119
;Nearing path end, moving to preshutoff position
G00 X255.122 Y96.512
M107 ;Pump off
G00 X254.251 Y98.565
G00 X252.366 Y103.006
G4 P250 ;Pause for 250 milliseconds
;Completed path #8/30 on color #3
;Starting path #9/30, segments: 2, length: 47, color #3
G00 X257.271 Y104.653
M106 ;Pump on
G4 P450 ;Pause for 450 milliseconds
G00 X258.873 Y100.88
G00 X260.483 Y97.087
;Nearing path end, moving to preshutoff position
G00 X260.938 Y96.013
M107 ;Pump off
G00 X262.093 Y93.293
G00 X263.695 Y89.52
G4 P250 ;Pause for 250 milliseconds
;Completed path #9/30 on color #3
;Starting path #10/30, segments: 2, length: 98, color #3
G00 X263.695 Y102.723
M106 ;Pump on
G4 P450 ;Pause for 450 milliseconds
G00 X261.773 Y107.25
G00 X259.844 Y111.795
G00 X257.917 Y116.335
G00 X255.986 Y120.884
G00 X254.059 Y125.423
;Nearing path end, moving to preshutoff position
G00 X252.965 Y128.002
M107 ;Pump off
G00 X252.13 Y129.968
G00 X250.208 Y134.495
G4 P250 ;Pause for 250 milliseconds
;Completed path #10/30 on color #3
;Starting path #11/30, segments: 2, length: 65, color #3
G00 X254.706 Y137.101
M106 ;Pump on
G4 P450 ;Pause for 450 milliseconds
G00 X256.502 Y132.87
G00 X258.301 Y128.634
G00 X260.101 Y124.393
;Nearing path end, moving to preshutoff position
G00 X260.938 Y122.419
M107 ;Pump off
G00 X261.899 Y120.157
G00 X263.695 Y115.926
G4 P250 ;Pause for 250 milliseconds
;Completed path #11/30 on color #3
;Starting path #12/30, segments: 10, length: 481, color #3
G00 X255.532 Y108.75
M106 ;Pump on
G4 P450 ;Pause for 450 milliseconds
G00 X253.526 Y113.476
G00 X251.516 Y118.212
G00 X249.501 Y122.958
G00 X247.496 Y127.683
G00 X246.131 Y130.179
G00 X246.941 Y125.106
G00 X247.753 Y120.012
G00 X248.563 Y114.935
G00 X249.203 Y110.457
G00 X247.197 Y115.184
G00 X245.18 Y119.935
G00 X243.165 Y124.683
G00 X242.055 Y126.17
G00 X242.755 Y121.08
G00 X243.457 Y115.972
G00 X244.157 Y110.878
G00 X243.517 Y110.65
G00 X241.509 Y115.381
G00 X239.495 Y120.126
G00 X238.308 Y121.858
G00 X238.984 Y116.762
G00 X239.661 Y111.65
G00 X240.335 Y106.56
G00 X239.569 Y106.747
G00 X237.557 Y111.488
G00 X235.541 Y116.238
G00 X234.456 Y117.714
G00 X235.221 Y112.628
G00 X235.988 Y107.535
G00 X236.756 Y102.436
G00 X236.674 Y100.365
;Nearing path end, moving to preshutoff position
G00 X235.406 Y103.352
M107 ;Pump off
G00 X234.653 Y105.126
G00 X232.65 Y109.845
G4 P250 ;Pause for 250 milliseconds
;Completed path #12/30 on color #3
;Starting path #13/30, segments: 2, length: 30, color #3
G00 X263.695 Y129.129
M106 ;Pump on
G4 P450 ;Pause for 450 milliseconds
G00 X262.302 Y132.41
;Nearing path end, moving to preshutoff position
G00 X262.265 Y132.497
M107 ;Pump off
G00 X260.901 Y135.71
G00 X259.509 Y138.991
G4 P250 ;Pause for 250 milliseconds
;Completed path #13/30 on color #3
;Starting path #14/30, segments: 6, length: 343, color #3
G00 X275.377 Y119.016
M106 ;Pump on
G4 P450 ;Pause for 450 milliseconds
G00 X277.428 Y114.183
G00 X279.492 Y109.32
G00 X279.068 Y112.656
G00 X278.09 Y117.827
G00 X277.11 Y123.009
G00 X276.133 Y128.177
G00 X275.835 Y131.095
G00 X277.886 Y126.264
G00 X279.949 Y121.404
G00 X282.01 Y116.547
G00 X284.064 Y111.708
G00 X284.067 Y113.182
G00 X282.885 Y118.313
G00 X281.703 Y123.441
G00 X280.518 Y128.586
G00 X279.338 Y133.706
G00 X278.218 Y138.641
G00 X280.27 Y133.807
G00 X282.324 Y128.967
G00 X284.384 Y124.113
G00 X286.444 Y119.262
;Nearing path end, moving to preshutoff position
G00 X287.794 Y116.081
M107 ;Pump off
G00 X288.498 Y114.422
G00 X290.55 Y109.588
G4 P250 ;Pause for 250 milliseconds
;Completed path #14/30 on color #3
;Starting path #15/30, segments: 2, length: 98, color #3
G00 X305.476 Y100.744
M106 ;Pump on
G4 P450 ;Pause for 450 milliseconds
G00 X303.553 Y105.274
G00 X301.622 Y109.822
G00 X299.694 Y114.364
G00 X297.762 Y118.915
G00 X295.834 Y123.458
;Nearing path end, moving to preshutoff position
G00 X294.737 Y126.042
M107 ;Pump off
G00 X293.904 Y128.006
G00 X291.981 Y132.536
G4 P250 ;Pause for 250 milliseconds
;Completed path #15/30 on color #3
;Starting path #16/30, segments: 14, length: 1132, color #3
G00 X304.326 Y90.293
M106 ;Pump on
G4 P450 ;Pause for 450 milliseconds
G00 X302.281 Y95.111
G00 X300.225 Y99.953
G00 X298.17 Y104.795
G00 X296.115 Y109.637
G00 X294.06 Y114.477
G00 X292.006 Y119.316
G00 X289.953 Y124.154
G00 X287.897 Y128.998
G00 X285.841 Y133.842
G00 X284.662 Y136.324
G00 X286.256 Y131.326
G00 X287.851 Y126.322
G00 X289.45 Y121.308
G00 X291.048 Y116.298
G00 X292.644 Y111.291
G00 X294.241 Y106.282
G00 X295.837 Y101.277
G00 X297.437 Y96.26
G00 X299.032 Y91.26
G00 X300.627 Y86.256
G00 X299.776 Y87.852
G00 X297.72 Y92.696
G00 X295.666 Y97.535
G00 X296.076 Y93.394
G00 X296.778 Y88.178
G00 X297.48 Y82.958
G00 X297.645 Y79.715
G00 X295.598 Y84.537
G00 X293.539 Y89.387
G00 X291.484 Y94.227
G00 X289.428 Y99.072
G00 X289.026 Y98.68
G00 X290.118 Y93.547
G00 X291.214 Y88.393
G00 X292.308 Y83.25
G00 X293.402 Y78.109
G00 X293.265 Y76.874
G00 X291.211 Y81.711
G00 X289.161 Y86.542
G00 X287.103 Y91.39
G00 X285.052 Y96.221
G00 X282.994 Y101.07
G00 X282.143 Y102.348
G00 X283.44 Y97.248
G00 X284.732 Y92.164
G00 X286.032 Y87.051
G00 X287.326 Y81.957
G00 X288.622 Y76.861
G00 X289.916 Y71.77
G00 X288.143 Y75.781
G00 X286.088 Y80.621
G00 X284.034 Y85.46
G00 X281.978 Y90.304
G00 X279.927 Y95.137
G00 X277.87 Y99.981
G00 X275.815 Y104.823
G00 X276.456 Y101.905
G00 X277.843 Y96.828
G00 X279.226 Y91.767
G00 X280.616 Y86.68
G00 X282.004 Y81.598
G00 X283.387 Y76.538
G00 X284.771 Y71.471
G00 X284.449 Y71.323
G00 X282.397 Y76.158
G00 X280.339 Y81.005
G00 X278.279 Y85.859
G00 X276.23 Y90.686
G00 X275.995 Y89.708
G00 X277.062 Y84.556
G00 X278.127 Y79.409
G00 X279.196 Y74.244
G00 X280.259 Y69.11
G00 X279.484 Y69.862
;Nearing path end, moving to preshutoff position
G00 X278.133 Y73.044
M107 ;Pump off
G00 X277.422 Y74.72
G00 X275.377 Y79.537
G4 P250 ;Pause for 250 milliseconds
;Completed path #16/30 on color #3
;Switching Color to: Medium
G4 P1000 ;Pause for 1000 milliseconds
G28 X0 Y0 ;Home All Axis
M84 ;Motors off
M142 ;Bottle change
G4 P35000 ;Pause for 35000 milliseconds
;Starting path #17/30, segments: 30, length: 880, color #2
G00 X223.062 Y105.666
M106 ;Pump on
G4 P450 ;Pause for 450 milliseconds
G00 X225.113 Y100.835
G00 X227.168 Y95.994
G00 X229.221 Y91.158
G00 X231.282 Y86.301
G00 X233.344 Y81.444
G00 X235.393 Y76.616
G00 X237.445 Y71.782
G00 X239.547 Y69.624
G00 X241.793 Y74.397
G00 X243.85 Y70.233
G00 X245.918 Y65.361
G00 X248.452 Y65.434
G00 X251.111 Y66.667
G00 X253.171 Y61.816
G00 X255.143 Y60.821
G00 X257.001 Y65.748
G00 X259.046 Y61.514
G00 X260.954 Y59.297
G00 X262.484 Y64.345
G00 X264.368 Y62.517
G00 X266.436 Y57.644
G00 X266.275 Y62.386
G00 X265.999 Y67.646
G00 X265.735 Y72.837
G00 X267.791 Y67.993
G00 X269.85 Y63.142
G00 X271.904 Y58.303
G00 X273.842 Y60.323
G00 X275.773 Y62.729
G00 X277.836 Y57.868
G00 X279.668 Y62.395
G00 X281.598 Y62.548
G00 X283.539 Y59.509
G00 X284.981 Y64.587
G00 X286.77 Y63.902
G00 X288.644 Y61.38
G00 X289.929 Y66.497
G00 X291.645 Y65.959
G00 X293.262 Y64.648
G00 X294.08 Y69.862
G00 X295.453 Y70.53
G00 X297.487 Y65.816
G00 X298.085 Y71.046
G00 X298.682 Y76.28
G00 X300.698 Y71.711
G00 X301.948 Y71.014
G00 X302.05 Y76.296
G00 X302.152 Y81.542
G00 X304.107 Y77.222
G00 X305.341 Y76.369
G00 X305.327 Y81.643
G00 X305.313 Y86.897
G00 X306.959 Y84.044
G00 X308.747 Y80.29
G00 X308.34 Y85.534
G00 X307.931 Y90.791
G00 X307.523 Y96.037
;Nearing path end, moving to preshutoff position
G00 X308.718 Y93.358
M107 ;Pump off
G00 X309.448 Y91.72
G00 X311.504 Y86.877
G4 P250 ;Pause for 250 milliseconds
;Completed path #17/30 on color #2
;Starting path #18/30, segments: 2, length: 45, color #2
G00 X313.092 Y96.677
M106 ;Pump on
G4 P450 ;Pause for 450 milliseconds
G00 X311.545 Y100.322
G00 X309.99 Y103.985
;Nearing path end, moving to preshutoff position
G00 X309.644 Y104.799
M107 ;Pump off
G00 X308.435 Y107.648
G00 X306.888 Y111.293
G4 P250 ;Pause for 250 milliseconds
;Completed path #18/30 on color #2
;Starting path #19/30, segments: 2, length: 77, color #2
G00 X313.47 Y109.327
M106 ;Pump on
G4 P450 ;Pause for 450 milliseconds
G00 X311.693 Y113.513
G00 X309.914 Y117.703
G00 X308.131 Y121.905
G00 X306.347 Y126.107
;Nearing path end, moving to preshutoff position
G00 X305.548 Y127.99
M107 ;Pump off
G00 X304.568 Y130.298
G00 X302.792 Y134.484
G4 P250 ;Pause for 250 milliseconds
;Completed path #19/30 on color #2
;Starting path #20/30, segments: 2, length: 45, color #2
G00 X300.528 Y126.276
M106 ;Pump on
G4 P450 ;Pause for 450 milliseconds
G00 X298.966 Y129.956
G00 X297.396 Y133.655
;Nearing path end, moving to preshutoff position
G00 X297.02 Y134.541
M107 ;Pump off
G00 X295.825 Y137.354
G00 X294.263 Y141.035
G4 P250 ;Pause for 250 milliseconds
;Completed path #20/30 on color #2
;Starting path #21/30, segments: 8, length: 174, color #2
G00 X290.124 Y137.247
M106 ;Pump on
G4 P450 ;Pause for 450 milliseconds
G00 X288.117 Y141.973
G00 X285.654 Y142.98
G00 X282.795 Y140.971
G00 X280.79 Y145.694
G00 X278.259 Y143.279
G00 X275.938 Y143.584
G00 X273.954 Y148.199
G00 X273.682 Y143.093
G00 X273.408 Y137.95
G00 X271.997 Y139.328
;Nearing path end, moving to preshutoff position
G00 X270.747 Y142.273
M107 ;Pump off
G00 X269.985 Y144.069
G00 X267.991 Y148.767
G4 P250 ;Pause for 250 milliseconds
;Completed path #21/30 on color #2
;Starting path #22/30, segments: 18, length: 403, color #2
G00 X264.645 Y143.108
M106 ;Pump on
G4 P450 ;Pause for 450 milliseconds
G00 X262.578 Y146.976
G00 X260.364 Y142.175
G00 X258.273 Y144.58
G00 X256.341 Y143.141
G00 X254.434 Y140.084
G00 X252.371 Y144.942
G00 X251.007 Y140.076
G00 X249.425 Y138.343
G00 X247.423 Y142.713
G00 X246.404 Y137.511
G00 X245.129 Y134.923
G00 X243.064 Y139.787
G00 X242.025 Y136.263
G00 X241.176 Y131.032
G00 X239.182 Y135.393
G00 X238.008 Y135.154
G00 X237.698 Y129.884
G00 X236.971 Y127.06
G00 X234.908 Y131.923
G00 X234.123 Y128.566
G00 X233.62 Y123.296
G00 X232.02 Y125.184
G00 X231.074 Y124.749
G00 X231.134 Y119.449
G00 X231.194 Y114.2
;Nearing path end, moving to preshutoff position
G00 X230.184 Y116.237
M107 ;Pump off
G00 X229.392 Y117.834
G00 X227.333 Y122.686
G4 P250 ;Pause for 250 milliseconds
;Completed path #22/30 on color #2
;Starting path #23/30, segments: 2, length: 35, color #2
G00 X225.285 Y113.97
M106 ;Pump on
G4 P450 ;Pause for 450 milliseconds
G00 X226.868 Y110.242
;Nearing path end, moving to preshutoff position
G00 X227.285 Y109.259
M107 ;Pump off
G00 X228.459 Y106.493
G00 X230.041 Y102.765
G4 P250 ;Pause for 250 milliseconds
;Completed path #23/30 on color #2
;Starting path #24/30, segments: 2, length: 55, color #2
G00 X265.726 Y99.939
M106 ;Pump on
G4 P450 ;Pause for 450 milliseconds
G00 X267.626 Y95.463
G00 X269.536 Y90.965
;Nearing path end, moving to preshutoff position
G00 X270.589 Y88.484
M107 ;Pump off
G00 X271.445 Y86.466
G00 X273.345 Y81.99
G4 P250 ;Pause for 250 milliseconds
;Completed path #24/30 on color #2
;Starting path #25/30, segments: 2, length: 55, color #2
G00 X265.726 Y86.398
M106 ;Pump on
G4 P450 ;Pause for 450 milliseconds
G00 X267.626 Y81.923
G00 X269.536 Y77.424
;Nearing path end, moving to preshutoff position
G00 X270.589 Y74.943
M107 ;Pump off
G00 X271.445 Y72.925
G00 X273.345 Y68.45
G4 P250 ;Pause for 250 milliseconds
;Completed path #25/30 on color #2
;Starting path #26/30, segments: 2, length: 56, color #2
G00 X273.345 Y95.531
M106 ;Pump on
G4 P450 ;Pause for 450 milliseconds
G00 X271.414 Y100.08
G00 X269.473 Y104.652
;Nearing path end, moving to preshutoff position
G00 X268.358 Y107.279
M107 ;Pump off
G00 X267.533 Y109.224
G00 X265.602 Y113.773
G4 P250 ;Pause for 250 milliseconds
;Completed path #26/30 on color #2
;Starting path #27/30, segments: 2, length: 52, color #2
G00 X273.345 Y109.072
M106 ;Pump on
G4 P450 ;Pause for 450 milliseconds
G00 X271.572 Y113.249
G00 X269.79 Y117.448
;Nearing path end, moving to preshutoff position
G00 X268.991 Y119.33
M107 ;Pump off
G00 X268.007 Y121.646
G00 X266.234 Y125.824
G4 P250 ;Pause for 250 milliseconds
;Completed path #27/30 on color #2
;Starting path #28/30, segments: 2, length: 50, color #2
G00 X273.345 Y122.612
M106 ;Pump on
G4 P450 ;Pause for 450 milliseconds
G00 X271.626 Y126.662
G00 X269.898 Y130.732
;Nearing path end, moving to preshutoff position
G00 X269.208 Y132.359
M107 ;Pump off
G00 X268.171 Y134.803
G00 X266.452 Y138.852
G4 P250 ;Pause for 250 milliseconds
;Completed path #28/30 on color #2
;Switching Color to: Light
G4 P1000 ;Pause for 1000 milliseconds
G28 X0 Y0 ;Home All Axis
M84 ;Motors off
M142 ;Bottle change
G4 P35000 ;Pause for 35000 milliseconds
;Starting path #29/30, segments: 6, length: 57, color #1
G00 X241.056 Y101.789
M106 ;Pump on
G4 P450 ;Pause for 450 milliseconds
G00 X243.839 Y104.549
G00 X246.168 Y103.209
;Nearing path end, moving to preshutoff position
G00 X246.616 Y103.802
M107 ;Pump off
G00 X249.001 Y106.955
G00 X251.214 Y104.784
G4 P250 ;Pause for 250 milliseconds
;Completed path #29/30 on color #1
;Starting path #30/30, segments: 4, length: 46, color #1
G00 X285.765 Y108.073
M106 ;Pump on
G4 P450 ;Pause for 450 milliseconds
G00 X287.36 Y104.314
;Nearing path end, moving to preshutoff position
G00 X290.259 Y106.089
M107 ;Pump off
G00 X290.555 Y106.27
G00 X292.811 Y104.93
G00 X294.406 Y101.172
G4 P250 ;Pause for 250 milliseconds
;Completed path #30/30 on color #1
;PancakePainter Footer Start
G4 P1000 ;Pause for 1000 milliseconds
G28 X0 Y0 ;Home All Axis
M84 ;Motors off
;PancakePainter Footer Complete
