;PancakePainter v1.0.0 GCODE header start
;Originally generated @ Wed Jun 22 2016 14:28:00 GMT-0400 (Eastern Daylight Time)
;Settings used to generate this file:
;----------------------------------------
;flattenResolution: 15
;lineEndPreShutoff: 1
;startWait: 0
;endWait: 0
;shadeChangeWait: 35
;fillSpacing: 15
;fillAngle: 23
;fillGroupThreshold: 27
;----------------------------------------
W1 X42 Y210 L485 T0 ;Define Workspace of this file
G21 ;Set units to MM
G1 F5600 ;Set Speed
M107 ;Pump off
G4 P1000 ;Pause for 1000 milliseconds
M84 ;Motors off
G28 X0 Y0 ;Home All Axis
;PancakePainter header complete
;Starting path #1/2, segments: 2, length: 812, color #1
G00 X41.731 Y68.112
M106 ;Pump on
G4 P0 ;Pause for 0 milliseconds
G00 X46.783 Y66.927
G00 X51.835 Y65.742
G00 X56.93 Y64.547
G00 X61.974 Y63.363
G00 X67.065 Y62.169
G00 X72.132 Y60.98
G00 X77.192 Y59.794
G00 X82.259 Y58.605
G00 X87.329 Y57.416
G00 X92.4 Y56.226
G00 X97.471 Y55.037
G00 X102.543 Y53.847
G00 X107.617 Y52.657
G00 X112.692 Y51.466
G00 X117.766 Y50.276
G00 X122.828 Y49.089
G00 X127.894 Y47.9
G00 X132.963 Y46.711
G00 X138.035 Y45.521
G00 X143.109 Y44.331
G00 X148.18 Y43.142
G00 X153.245 Y41.954
G00 X158.305 Y40.767
G00 X163.372 Y39.578
G00 X168.458 Y38.385
G00 X173.521 Y37.197
G00 X178.594 Y36.008
G00 X183.669 Y34.817
G00 X188.742 Y33.627
G00 X193.805 Y32.439
G00 X198.89 Y31.247
G00 X203.957 Y30.058
G00 X209.017 Y28.871
G00 X214.083 Y27.683
G00 X219.153 Y26.493
G00 X224.228 Y25.303
G00 X229.3 Y24.113
G00 X234.369 Y22.924
G00 X239.435 Y21.736
G00 X244.497 Y20.549
G00 X249.571 Y19.358
G00 X254.646 Y18.168
G00 X259.72 Y16.978
G00 X264.792 Y15.788
G00 X269.863 Y14.598
G00 X274.934 Y13.409
G00 X280.004 Y12.22
G00 X285.071 Y11.031
G00 X290.131 Y9.844
G00 X295.198 Y8.656
G00 X300.289 Y7.461
G00 X305.333 Y6.278
G00 X310.428 Y5.083
G00 X315.48 Y3.898
;Nearing path end, moving to preshutoff position
G00 X320.188 Y2.794
M107 ;Pump off
G00 X320.532 Y2.713
G4 P0 ;Pause for 0 milliseconds
;Completed path #1/2 on color #1
;Starting path #2/2, segments: 5, length: 62, color #1
G00 X317.387 Y3.86
M106 ;Pump on
G4 P0 ;Pause for 0 milliseconds
G00 X319.761 Y0.526
G00 X323.689 Y1.683
G00 X323.878 Y5.773
G00 X320.099 Y7.189
;Nearing path end, moving to preshutoff position
G00 X317.61 Y4.134
M107 ;Pump off
G00 X317.387 Y3.86
G4 P0 ;Pause for 0 milliseconds
;Completed path #2/2 on color #1
;PancakePainter Footer Start
G4 P1000 ;Pause for 1000 milliseconds
G28 X0 Y0 ;Home All Axis
M84 ;Motors off
;PancakePainter Footer Complete
