;PancakePainter v1.0.0 GCODE header start
;Originally generated @ Thu Jun 30 2016 13:18:50 GMT-0400 (Eastern Daylight Time)
;Settings used to generate this file:
;----------------------------------------
;flattenResolution: 40
;lineEndPreShutoff: 1
;startWait: 0
;endWait: 0
;shadeChangeWait: 35
;fillSpacing: 15
;fillAngle: 23
;fillGroupThreshold: 27
;----------------------------------------
W1 X42 Y210 L485 T0 ;Define Workspace of this file
G21 ;Set units to MM
G1 F5600 ;Set Speed
M107 ;Pump off
G4 P1000 ;Pause for 1000 milliseconds
M84 ;Motors off
G28 X0 Y0 ;Home All Axis
;PancakePainter header complete
;Starting path #1/20, segments: 8, length: 292, color #1
G00 X113.242 Y35.475
M106 ;Pump on
G4 P0 ;Pause for 0 milliseconds
G00 X103.067 Y27.719
G00 X91.22 Y30.943
G00 X82.544 Y40.125
G00 X79.155 Y52.493
G00 X79.767 Y65.178
G00 X90.58 Y70.582
G00 X103.299 Y69.244
;Nearing path end, moving to preshutoff position
G00 X115.79 Y69.62
M107 ;Pump off
G00 X116.142 Y69.631
G4 P0 ;Pause for 0 milliseconds
;Completed path #1/20 on color #1
;Starting path #2/20, segments: 11, length: 279, color #1
G00 X128.709 Y70.597
M106 ;Pump on
G4 P0 ;Pause for 0 milliseconds
G00 X133.538 Y57.38
G00 X139.864 Y44.805
G00 X146.642 Y32.476
G00 X152.262 Y31.647
G00 X157.139 Y44.757
G00 X161.625 Y57.9
;Nearing path end, moving to preshutoff position
G00 X167.858 Y69.962
M107 ;Pump off
G00 X168.02 Y70.275
G4 P0 ;Pause for 0 milliseconds
;Completed path #2/20 on color #1
;Starting path #3/20, segments: 6, length: 70, color #1
G00 X161.576 Y56.42
M106 ;Pump on
G4 P0 ;Pause for 0 milliseconds
G00 X149.678 Y55.127
;Nearing path end, moving to preshutoff position
G00 X137.762 Y55.444
M107 ;Pump off
G00 X137.409 Y55.453
G4 P0 ;Pause for 0 milliseconds
;Completed path #3/20 on color #1
;Starting path #4/20, segments: 4, length: 121, color #1
G00 X176.721 Y29.03
M106 ;Pump on
G4 P0 ;Pause for 0 milliseconds
G00 X187.321 Y29.697
G00 X197.91 Y30.639
G00 X208.518 Y30.342
;Nearing path end, moving to preshutoff position
G00 X218.585 Y28.451
M107 ;Pump off
G00 X218.932 Y28.386
G4 P0 ;Pause for 0 milliseconds
;Completed path #4/20 on color #1
;Starting path #5/20, segments: 4, length: 113, color #1
G00 X206.365 Y33.219
M106 ;Pump on
G4 P0 ;Pause for 0 milliseconds
G00 X206.146 Y46.461
G00 X205.78 Y59.698
;Nearing path end, moving to preshutoff position
G00 X206.977 Y72.502
M107 ;Pump off
G00 X207.01 Y72.853
G4 P0 ;Pause for 0 milliseconds
;Completed path #5/20 on color #1
;Starting path #6/20, segments: 14, length: 344, color #1
G00 X225.377 Y72.209
M106 ;Pump on
G4 P0 ;Pause for 0 milliseconds
G00 X230.073 Y59.577
G00 X232.46 Y46.358
G00 X237.281 Y33.741
G00 X244.158 Y22.165
G00 X247.932 Y22.601
G00 X249.438 Y36.001
G00 X253.312 Y48.916
G00 X259.045 Y61.114
;Nearing path end, moving to preshutoff position
G00 X263.285 Y73.486
M107 ;Pump off
G00 X263.399 Y73.82
G4 P0 ;Pause for 0 milliseconds
;Completed path #6/20 on color #1
;Starting path #7/20, segments: 4, length: 63, color #1
G00 X255.344 Y51.908
M106 ;Pump on
G4 P0 ;Pause for 0 milliseconds
G00 X244.448 Y50.944
;Nearing path end, moving to preshutoff position
G00 X233.785 Y51.254
M107 ;Pump off
G00 X233.432 Y51.264
G4 P0 ;Pause for 0 milliseconds
;Completed path #7/20 on color #1
;Starting path #8/20, segments: 5, length: 252, color #1
G00 X215.71 Y96.375
M106 ;Pump on
G4 P0 ;Pause for 0 milliseconds
G00 X215.198 Y109.039
G00 X214.725 Y121.717
G00 X214.026 Y134.389
G00 X213.616 Y147.069
G00 X213.459 Y159.757
G00 X212.976 Y172.452
;Nearing path end, moving to preshutoff position
G00 X214.381 Y184.637
M107 ;Pump off
G00 X214.421 Y184.987
G4 P0 ;Pause for 0 milliseconds
;Completed path #8/20 on color #1
;Starting path #9/20, segments: 7, length: 181, color #1
G00 X210.232 Y138.909
M106 ;Pump on
G4 P0 ;Pause for 0 milliseconds
G00 X220.316 Y146.534
G00 X230.703 Y153.833
G00 X241.185 Y160.941
G00 X251.462 Y168.307
;Nearing path end, moving to preshutoff position
G00 X260.562 Y176.693
M107 ;Pump off
G00 X260.821 Y176.932
G4 P0 ;Pause for 0 milliseconds
;Completed path #9/20 on color #1
;Starting path #10/20, segments: 3, length: 203, color #1
G00 X305.933 Y173.709
M106 ;Pump on
G4 P0 ;Pause for 0 milliseconds
G00 X305.894 Y161.768
G00 X305.598 Y149.826
G00 X304.773 Y137.911
G00 X303.53 Y126.049
G00 X303.81 Y114.096
;Nearing path end, moving to preshutoff position
G00 X304.307 Y102.528
M107 ;Pump off
G00 X304.322 Y102.175
G4 P0 ;Pause for 0 milliseconds
;Completed path #10/20 on color #1
;Starting path #11/20, segments: 10, length: 312, color #1
G00 X296.911 Y78.009
M106 ;Pump on
G4 P0 ;Pause for 0 milliseconds
G00 X295.624 Y64.403
G00 X295.096 Y50.676
G00 X294.938 Y36.932
G00 X297.492 Y25.288
G00 X309.993 Y25.433
G00 X316.532 Y37.327
G00 X310.355 Y48.29
;Nearing path end, moving to preshutoff position
G00 X297.263 Y47.734
M107 ;Pump off
G00 X296.911 Y47.719
G4 P0 ;Pause for 0 milliseconds
;Completed path #11/20 on color #1
;Starting path #12/20, segments: 8, length: 321, color #1
G00 X328.167 Y29.03
M106 ;Pump on
G4 P0 ;Pause for 0 milliseconds
G00 X325.493 Y41.311
G00 X324.267 Y53.78
G00 X325.152 Y66.285
G00 X330.811 Y77.055
G00 X342.183 Y72.346
G00 X350.813 Y63.206
G00 X357.931 Y52.871
G00 X361.788 Y40.969
;Nearing path end, moving to preshutoff position
G00 X361.994 Y29.061
M107 ;Pump off
G00 X362 Y28.708
G4 P0 ;Pause for 0 milliseconds
;Completed path #12/20 on color #1
;Starting path #13/20, segments: 6, length: 226, color #1
G00 X372.312 Y29.675
M106 ;Pump on
G4 P0 ;Pause for 0 milliseconds
G00 X372.082 Y42.963
G00 X371.73 Y56.25
G00 X371.667 Y69.532
G00 X381.875 Y73.517
G00 X395.141 Y72.676
;Nearing path end, moving to preshutoff position
G00 X408.048 Y72.848
M107 ;Pump off
G00 X408.401 Y72.853
G4 P0 ;Pause for 0 milliseconds
;Completed path #13/20 on color #1
;Starting path #14/20, segments: 9, length: 144, color #1
G00 X434.179 Y74.786
M106 ;Pump on
G4 P0 ;Pause for 0 milliseconds
G00 X436.445 Y62.765
G00 X436.725 Y50.235
G00 X436.635 Y37.51
;Nearing path end, moving to preshutoff position
G00 X437.693 Y25.193
M107 ;Pump off
G00 X437.723 Y24.842
G4 P0 ;Pause for 0 milliseconds
;Completed path #14/20 on color #1
;Starting path #15/20, segments: 7, length: 134, color #1
G00 X455.124 Y25.164
M106 ;Pump on
G4 P0 ;Pause for 0 milliseconds
G00 X443.5 Y25.152
G00 X431.747 Y24.194
G00 X419.915 Y23.688
;Nearing path end, moving to preshutoff position
G00 X408.431 Y23.244
M107 ;Pump off
G00 X408.079 Y23.23
G4 P0 ;Pause for 0 milliseconds
;Completed path #15/20 on color #1
;Starting path #16/20, segments: 20, length: 632, color #1
G00 X372.634 Y101.209
M106 ;Pump on
G4 P0 ;Pause for 0 milliseconds
G00 X358.777 Y101.826
G00 X347.349 Y108.574
G00 X341.659 Y121.154
G00 X337.468 Y134.457
G00 X335.797 Y148.208
G00 X338.698 Y161.802
G00 X343.614 Y174.734
G00 X355.678 Y180.982
G00 X369.3 Y182.982
G00 X381.694 Y177.881
G00 X390.626 Y167.677
G00 X388.256 Y154.06
G00 X378.066 Y144.865
G00 X364.889 Y141.097
G00 X352.415 Y146.711
;Nearing path end, moving to preshutoff position
G00 X345.451 Y156.346
M107 ;Pump off
G00 X345.245 Y156.632
G4 P0 ;Pause for 0 milliseconds
;Completed path #16/20 on color #1
;Starting path #17/20, segments: 4, length: 171, color #1
G00 X256.633 Y98.309
M106 ;Pump on
G4 P0 ;Pause for 0 milliseconds
G00 X246.489 Y104.596
G00 X236.867 Y111.818
G00 X227.901 Y119.789
G00 X220.35 Y129.166
;Nearing path end, moving to preshutoff position
G00 X211.78 Y137.059
M107 ;Pump off
G00 X211.521 Y137.298
G4 P0 ;Pause for 0 milliseconds
;Completed path #17/20 on color #1
;Starting path #18/20, segments: 15, length: 552, color #1
G00 X167.054 Y182.409
M106 ;Pump on
G4 P0 ;Pause for 0 milliseconds
G00 X153.59 Y183.571
G00 X139.79 Y184.573
G00 X125.895 Y184.922
G00 X111.995 Y184.671
G00 X116.878 Y180.403
G00 X129.267 Y174.202
G00 X141.653 Y168.385
G00 X152.199 Y159.453
G00 X159.006 Y147.647
G00 X159.82 Y133.822
G00 X158.025 Y120.049
G00 X150.112 Y108.845
G00 X137.89 Y103.713
;Nearing path end, moving to preshutoff position
G00 X127.376 Y111.947
M107 ;Pump off
G00 X127.098 Y112.164
G4 P0 ;Pause for 0 milliseconds
;Completed path #18/20 on color #1
;PancakePainter Footer Start
G4 P1000 ;Pause for 1000 milliseconds
G28 X0 Y0 ;Home All Axis
M84 ;Motors off
;PancakePainter Footer Complete
