;PancakePainter v1.0.0 GCODE header start
;Originally generated @ Mon Jun 20 2016 14:45:43 GMT-0400 (Eastern Daylight Time)
;Settings used to generate this file:
;----------------------------------------
;flattenResolution: 15
;lineEndPreShutoff: 1
;startWait: 0
;endWait: 0
;shadeChangeWait: 35
;fillSpacing: 15
;fillAngle: 23
;fillGroupThreshold: 27
;----------------------------------------
W1 X42 Y210 L485 T0 ;Define Workspace of this file
G21 ;Set units to MM
G1 F5600 ;Set Speed
M107 ;Pump off
G4 P1000 ;Pause for 1000 milliseconds
M84 ;Motors off
G28 X0 Y0 ;Home All Axis
;PancakePainter header complete
;Starting path #1/1, segments: 24, length: 993, color #1
G00 X125.868 Y40.193
M106 ;Pump on
G4 P0 ;Pause for 0 milliseconds
G00 X131.066 Y40.713
G00 X136.238 Y41.449
G00 X141.382 Y42.37
G00 X146.495 Y43.447
G00 X151.581 Y44.654
G00 X156.639 Y45.967
G00 X161.676 Y47.363
G00 X166.469 Y49.363
G00 X171.185 Y51.597
G00 X175.958 Y53.721
G00 X180.742 Y55.832
G00 X185.531 Y57.932
G00 X190.319 Y60.025
G00 X195.109 Y62.097
G00 X199.987 Y63.972
G00 X204.673 Y66.25
G00 X209.304 Y68.677
G00 X213.918 Y71.134
G00 X218.521 Y73.616
G00 X223.114 Y76.116
G00 X227.694 Y78.625
G00 X232.283 Y81.147
G00 X236.85 Y83.661
G00 X241.416 Y86.201
G00 X245.991 Y88.725
G00 X250.574 Y91.232
G00 X250.919 Y89.413
G00 X248.508 Y84.763
G00 X246.129 Y80.119
G00 X244.847 Y75.044
G00 X243.653 Y69.967
G00 X242.479 Y64.876
G00 X241.299 Y59.792
G00 X240.084 Y54.708
G00 X238.81 Y49.643
G00 X237.436 Y44.594
G00 X235.915 Y39.6
G00 X234.548 Y34.561
G00 X233.711 Y29.41
G00 X233.786 Y24.186
G00 X233.652 Y18.966
G00 X230 Y18.769
G00 X224.945 Y19.83
G00 X220.134 Y21.871
G00 X215.48 Y24.253
G00 X210.888 Y26.744
G00 X206.111 Y28.852
G00 X201.487 Y31.252
G00 X197.233 Y34.284
G00 X193.066 Y37.449
G00 X188.854 Y40.534
G00 X184.531 Y43.469
G00 X180.207 Y46.402
G00 X175.891 Y49.346
G00 X171.584 Y52.303
G00 X167.137 Y55.047
G00 X162.763 Y57.902
G00 X158.768 Y61.266
G00 X155.039 Y64.925
G00 X151.443 Y68.716
G00 X147.851 Y72.51
G00 X144.133 Y76.18
G00 X140.276 Y79.705
G00 X136.377 Y83.184
G00 X132.536 Y86.725
G00 X129.097 Y90.636
;Nearing path end, moving to preshutoff position
G00 X125.74 Y93.873
M107 ;Pump off
G00 X125.486 Y94.118
G4 P0 ;Pause for 0 milliseconds
;Completed path #1/1 on color #1
;PancakePainter Footer Start
G4 P1000 ;Pause for 1000 milliseconds
G28 X0 Y0 ;Home All Axis
M84 ;Motors off
;PancakePainter Footer Complete
