;PancakePainter v1.0.0 GCODE header start
;Originally generated @ Tue Jun 21 2016 15:26:34 GMT-0400 (Eastern Daylight Time)
;Settings used to generate this file:
;----------------------------------------
;flattenResolution: 15
;lineEndPreShutoff: 1
;startWait: 0
;endWait: 0
;shadeChangeWait: 35
;fillSpacing: 15
;fillAngle: 23
;fillGroupThreshold: 27
;----------------------------------------
W1 X42 Y210 L485 T0 ;Define Workspace of this file
G21 ;Set units to MM
G1 F5600 ;Set Speed
M107 ;Pump off
G4 P1000 ;Pause for 1000 milliseconds
M84 ;Motors off
G28 X0 Y0 ;Home All Axis
;PancakePainter header complete
;Starting path #1/4, segments: 8, length: 48, color #1
G00 X202.357 Y73.466
M106 ;Pump on
G4 P0 ;Pause for 0 milliseconds
G00 X203.87 Y77.278
G00 X206.275 Y80.729
G00 X206.846 Y84.715
;Nearing path end, moving to preshutoff position
G00 X207.98 Y88.048
M107 ;Pump off
G00 X208.094 Y88.381
G4 P0 ;Pause for 0 milliseconds
;Completed path #1/4 on color #1
;Starting path #2/4, segments: 6, length: 144, color #1
G00 X203.122 Y110.563
M106 ;Pump on
G4 P0 ;Pause for 0 milliseconds
G00 X207.724 Y112.485
G00 X211.634 Y115.754
G00 X216.062 Y118.168
G00 X221.077 Y118.982
G00 X226.167 Y118.937
G00 X231.213 Y118.324
G00 X236.164 Y117.14
G00 X241.164 Y116.46
G00 X243.912 Y112.25
;Nearing path end, moving to preshutoff position
G00 X246.166 Y108.195
M107 ;Pump off
G00 X246.338 Y107.886
G4 P0 ;Pause for 0 milliseconds
;Completed path #2/4 on color #1
;Starting path #3/4, segments: 3, length: 41, color #1
G00 X242.513 Y84.939
M106 ;Pump on
G4 P0 ;Pause for 0 milliseconds
G00 X241.703 Y80.149
G00 X240.402 Y75.457
;Nearing path end, moving to preshutoff position
G00 X239.168 Y71.128
M107 ;Pump off
G00 X239.071 Y70.789
G4 P0 ;Pause for 0 milliseconds
;Completed path #3/4 on color #1
;Starting path #4/4, segments: 29, length: 887, color #1
G00 X234.865 Y50.137
M106 ;Pump on
G4 P0 ;Pause for 0 milliseconds
G00 X229.738 Y50.972
G00 X224.854 Y52.797
G00 X219.968 Y54.611
G00 X214.903 Y55.824
G00 X209.775 Y56.788
G00 X204.663 Y57.803
G00 X199.551 Y58.847
G00 X196.371 Y62.394
G00 X192.428 Y65.804
G00 X189.264 Y69.839
G00 X186.97 Y74.521
G00 X184.592 Y79.161
G00 X182.623 Y83.987
G00 X180.433 Y88.71
G00 X178.193 Y93.422
G00 X176.124 Y98.209
G00 X174.375 Y103.12
G00 X173.119 Y108.177
G00 X172.544 Y113.352
G00 X172.277 Y118.562
G00 X173.265 Y123.514
G00 X177.042 Y126.345
G00 X181.239 Y129.197
G00 X186.038 Y131.232
G00 X190.943 Y132.995
G00 X195.938 Y134.485
G00 X201.007 Y135.702
G00 X206.131 Y136.654
G00 X211.295 Y137.352
G00 X216.488 Y137.813
G00 X221.696 Y138.053
G00 X226.907 Y138.165
G00 X232.09 Y138.727
G00 X237.296 Y139.012
G00 X242.268 Y137.686
G00 X246.577 Y134.741
G00 X251.246 Y132.44
G00 X256.056 Y130.419
G00 X260.686 Y128.075
G00 X264.668 Y124.702
G00 X268.42 Y121.07
G00 X272.082 Y117.338
G00 X273.189 Y112.47
G00 X274.655 Y107.574
G00 X277.117 Y102.98
G00 X275.165 Y98.691
G00 X275.47 Y93.475
G00 X273.671 Y89.335
G00 X273.352 Y84.131
G00 X273.003 Y78.929
G00 X272.516 Y73.739
G00 X269.033 Y71.303
G00 X265.35 Y67.631
G00 X261.759 Y63.893
G00 X257.875 Y60.524
G00 X253.7 Y57.527
G00 X249.711 Y54.147
G00 X245.069 Y51.836
G00 X239.882 Y51.513
;Nearing path end, moving to preshutoff position
G00 X235.205 Y50.23
M107 ;Pump off
G00 X234.865 Y50.137
G4 P0 ;Pause for 0 milliseconds
;Completed path #4/4 on color #1
;PancakePainter Footer Start
G4 P1000 ;Pause for 1000 milliseconds
G28 X0 Y0 ;Home All Axis
M84 ;Motors off
;PancakePainter Footer Complete
