;PancakePainter v1.0.0 GCODE header start
;Originally generated @ Wed Jun 29 2016 13:37:57 GMT-0400 (Eastern Daylight Time)
;Settings used to generate this file:
;----------------------------------------
;flattenResolution: 40
;lineEndPreShutoff: 1
;startWait: 0
;endWait: 0
;shadeChangeWait: 35
;fillSpacing: 15
;fillAngle: 23
;fillGroupThreshold: 27
;----------------------------------------
W1 X42 Y210 L485 T0 ;Define Workspace of this file
G21 ;Set units to MM
G1 F5600 ;Set Speed
M107 ;Pump off
G4 P1000 ;Pause for 1000 milliseconds
M84 ;Motors off
G28 X0 Y0 ;Home All Axis
;PancakePainter header complete
;Starting path #1/11, segments: 62, length: 2422, color #1
G00 X211.783 Y121.554
M106 ;Pump on
G4 P0 ;Pause for 0 milliseconds
G00 X212.252 Y110.315
G00 X214.089 Y105.611
G00 X216.6 Y96.545
G00 X224.317 Y80.703
G00 X236.406 Y66.65
G00 X250.317 Y59.908
G00 X233.856 Y62.031
G00 X226.423 Y62.031
G00 X222.706 Y58.049
G00 X225.095 Y52.208
G00 X233.591 Y48.226
G00 X243.945 Y46.899
G00 X269.963 Y56.722
G00 X254.17 Y43.997
G00 X249.305 Y38.051
G00 X252.491 Y32.352
G00 X263.179 Y31.271
G00 X277.465 Y41.959
G00 X288.548 Y56.987
G00 X300.495 Y61.766
G00 X311.645 Y68.934
G00 X325.982 Y83.271
G00 X332.354 Y94.952
G00 X333.946 Y106.103
G00 X335.008 Y119.643
G00 X333.946 Y130.793
G00 X332.088 Y137.696
G00 X329.168 Y143.271
G00 X325.185 Y149.378
G00 X318.283 Y156.015
G00 X308.194 Y161.325
G00 X298.636 Y165.838
G00 X287.751 Y169.29
G00 X277.928 Y170.086
G00 X264.919 Y170.086
G00 X254.034 Y168.759
G00 X241.025 Y165.307
G00 X229.874 Y159.466
G00 X221.236 Y151.502
G00 X216.6 Y143.802
G00 X212.617 Y134.245
G00 X211.635 Y119.754
G00 X196.565 Y136.325
G00 X193.427 Y134.24
G00 X212.101 Y116.682
G00 X185.803 Y116.707
G00 X184.577 Y112.497
G00 X210.233 Y112.693
G00 X194.795 Y89.401
G00 X197.45 Y86.263
G00 X211.288 Y107.825
G00 X212.012 Y103.239
G00 X197.933 Y80.471
G00 X190.21 Y89.884
G00 X203.967 Y109.192
G00 X178.866 Y108.226
G00 X183.21 Y120.776
G00 X203.484 Y120.294
G00 X187.796 Y133.085
G00 X196.967 Y141.532
;Nearing path end, moving to preshutoff position
G00 X211.227 Y124.924
M107 ;Pump off
G00 X211.456 Y124.657
G4 P0 ;Pause for 0 milliseconds
;Completed path #1/11 on color #1
;Starting path #2/11, segments: 8, length: 12, color #1
G00 X267.493 Y107.286
M106 ;Pump on
G4 P0 ;Pause for 0 milliseconds
G00 X269.748 Y107.608
G00 X269.748 Y107.608
G00 X270.07 Y107.453
G00 X270.07 Y107.44
G00 X270.07 Y107.286
G00 X270.07 Y107.286
;Nearing path end, moving to preshutoff position
G00 X269.855 Y108.172
M107 ;Pump off
G00 X269.748 Y108.252
G4 P0 ;Pause for 0 milliseconds
;Completed path #2/11 on color #1
;Starting path #3/11, segments: 4, length: 2, color #1
G00 X272.646 Y107.93
M106 ;Pump on
G4 P0 ;Pause for 0 milliseconds
;Nearing path end, moving to preshutoff position
G00 X272.646 Y107.639
M107 ;Pump off
G00 X272.646 Y107.286
G4 P0 ;Pause for 0 milliseconds
;Completed path #3/11 on color #1
;Starting path #4/11, segments: 19, length: 891, color #1
G00 X262.631 Y92.423
M106 ;Pump on
G4 P0 ;Pause for 0 milliseconds
G00 X252.011 Y105.246
G00 X252.011 Y115.373
G00 X255.098 Y120.419
G00 X266.385 Y116.026
G00 X285.839 Y113.739
G00 X286.312 Y103.286
G00 X246.211 Y91.526
G00 X241.936 Y85.628
G00 X287.801 Y100.057
G00 X317.554 Y83.482
G00 X313.11 Y90.617
G00 X288.599 Y103.286
G00 X289.027 Y113.515
G00 X303.381 Y113.168
G00 X318.428 Y115.179
G00 X317.999 Y102.959
G00 X315.059 Y98.059
;Nearing path end, moving to preshutoff position
G00 X302.786 Y91.35
M107 ;Pump off
G00 X302.476 Y91.181
G4 P0 ;Pause for 0 milliseconds
;Completed path #4/11 on color #1
;Starting path #5/11, segments: 2, length: 0, color #1
G00 X306.626 Y105.835
M106 ;Pump on
G4 P0 ;Pause for 0 milliseconds
;Very short path, early shutoff without move
M107 ;Pump off
G00 X306.626 Y105.835
G4 P0 ;Pause for 0 milliseconds
;Completed path #5/11 on color #1
;Starting path #6/11, segments: 22, length: 563, color #1
G00 X312.173 Y137.25
M106 ;Pump on
G4 P0 ;Pause for 0 milliseconds
G00 X306.007 Y149.005
G00 X301.855 Y154.047
G00 X294.145 Y158.495
G00 X286.731 Y157.606
G00 X280.799 Y154.343
G00 X271.31 Y148.709
G00 X267.751 Y143.371
G00 X266.565 Y137.44
G00 X268.344 Y131.805
G00 X271.903 Y127.653
G00 X281.967 Y122.593
G00 X295.331 Y118.757
G00 X303.634 Y119.35
G00 X311.938 Y124.095
G00 X318.759 Y131.805
G00 X322.021 Y141.888
G00 X310.993 Y137.012
G00 X300.076 Y135.66
G00 X292.54 Y135.779
G00 X283.172 Y137.143
;Nearing path end, moving to preshutoff position
G00 X268.123 Y143.44
M107 ;Pump off
G00 X267.797 Y143.576
G4 P0 ;Pause for 0 milliseconds
;Completed path #6/11 on color #1
;PancakePainter Footer Start
G4 P1000 ;Pause for 1000 milliseconds
G28 X0 Y0 ;Home All Axis
M84 ;Motors off
;PancakePainter Footer Complete
