;PancakePainter v1.0.0 GCODE header start
;Originally generated @ Thu Jun 30 2016 13:14:38 GMT-0400 (Eastern Daylight Time)
;Settings used to generate this file:
;----------------------------------------
;flattenResolution: 40
;lineEndPreShutoff: 1
;startWait: 0
;endWait: 0
;shadeChangeWait: 35
;fillSpacing: 15
;fillAngle: 23
;fillGroupThreshold: 27
;----------------------------------------
W1 X42 Y210 L485 T0 ;Define Workspace of this file
G21 ;Set units to MM
G1 F5600 ;Set Speed
M107 ;Pump off
G4 P1000 ;Pause for 1000 milliseconds
M84 ;Motors off
G28 X0 Y0 ;Home All Axis
;PancakePainter header complete
;Starting path #1/9, segments: 3, length: 119, color #1
G00 X84.242 Y58.031
M106 ;Pump on
G4 P0 ;Pause for 0 milliseconds
G00 X98.223 Y57.814
G00 X112.153 Y59.002
;Nearing path end, moving to preshutoff position
G00 X125.778 Y59.312
M107 ;Pump off
G00 X126.131 Y59.32
G4 P0 ;Pause for 0 milliseconds
;Completed path #1/9 on color #1
;Starting path #2/9, segments: 23, length: 593, color #1
G00 X139.02 Y104.753
M106 ;Pump on
G4 P0 ;Pause for 0 milliseconds
G00 X135.037 Y91.415
G00 X130.664 Y78.292
G00 X128.801 Y64.468
G00 X125.994 Y50.979
G00 X121.775 Y37.834
G00 X117.898 Y24.96
G00 X117.431 Y11.044
G00 X112.429 Y14.839
G00 X103.917 Y25.712
G00 X97.324 Y37.977
G00 X90.906 Y50.234
G00 X83.408 Y61.629
G00 X78.695 Y74.667
G00 X71.293 Y86.477
;Nearing path end, moving to preshutoff position
G00 X63.815 Y97.693
M107 ;Pump off
G00 X63.619 Y97.987
G4 P0 ;Pause for 0 milliseconds
;Completed path #2/9 on color #1
;Starting path #3/9, segments: 19, length: 595, color #1
G00 X158.676 Y107.009
M106 ;Pump on
G4 P0 ;Pause for 0 milliseconds
G00 X172.482 Y108.646
G00 X185.977 Y105.437
G00 X197.701 Y98.41
G00 X206.626 Y88.264
G00 X205.119 Y74.55
G00 X196.846 Y63.288
G00 X183.478 Y60.371
G00 X169.853 Y58.181
G00 X160.447 Y48.347
G00 X158.762 Y34.513
G00 X163.823 Y22.07
G00 X172.595 Y11.204
G00 X185.016 Y6.541
G00 X198.926 Y7.662
;Nearing path end, moving to preshutoff position
G00 X211.514 Y12.471
M107 ;Pump off
G00 X211.843 Y12.597
G4 P0 ;Pause for 0 milliseconds
;Completed path #3/9 on color #1
;Starting path #4/9, segments: 6, length: 138, color #1
G00 X221.188 Y9.053
M106 ;Pump on
G4 P0 ;Pause for 0 milliseconds
G00 X232.873 Y12.335
G00 X245.032 Y13.04
G00 X257.215 Y13.26
;Nearing path end, moving to preshutoff position
G00 X268.847 Y13.555
M107 ;Pump off
G00 X269.199 Y13.564
G4 P0 ;Pause for 0 milliseconds
;Completed path #4/9 on color #1
;Starting path #5/9, segments: 6, length: 287, color #1
G00 X253.41 Y13.241
M106 ;Pump on
G4 P0 ;Pause for 0 milliseconds
G00 X252.159 Y25.757
G00 X251.175 Y38.341
G00 X249.232 Y50.831
G00 X247.568 Y63.319
G00 X248.296 Y75.926
G00 X247.222 Y88.518
G00 X246.716 Y101.136
;Nearing path end, moving to preshutoff position
G00 X246.646 Y113.423
M107 ;Pump off
G00 X246.644 Y113.776
G4 P0 ;Pause for 0 milliseconds
;Completed path #5/9 on color #1
;Starting path #6/9, segments: 4, length: 159, color #1
G00 X268.233 Y114.098
M106 ;Pump on
G4 P0 ;Pause for 0 milliseconds
G00 X254.374 Y113.087
G00 X240.386 Y113.67
G00 X226.482 Y115.374
;Nearing path end, moving to preshutoff position
G00 X212.84 Y116.015
M107 ;Pump off
G00 X212.488 Y116.031
G4 P0 ;Pause for 0 milliseconds
;Completed path #6/9 on color #1
;Starting path #7/9, segments: 22, length: 649, color #1
G00 X283.055 Y111.52
M106 ;Pump on
G4 P0 ;Pause for 0 milliseconds
G00 X286.925 Y98.62
G00 X289.178 Y85.325
G00 X292.582 Y72.314
G00 X297.621 Y59.885
G00 X303.806 Y47.982
G00 X309.246 Y35.805
G00 X314.304 Y23.325
G00 X318.636 Y10.864
G00 X321.704 Y18.154
G00 X324.254 Y31.383
G00 X325.519 Y44.773
G00 X329.162 Y57.747
G00 X332.492 Y70.794
G00 X334.922 Y84.005
G00 X336.976 Y97.222
G00 X340.053 Y110.163
;Nearing path end, moving to preshutoff position
G00 X341.969 Y122.771
M107 ;Pump off
G00 X342.022 Y123.12
G4 P0 ;Pause for 0 milliseconds
;Completed path #7/9 on color #1
;Starting path #8/9, segments: 24, length: 898, color #1
G00 X367.8 Y115.387
M106 ;Pump on
G4 P0 ;Pause for 0 milliseconds
G00 X367.8 Y101.609
G00 X367.8 Y87.83
G00 X367.802 Y74.06
G00 X367.803 Y60.274
G00 X366.077 Y46.624
G00 X365.95 Y32.873
G00 X366.189 Y19.098
G00 X370.91 Y22.839
G00 X376.747 Y35.242
G00 X380.71 Y48.441
G00 X387.6 Y60.303
G00 X391.046 Y73.622
G00 X395.844 Y86.428
G00 X401.409 Y98.836
G00 X405.256 Y112.028
G00 X408.143 Y112.579
G00 X408.079 Y98.799
G00 X408.384 Y85.045
G00 X408.913 Y71.292
G00 X406.957 Y57.657
G00 X406.65 Y43.915
G00 X406.903 Y30.107
;Nearing path end, moving to preshutoff position
G00 X404.91 Y17.135
M107 ;Pump off
G00 X404.856 Y16.786
G4 P0 ;Pause for 0 milliseconds
;Completed path #8/9 on color #1
;Starting path #9/9, segments: 5, length: 95, color #1
G00 X329.133 Y58.997
M106 ;Pump on
G4 P0 ;Pause for 0 milliseconds
G00 X317.978 Y59.657
G00 X306.925 Y60.477
;Nearing path end, moving to preshutoff position
G00 X296.293 Y62.164
M107 ;Pump off
G00 X295.944 Y62.22
G4 P0 ;Pause for 0 milliseconds
;Completed path #9/9 on color #1
;PancakePainter Footer Start
G4 P1000 ;Pause for 1000 milliseconds
G28 X0 Y0 ;Home All Axis
M84 ;Motors off
;PancakePainter Footer Complete
