;PancakePainter v1.0.0 GCODE header start
;Originally generated @ Thu Jun 30 2016 14:23:15 GMT-0400 (Eastern Daylight Time)
;Settings used to generate this file:
;----------------------------------------
;flattenResolution: 40
;lineEndPreShutoff: 1
;startWait: 0
;endWait: 0
;shadeChangeWait: 35
;fillSpacing: 15
;fillAngle: 23
;fillGroupThreshold: 27
;----------------------------------------
W1 X42 Y210 L485 T0 ;Define Workspace of this file
G21 ;Set units to MM
G1 F5600 ;Set Speed
M107 ;Pump off
G4 P1000 ;Pause for 1000 milliseconds
M84 ;Motors off
G28 X0 Y0 ;Home All Axis
;PancakePainter header complete
;Starting path #1/20, segments: 14, length: 137, color #1
G00 X100.675 Y115.387
M106 ;Pump on
G4 P0 ;Pause for 0 milliseconds
G00 X103.868 Y126.862
G00 X107.61 Y138.207
G00 X110.368 Y149.453
;Nearing path end, moving to preshutoff position
G00 X113.139 Y158.55
M107 ;Pump off
G00 X113.242 Y158.887
G4 P0 ;Pause for 0 milliseconds
;Completed path #1/20 on color #1
;Starting path #2/20, segments: 8, length: 197, color #1
G00 X148.365 Y151.476
M106 ;Pump on
G4 P0 ;Pause for 0 milliseconds
G00 X159.257 Y142.912
G00 X171.524 Y136.38
G00 X184.14 Y130.661
G00 X195.606 Y122.734
;Nearing path end, moving to preshutoff position
G00 X207.022 Y116.522
M107 ;Pump off
G00 X207.332 Y116.353
G4 P0 ;Pause for 0 milliseconds
;Completed path #2/20 on color #1
;Starting path #3/20, segments: 10, length: 73, color #1
G00 X180.587 Y132.787
M106 ;Pump on
G4 P0 ;Pause for 0 milliseconds
G00 X177.907 Y121.98
;Nearing path end, moving to preshutoff position
G00 X175.813 Y109.612
M107 ;Pump off
G00 X175.754 Y109.264
G4 P0 ;Pause for 0 milliseconds
;Completed path #3/20 on color #1
;Starting path #4/20, segments: 35, length: 853, color #1
G00 X141.276 Y112.809
M106 ;Pump on
G4 P0 ;Pause for 0 milliseconds
G00 X145.522 Y125.634
G00 X147.804 Y139.032
G00 X149.666 Y150.734
G00 X139.03 Y158.988
G00 X126.548 Y163.582
G00 X113.247 Y160.57
G00 X100.825 Y155.827
G00 X89.316 Y148.824
G00 X81.955 Y137.675
G00 X77.31 Y124.806
G00 X71.875 Y112.278
G00 X74.097 Y100.22
G00 X85.76 Y93.108
G00 X99.038 Y90.682
G00 X112.329 Y87.536
G00 X125.718 Y84.802
G00 X139.211 Y83.646
G00 X152.747 Y82.752
G00 X166.081 Y80.687
G00 X179.629 Y78.952
G00 X193.125 Y79.802
;Nearing path end, moving to preshutoff position
G00 X205.7 Y82.761
M107 ;Pump off
G00 X206.043 Y82.842
G4 P0 ;Pause for 0 milliseconds
;Completed path #4/20 on color #1
;Starting path #5/20, segments: 13, length: 257, color #1
G00 X207.654 Y74.464
M106 ;Pump on
G4 P0 ;Pause for 0 milliseconds
G00 X206.666 Y61.831
G00 X207.326 Y48.949
G00 X209.529 Y36.193
G00 X210.458 Y23.292
G00 X218.615 Y31.254
G00 X227.908 Y40.275
;Nearing path end, moving to preshutoff position
G00 X235.472 Y50.019
M107 ;Pump off
G00 X235.688 Y50.297
G4 P0 ;Pause for 0 milliseconds
;Completed path #5/20 on color #1
;Starting path #6/20, segments: 11, length: 85, color #1
G00 X236.655 Y78.653
M106 ;Pump on
G4 P0 ;Pause for 0 milliseconds
G00 X239.049 Y87.497
G00 X241.312 Y96.938
;Nearing path end, moving to preshutoff position
G00 X242.724 Y106.338
M107 ;Pump off
G00 X242.777 Y106.687
G4 P0 ;Pause for 0 milliseconds
;Completed path #6/20 on color #1
;Starting path #7/20, segments: 6, length: 92, color #1
G00 X244.71 Y132.142
M106 ;Pump on
G4 P0 ;Pause for 0 milliseconds
G00 X255.204 Y132.838
G00 X265.931 Y133.429
;Nearing path end, moving to preshutoff position
G00 X275.942 Y131.563
M107 ;Pump off
G00 X276.288 Y131.498
G4 P0 ;Pause for 0 milliseconds
;Completed path #7/20 on color #1
;Starting path #8/20, segments: 9, length: 163, color #1
G00 X286.922 Y147.931
M106 ;Pump on
G4 P0 ;Pause for 0 milliseconds
G00 X293.291 Y157.438
G00 X299.458 Y166.867
G00 X304.784 Y176.958
G00 X301.619 Y184.868
;Nearing path end, moving to preshutoff position
G00 X299.255 Y193.99
M107 ;Pump off
G00 X299.166 Y194.332
G4 P0 ;Pause for 0 milliseconds
;Completed path #8/20 on color #1
;Starting path #9/20, segments: 11, length: 76, color #1
G00 X307.222 Y181.443
M106 ;Pump on
G4 P0 ;Pause for 0 milliseconds
G00 X320.497 Y182.268
;Nearing path end, moving to preshutoff position
G00 X331.376 Y185.844
M107 ;Pump off
G00 X331.711 Y185.954
G4 P0 ;Pause for 0 milliseconds
;Completed path #9/20 on color #1
;Starting path #10/20, segments: 3, length: 37, color #1
G00 X341.056 Y119.253
M106 ;Pump on
G4 P0 ;Pause for 0 milliseconds
;Nearing path end, moving to preshutoff position
G00 X339.803 Y107.038
M107 ;Pump off
G00 X339.767 Y106.687
G4 P0 ;Pause for 0 milliseconds
;Completed path #10/20 on color #1
;Starting path #11/20, segments: 35, length: 1023, color #1
G00 X309.155 Y115.387
M106 ;Pump on
G4 P0 ;Pause for 0 milliseconds
G00 X322.677 Y117.206
G00 X336.376 Y119.208
G00 X349.991 Y121.184
G00 X363.406 Y124.505
G00 X375.978 Y129.148
G00 X389.441 Y132.509
G00 X402.509 Y137.084
G00 X415.869 Y140.729
G00 X429.262 Y143.475
G00 X443.076 Y144.073
G00 X455.209 Y139.885
G00 X461.326 Y128.762
G00 X461.585 Y114.902
G00 X460.533 Y101.1
G00 X452.702 Y89.887
G00 X441.86 Y81.485
G00 X428.784 Y77.129
G00 X415.366 Y74.369
G00 X401.633 Y74.125
G00 X388.003 Y76.65
G00 X374.143 Y77.363
G00 X360.304 Y78.321
G00 X346.474 Y78.911
G00 X332.724 Y79.405
G00 X319.85 Y83.943
;Nearing path end, moving to preshutoff position
G00 X306.605 Y85.696
M107 ;Pump off
G00 X306.255 Y85.742
G4 P0 ;Pause for 0 milliseconds
;Completed path #11/20 on color #1
;Starting path #12/20, segments: 15, length: 324, color #1
G00 X306.578 Y83.164
M106 ;Pump on
G4 P0 ;Pause for 0 milliseconds
G00 X305.55 Y75.694
G00 X305.939 Y62.994
G00 X304.971 Y50.364
G00 X302.585 Y38.176
G00 X301.341 Y25.706
G00 X296.852 Y27.339
G00 X289.755 Y37.835
G00 X281.723 Y47.081
;Nearing path end, moving to preshutoff position
G00 X275.815 Y57.722
M107 ;Pump off
G00 X275.644 Y58.031
G4 P0 ;Pause for 0 milliseconds
;Completed path #12/20 on color #1
;Starting path #13/20, segments: 32, length: 936, color #1
G00 X268.877 Y55.453
M106 ;Pump on
G4 P0 ;Pause for 0 milliseconds
G00 X255.742 Y51.42
G00 X242.156 Y50.469
G00 X228.681 Y53.268
G00 X217.082 Y60.415
G00 X210.208 Y72.149
G00 X206.903 Y85.233
G00 X206.46 Y98.924
G00 X207.745 Y112.564
G00 X210.858 Y125.782
G00 X218.13 Y136.912
G00 X228.97 Y144.804
G00 X241.712 Y149.347
G00 X255.39 Y150.29
G00 X269.164 Y150.195
G00 X282.788 Y148.75
G00 X295.184 Y143.052
G00 X302.568 Y131.53
G00 X307.649 Y119.036
G00 X308.573 Y105.38
G00 X306.058 Y91.955
G00 X299.886 Y79.793
G00 X291.14 Y69.615
G00 X281.144 Y60.981
;Nearing path end, moving to preshutoff position
G00 X269.199 Y55.598
M107 ;Pump off
G00 X268.877 Y55.453
G4 P0 ;Pause for 0 milliseconds
;Completed path #13/20 on color #1
;Starting path #14/20, segments: 9, length: 78, color #1
G00 X271.455 Y79.942
M106 ;Pump on
G4 P0 ;Pause for 0 milliseconds
G00 X272.045 Y93.375
;Nearing path end, moving to preshutoff position
G00 X273.667 Y106.337
M107 ;Pump off
G00 X273.711 Y106.687
G4 P0 ;Pause for 0 milliseconds
;Completed path #14/20 on color #1
;Starting path #15/20, segments: 10, length: 183, color #1
G00 X225.377 Y145.354
M106 ;Pump on
G4 P0 ;Pause for 0 milliseconds
G00 X219.668 Y156.828
G00 X211.159 Y166.485
G00 X205.81 Y178.167
G00 X195.186 Y184.669
;Nearing path end, moving to preshutoff position
G00 X188.555 Y192.135
M107 ;Pump off
G00 X188.321 Y192.398
G4 P0 ;Pause for 0 milliseconds
;Completed path #15/20 on color #1
;Starting path #16/20, segments: 14, length: 68, color #1
G00 X205.721 Y182.087
M106 ;Pump on
G4 P0 ;Pause for 0 milliseconds
G00 X214.944 Y187.787
;Nearing path end, moving to preshutoff position
G00 X221.294 Y195.986
M107 ;Pump off
G00 X221.51 Y196.265
G4 P0 ;Pause for 0 milliseconds
;Completed path #16/20 on color #1
;Starting path #17/20, segments: 7, length: 88, color #1
G00 X383.267 Y129.887
M106 ;Pump on
G4 P0 ;Pause for 0 milliseconds
G00 X382.055 Y120.876
G00 X381.978 Y110.572
;Nearing path end, moving to preshutoff position
G00 X381.978 Y100.595
M107 ;Pump off
G00 X381.978 Y100.242
G4 P0 ;Pause for 0 milliseconds
;Completed path #17/20 on color #1
;Starting path #18/20, segments: 10, length: 118, color #1
G00 X424.19 Y104.753
M106 ;Pump on
G4 P0 ;Pause for 0 milliseconds
G00 X426.261 Y118.463
G00 X428.155 Y132.124
;Nearing path end, moving to preshutoff position
G00 X431.182 Y142.759
M107 ;Pump off
G00 X431.279 Y143.098
G4 P0 ;Pause for 0 milliseconds
;Completed path #18/20 on color #1
;PancakePainter Footer Start
G4 P1000 ;Pause for 1000 milliseconds
G28 X0 Y0 ;Home All Axis
M84 ;Motors off
;PancakePainter Footer Complete
