;PancakePainter v1.0.0 GCODE header start
;Originally generated @ Thu Jun 30 2016 14:32:12 GMT-0400 (Eastern Daylight Time)
;Settings used to generate this file:
;----------------------------------------
;flattenResolution: 40
;lineEndPreShutoff: 1
;startWait: 0
;endWait: 0
;shadeChangeWait: 35
;fillSpacing: 15
;fillAngle: 23
;fillGroupThreshold: 27
;----------------------------------------
W1 X42 Y210 L485 T0 ;Define Workspace of this file
G21 ;Set units to MM
G1 F5600 ;Set Speed
M107 ;Pump off
G4 P1000 ;Pause for 1000 milliseconds
M84 ;Motors off
G28 X0 Y0 ;Home All Axis
;PancakePainter header complete
;Starting path #1/9, segments: 2, length: 0, color #1
;Completed path #1/9 on color #1
;Starting path #2/9, segments: 2, length: 0, color #1
;Completed path #2/9 on color #1
;Starting path #3/9, segments: 32, length: 612, color #1
G00 X154.487 Y26.453
M106 ;Pump on
G4 P0 ;Pause for 0 milliseconds
G00 X151.033 Y39.19
G00 X153.038 Y52.206
G00 X160.955 Y62.577
G00 X173.448 Y65.241
G00 X184.295 Y57.753
G00 X190.272 Y45.894
G00 X190.717 Y34.445
G00 X190.258 Y20.993
G00 X198.392 Y27.472
G00 X206.838 Y35.899
G00 X220.262 Y34.805
G00 X233.606 Y35.888
G00 X237.634 Y24.424
G00 X246.644 Y17.334
G00 X248.195 Y30.51
;Nearing path end, moving to preshutoff position
G00 X253.273 Y42.561
M107 ;Pump off
G00 X253.41 Y42.886
G4 P0 ;Pause for 0 milliseconds
;Completed path #3/9 on color #1
;Starting path #4/9, segments: 29, length: 619, color #1
G00 X251.155 Y39.019
M106 ;Pump on
G4 P0 ;Pause for 0 milliseconds
G00 X258.483 Y50.001
G00 X269.712 Y57.578
G00 X283.189 Y57.562
G00 X293.937 Y50.586
G00 X292.523 Y37.114
G00 X292.093 Y27.72
G00 X303.473 Y34.841
G00 X313.393 Y43.989
G00 X320.71 Y55.463
G00 X326.593 Y67.759
G00 X329.831 Y80.499
G00 X332.209 Y93.887
G00 X331.134 Y107.289
G00 X328.627 Y120.593
G00 X323.698 Y133.33
;Nearing path end, moving to preshutoff position
G00 X314.56 Y142.526
M107 ;Pump off
G00 X314.311 Y142.776
G4 P0 ;Pause for 0 milliseconds
;Completed path #4/9 on color #1
;Starting path #5/9, segments: 55, length: 1328, color #1
G00 X315.6 Y140.198
M106 ;Pump on
G4 P0 ;Pause for 0 milliseconds
G00 X306.902 Y150.366
G00 X300.399 Y150.424
G00 X296.289 Y137.532
G00 X284.2 Y133.072
G00 X273.204 Y139.828
G00 X268.034 Y144.119
G00 X256.478 Y137.141
G00 X243.394 Y136.265
G00 X231.828 Y143.557
G00 X226.367 Y155.862
G00 X223.187 Y169.197
G00 X219.238 Y171.325
G00 X214.999 Y158.307
G00 X208.387 Y146.312
G00 X198.239 Y137.313
G00 X185.547 Y133.942
G00 X174.836 Y141.394
G00 X166.907 Y137.154
G00 X154.183 Y134.416
G00 X150.348 Y144.927
G00 X154.1 Y158.118
G00 X143.07 Y152.332
G00 X131.723 Y145.275
G00 X121.946 Y135.939
G00 X113.548 Y125.708
G00 X107.874 Y113.277
G00 X104.943 Y99.911
G00 X104.919 Y86.143
G00 X107.79 Y72.77
G00 X113.787 Y60.505
G00 X121.513 Y49.226
G00 X131.455 Y39.99
G00 X141.655 Y30.846
;Nearing path end, moving to preshutoff position
G00 X154.156 Y26.252
M107 ;Pump off
G00 X154.487 Y26.13
G4 P0 ;Pause for 0 milliseconds
;Completed path #5/9 on color #1
;PancakePainter Footer Start
G4 P1000 ;Pause for 1000 milliseconds
G28 X0 Y0 ;Home All Axis
M84 ;Motors off
;PancakePainter Footer Complete
