;PancakePainter v1.0.0 GCODE header start
;Originally generated @ Thu Jun 30 2016 13:30:09 GMT-0400 (Eastern Daylight Time)
;Settings used to generate this file:
;----------------------------------------
;flattenResolution: 40
;lineEndPreShutoff: 1
;startWait: 0
;endWait: 0
;shadeChangeWait: 35
;fillSpacing: 15
;fillAngle: 23
;fillGroupThreshold: 27
;----------------------------------------
W1 X42 Y210 L485 T0 ;Define Workspace of this file
G21 ;Set units to MM
G1 F5600 ;Set Speed
M107 ;Pump off
G4 P1000 ;Pause for 1000 milliseconds
M84 ;Motors off
G28 X0 Y0 ;Home All Axis
;PancakePainter header complete
;Starting path #1/10, segments: 19, length: 891, color #1
G00 X163.187 Y67.053
M106 ;Pump on
G4 P0 ;Pause for 0 milliseconds
G00 X163.344 Y80.71
G00 X163.721 Y94.365
G00 X164.179 Y108.024
G00 X164.582 Y121.677
G00 X164.792 Y135.337
G00 X174.687 Y142.904
G00 X186.76 Y148.811
G00 X199.767 Y152.91
G00 X213.184 Y154.962
G00 X226.809 Y155.721
G00 X240.344 Y157.295
G00 X253.859 Y159.128
G00 X267.417 Y157.74
G00 X281.027 Y156.637
G00 X293.915 Y152.749
G00 X306.133 Y146.761
G00 X311.009 Y138.482
G00 X307.499 Y125.303
G00 X305.272 Y111.838
G00 X305.405 Y98.178
G00 X304.051 Y84.655
G00 X304.392 Y71.007
;Nearing path end, moving to preshutoff position
G00 X305.265 Y57.738
M107 ;Pump off
G00 X305.289 Y57.386
G4 P0 ;Pause for 0 milliseconds
;Completed path #1/10 on color #1
;Starting path #2/10, segments: 6, length: 154, color #1
G00 X275.644 Y56.742
M106 ;Pump on
G4 P0 ;Pause for 0 milliseconds
G00 X276.186 Y43.144
G00 X276.895 Y29.562
G00 X274.754 Y16.546
;Nearing path end, moving to preshutoff position
G00 X277.145 Y23.862
M107 ;Pump off
G00 X277.255 Y24.197
G4 P0 ;Pause for 0 milliseconds
;Completed path #2/10 on color #1
;Starting path #3/10, segments: 9, length: 167, color #1
G00 X238.91 Y23.553
M106 ;Pump on
G4 P0 ;Pause for 0 milliseconds
G00 X236.01 Y18.719
G00 X242.615 Y25.972
G00 X243.754 Y36.709
G00 X244.272 Y48.495
;Nearing path end, moving to preshutoff position
G00 X244.697 Y59.934
M107 ;Pump off
G00 X244.71 Y60.286
G4 P0 ;Pause for 0 milliseconds
;Completed path #3/10 on color #1
;Starting path #4/10, segments: 6, length: 171, color #1
G00 X212.81 Y68.986
M106 ;Pump on
G4 P0 ;Pause for 0 milliseconds
G00 X212.539 Y56.918
G00 X212.186 Y44.859
G00 X212.062 Y32.858
G00 X206.771 Y24.1
;Nearing path end, moving to preshutoff position
G00 X209.14 Y30.312
M107 ;Pump off
G00 X209.265 Y30.642
G4 P0 ;Pause for 0 milliseconds
;Completed path #4/10 on color #1
;Starting path #5/10, segments: 28, length: 906, color #1
G00 X210.877 Y40.308
M106 ;Pump on
G4 P0 ;Pause for 0 milliseconds
G00 X224.572 Y39.11
G00 X238.216 Y38.368
G00 X252.074 Y38.064
G00 X265.973 Y37.993
G00 X279.495 Y40.547
G00 X293.125 Y42.756
G00 X303.922 Y50.59
G00 X302.581 Y63.962
G00 X291.203 Y69.424
G00 X277.762 Y72.872
G00 X264.191 Y75.436
G00 X250.563 Y77.916
G00 X236.687 Y78.446
G00 X222.797 Y78.358
G00 X208.914 Y78.163
G00 X195.089 Y76.928
G00 X181.636 Y73.825
G00 X168.791 Y68.52
G00 X165.689 Y59.477
G00 X176.273 Y50.638
G00 X189.049 Y45.348
G00 X202.472 Y42.149
;Nearing path end, moving to preshutoff position
G00 X216.002 Y42.553
M107 ;Pump off
G00 X216.354 Y42.564
G4 P0 ;Pause for 0 milliseconds
;Completed path #5/10 on color #1
;Starting path #6/10, segments: 9, length: 166, color #1
G00 X189.61 Y64.475
M106 ;Pump on
G4 P0 ;Pause for 0 milliseconds
G00 X188.047 Y52.873
G00 X187.085 Y41.187
G00 X184.457 Y31.462
G00 X180.309 Y23.204
;Nearing path end, moving to preshutoff position
G00 X183.659 Y30.322
M107 ;Pump off
G00 X183.81 Y30.642
G4 P0 ;Pause for 0 milliseconds
;Completed path #6/10 on color #1
;Starting path #7/10, segments: 15, length: 320, color #1
G00 X188.965 Y107.331
M106 ;Pump on
G4 P0 ;Pause for 0 milliseconds
G00 X196.455 Y97.602
G00 X207.206 Y100.621
G00 X211.077 Y112.47
G00 X206.416 Y123.688
G00 X197.037 Y131.79
G00 X184.67 Y132.787
G00 X196.017 Y134.064
G00 X208.305 Y136.305
;Nearing path end, moving to preshutoff position
G00 X219.878 Y139.147
M107 ;Pump off
G00 X220.221 Y139.231
G4 P0 ;Pause for 0 milliseconds
;Completed path #7/10 on color #1
;Starting path #8/10, segments: 14, length: 338, color #1
G00 X256.633 Y100.887
M106 ;Pump on
G4 P0 ;Pause for 0 milliseconds
G00 X268.064 Y97.925
G00 X276.414 Y107.441
G00 X279.935 Y119.786
G00 X275.363 Y132.071
G00 X267.428 Y142.527
G00 X256.035 Y137.844
G00 X252.497 Y125.429
G00 X255.147 Y112.46
;Nearing path end, moving to preshutoff position
G00 X260.981 Y101.2
M107 ;Pump off
G00 X261.144 Y100.887
G4 P0 ;Pause for 0 milliseconds
;Completed path #8/10 on color #1
;PancakePainter Footer Start
G4 P1000 ;Pause for 1000 milliseconds
G28 X0 Y0 ;Home All Axis
M84 ;Motors off
;PancakePainter Footer Complete
