;PancakePainter v1.0.0 GCODE header start
;Originally generated @ Wed Jun 29 2016 14:16:28 GMT-0400 (Eastern Daylight Time)
;Settings used to generate this file:
;----------------------------------------
;flattenResolution: 40
;lineEndPreShutoff: 1
;startWait: 0
;endWait: 0
;shadeChangeWait: 35
;fillSpacing: 15
;fillAngle: 23
;fillGroupThreshold: 27
;----------------------------------------
W1 X42 Y210 L485 T0 ;Define Workspace of this file
G21 ;Set units to MM
G1 F5600 ;Set Speed
M107 ;Pump off
G4 P1000 ;Pause for 1000 milliseconds
M84 ;Motors off
G28 X0 Y0 ;Home All Axis
;PancakePainter header complete
;Starting path #1/8, segments: 22, length: 891, color #1
G00 X166.409 Y97.987
M106 ;Pump on
G4 P0 ;Pause for 0 milliseconds
G00 X166.199 Y111.646
G00 X165.96 Y125.314
G00 X166.26 Y138.971
G00 X167.276 Y152.584
G00 X168.466 Y165.566
G00 X180.799 Y171.391
G00 X192.576 Y178.314
G00 X205.439 Y182.615
G00 X217.851 Y187.605
G00 X230.948 Y190.023
G00 X244.504 Y191.198
G00 X258.16 Y191.502
G00 X271.792 Y191.725
G00 X285.483 Y191.891
G00 X299.007 Y190.316
G00 X312.207 Y187.568
G00 X324.118 Y180.899
G00 X331.67 Y171.239
G00 X331.76 Y157.574
G00 X333.575 Y144.053
G00 X336.311 Y130.831
G00 X339.917 Y117.674
;Nearing path end, moving to preshutoff position
G00 X341.34 Y104.46
M107 ;Pump off
G00 X341.378 Y104.109
G4 P0 ;Pause for 0 milliseconds
;Completed path #1/8 on color #1
;Starting path #2/8, segments: 6, length: 143, color #1
G00 X316.244 Y84.453
M106 ;Pump on
G4 P0 ;Pause for 0 milliseconds
G00 X315.141 Y71.862
G00 X315.401 Y59.233
G00 X316.169 Y49.17
;Nearing path end, moving to preshutoff position
G00 X317.167 Y57.036
M107 ;Pump off
G00 X317.211 Y57.386
G4 P0 ;Pause for 0 milliseconds
;Completed path #2/8 on color #1
;Starting path #3/8, segments: 8, length: 229, color #1
G00 X266.299 Y41.275
M106 ;Pump on
G4 P0 ;Pause for 0 milliseconds
G00 X266.636 Y30.964
G00 X267.599 Y42.725
G00 X268.233 Y56.159
G00 X270.072 Y69.491
G00 X271.894 Y82.824
;Nearing path end, moving to preshutoff position
G00 X274.29 Y95.706
M107 ;Pump off
G00 X274.355 Y96.053
G4 P0 ;Pause for 0 milliseconds
;Completed path #3/8 on color #1
;Starting path #4/8, segments: 14, length: 359, color #1
G00 X272.744 Y128.276
M106 ;Pump on
G4 P0 ;Pause for 0 milliseconds
G00 X286.755 Y127.068
G00 X300.552 Y127.158
G00 X292.792 Y137.339
G00 X280.264 Y143.135
G00 X285.6 Y142.457
G00 X299.578 Y143.907
G00 X300.254 Y154.497
G00 X287.389 Y159.98
;Nearing path end, moving to preshutoff position
G00 X273.74 Y160.799
M107 ;Pump off
G00 X273.388 Y160.82
G4 P0 ;Pause for 0 milliseconds
;Completed path #4/8 on color #1
;Starting path #5/8, segments: 12, length: 236, color #1
G00 X211.521 Y159.532
M106 ;Pump on
G4 P0 ;Pause for 0 milliseconds
G00 X199.131 Y153.707
G00 X186.19 Y149.559
G00 X194.595 Y145.989
G00 X204.822 Y136.872
G00 X200.33 Y125.63
;Nearing path end, moving to preshutoff position
G00 X187.706 Y125.069
M107 ;Pump off
G00 X187.354 Y125.053
G4 P0 ;Pause for 0 milliseconds
;Completed path #5/8 on color #1
;Starting path #6/8, segments: 17, length: 143, color #1
G00 X203.465 Y82.52
M106 ;Pump on
G4 P0 ;Pause for 0 milliseconds
G00 X203.297 Y69.917
G00 X195.71 Y60.957
G00 X201.756 Y56.603
;Nearing path end, moving to preshutoff position
G00 X203.101 Y67.669
M107 ;Pump off
G00 X203.143 Y68.02
G4 P0 ;Pause for 0 milliseconds
;Completed path #6/8 on color #1
;Starting path #7/8, segments: 7, length: 167, color #1
G00 X245.355 Y71.886
M106 ;Pump on
G4 P0 ;Pause for 0 milliseconds
G00 X244.786 Y60.121
G00 X244.671 Y48.487
G00 X240.357 Y38.188
G00 X247.515 Y35.751
;Nearing path end, moving to preshutoff position
G00 X245.737 Y46.083
M107 ;Pump off
G00 X245.677 Y46.431
G4 P0 ;Pause for 0 milliseconds
;Completed path #7/8 on color #1
;Starting path #8/8, segments: 23, length: 1084, color #1
G00 X245.999 Y62.864
M106 ;Pump on
G4 P0 ;Pause for 0 milliseconds
G00 X232.518 Y61.289
G00 X218.885 Y61.064
G00 X205.285 Y62.325
G00 X192.075 Y65.728
G00 X180.537 Y72.886
G00 X169.953 Y81.457
G00 X172.65 Y92.405
G00 X184.303 Y99.538
G00 X196.645 Y105.264
G00 X209.963 Y108.127
G00 X223.633 Y108.436
G00 X237.274 Y108.567
G00 X250.909 Y107.932
G00 X264.486 Y106.394
G00 X278.075 Y105.044
G00 X291.72 Y104.358
G00 X305.334 Y103.295
G00 X318.728 Y100.789
G00 X332.126 Y98.614
G00 X344.823 Y93.64
G00 X342.792 Y81.475
G00 X331.611 Y73.74
G00 X318.907 Y68.78
G00 X305.455 Y66.526
G00 X291.953 Y64.853
G00 X278.328 Y64.372
G00 X264.812 Y65.342
;Nearing path end, moving to preshutoff position
G00 X251.507 Y65.125
M107 ;Pump off
G00 X251.155 Y65.12
G4 P0 ;Pause for 0 milliseconds
;Completed path #8/8 on color #1
;PancakePainter Footer Start
G4 P1000 ;Pause for 1000 milliseconds
G28 X0 Y0 ;Home All Axis
M84 ;Motors off
;PancakePainter Footer Complete
