;PancakePainter v1.0.0 GCODE header start
;Originally generated @ Wed Jun 29 2016 13:52:46 GMT-0400 (Eastern Daylight Time)
;Settings used to generate this file:
;----------------------------------------
;flattenResolution: 40
;lineEndPreShutoff: 1
;startWait: 0
;endWait: 0
;shadeChangeWait: 35
;fillSpacing: 15
;fillAngle: 23
;fillGroupThreshold: 27
;----------------------------------------
W1 X42 Y210 L485 T0 ;Define Workspace of this file
G21 ;Set units to MM
G1 F5600 ;Set Speed
M107 ;Pump off
G4 P1000 ;Pause for 1000 milliseconds
M84 ;Motors off
G28 X0 Y0 ;Home All Axis
;PancakePainter header complete
;Starting path #1/12, segments: 21, length: 654, color #1
G00 X189.61 Y86.064
M106 ;Pump on
G4 P0 ;Pause for 0 milliseconds
G00 X192.859 Y98.04
G00 X194.405 Y111.516
G00 X195.79 Y124.987
G00 X198.29 Y138.147
G00 X202.167 Y150.723
G00 X214.836 Y154.454
G00 X228.3 Y155.671
G00 X241.871 Y155.156
G00 X255.409 Y155.212
G00 X268.976 Y155.09
G00 X282.405 Y153.832
G00 X295.784 Y152.951
G00 X306.548 Y146.152
G00 X310.895 Y133.402
G00 X312.814 Y119.962
G00 X316.45 Y106.915
;Nearing path end, moving to preshutoff position
G00 X320.328 Y94.457
M107 ;Pump off
G00 X320.433 Y94.12
G4 P0 ;Pause for 0 milliseconds
;Completed path #1/12 on color #1
;Starting path #2/12, segments: 11, length: 339, color #1
G00 X313.022 Y109.909
M106 ;Pump on
G4 P0 ;Pause for 0 milliseconds
G00 X300.496 Y113.403
G00 X287.578 Y115.318
G00 X274.374 Y116.479
G00 X261.138 Y117.388
G00 X247.938 Y116.557
G00 X234.742 Y116.48
G00 X221.633 Y115.02
G00 X208.543 Y113.024
;Nearing path end, moving to preshutoff position
G00 X196.073 Y109.678
M107 ;Pump off
G00 X195.732 Y109.587
G4 P0 ;Pause for 0 milliseconds
;Completed path #2/12 on color #1
;Starting path #3/12, segments: 10, length: 332, color #1
G00 X194.765 Y130.209
M106 ;Pump on
G4 P0 ;Pause for 0 milliseconds
G00 X207.376 Y133.073
G00 X220.021 Y135.709
G00 X232.892 Y136.798
G00 X245.875 Y137.072
G00 X258.866 Y137.149
G00 X271.837 Y136.565
G00 X284.822 Y136.916
G00 X297.731 Y135.646
;Nearing path end, moving to preshutoff position
G00 X309.785 Y131.924
M107 ;Pump off
G00 X310.122 Y131.82
G4 P0 ;Pause for 0 milliseconds
;Completed path #3/12 on color #1
;Starting path #4/12, segments: 23, length: 439, color #1
G00 X314.311 Y111.842
M106 ;Pump on
G4 P0 ;Pause for 0 milliseconds
G00 X306.762 Y121.274
G00 X297.248 Y131.266
G00 X287.767 Y133.215
G00 X277.461 Y123.65
G00 X265.465 Y121.387
G00 X253.865 Y129.012
G00 X241.902 Y132.697
G00 X231.176 Y124.647
G00 X220.182 Y116.082
G00 X208.703 Y123.193
;Nearing path end, moving to preshutoff position
G00 X197.943 Y131.603
M107 ;Pump off
G00 X197.665 Y131.82
G4 P0 ;Pause for 0 milliseconds
;Completed path #4/12 on color #1
;Starting path #5/12, segments: 13, length: 118, color #1
G00 X216.677 Y85.42
M106 ;Pump on
G4 P0 ;Pause for 0 milliseconds
G00 X215.805 Y71.613
G00 X209.373 Y62.921
;Nearing path end, moving to preshutoff position
G00 X216.343 Y65.327
M107 ;Pump off
G00 X216.677 Y65.442
G4 P0 ;Pause for 0 milliseconds
;Completed path #5/12 on color #1
;Starting path #6/12, segments: 15, length: 107, color #1
G00 X238.266 Y65.12
M106 ;Pump on
G4 P0 ;Pause for 0 milliseconds
G00 X235.609 Y63.372
G00 X238.493 Y75.155
;Nearing path end, moving to preshutoff position
G00 X239.837 Y87.003
M107 ;Pump off
G00 X239.877 Y87.353
G4 P0 ;Pause for 0 milliseconds
;Completed path #6/12 on color #1
;Starting path #7/12, segments: 15, length: 792, color #1
G00 X252.444 Y73.82
M106 ;Pump on
G4 P0 ;Pause for 0 milliseconds
G00 X238.64 Y72.193
G00 X224.664 Y72.264
G00 X210.765 Y73.496
G00 X197.457 Y77.656
G00 X191.416 Y87.473
G00 X203.879 Y93.43
G00 X217.739 Y95.084
G00 X231.662 Y96.096
G00 X245.632 Y96.458
G00 X259.601 Y96.251
G00 X273.556 Y95.604
G00 X287.5 Y94.803
G00 X301.463 Y94.472
G00 X315.305 Y92.776
G00 X318.679 Y83.946
G00 X307.172 Y76.393
G00 X293.621 Y73.008
G00 X279.71 Y72.256
G00 X265.881 Y74.145
;Nearing path end, moving to preshutoff position
G00 X252.796 Y73.828
M107 ;Pump off
G00 X252.444 Y73.82
G4 P0 ;Pause for 0 milliseconds
;Completed path #7/12 on color #1
;Starting path #8/12, segments: 9, length: 97, color #1
G00 X263.399 Y66.086
M106 ;Pump on
G4 P0 ;Pause for 0 milliseconds
G00 X260.893 Y64.197
G00 X263.48 Y74.09
;Nearing path end, moving to preshutoff position
G00 X264.026 Y85.067
M107 ;Pump off
G00 X264.044 Y85.42
G4 P0 ;Pause for 0 milliseconds
;Completed path #8/12 on color #1
;Starting path #9/12, segments: 9, length: 100, color #1
G00 X285.955 Y83.486
M106 ;Pump on
G4 P0 ;Pause for 0 milliseconds
G00 X286.008 Y71.805
G00 X284.304 Y65.718
;Nearing path end, moving to preshutoff position
G00 X285.28 Y65.752
M107 ;Pump off
G00 X285.633 Y65.764
G4 P0 ;Pause for 0 milliseconds
;Completed path #9/12 on color #1
;Starting path #10/12, segments: 7, length: 89, color #1
G00 X301.422 Y66.731
M106 ;Pump on
G4 P0 ;Pause for 0 milliseconds
G00 X299.719 Y65.075
G00 X300.909 Y75.25
;Nearing path end, moving to preshutoff position
G00 X301.093 Y85.389
M107 ;Pump off
G00 X301.1 Y85.742
G4 P0 ;Pause for 0 milliseconds
;Completed path #10/12 on color #1
;Starting path #11/12, segments: 17, length: 125, color #1
G00 X252.121 Y49.653
M106 ;Pump on
G4 P0 ;Pause for 0 milliseconds
G00 X261.539 Y45.737
G00 X255.089 Y39.504
G00 X256.628 Y35.092
;Nearing path end, moving to preshutoff position
G00 X251.686 Y28.348
M107 ;Pump off
G00 X251.477 Y28.064
G4 P0 ;Pause for 0 milliseconds
;Completed path #11/12 on color #1
;Starting path #12/12, segments: 19, length: 128, color #1
G00 X239.555 Y45.786
M106 ;Pump on
G4 P0 ;Pause for 0 milliseconds
G00 X229.039 Y44.675
G00 X230.427 Y43.536
G00 X235.024 Y34.585
;Nearing path end, moving to preshutoff position
G00 X226.677 Y31.723
M107 ;Pump off
G00 X226.343 Y31.608
G4 P0 ;Pause for 0 milliseconds
;Completed path #12/12 on color #1
;PancakePainter Footer Start
G4 P1000 ;Pause for 1000 milliseconds
G28 X0 Y0 ;Home All Axis
M84 ;Motors off
;PancakePainter Footer Complete
