;PancakePainter v1.0.0 GCODE header start
;Originally generated @ Wed Jun 29 2016 14:00:02 GMT-0400 (Eastern Daylight Time)
;Settings used to generate this file:
;----------------------------------------
;flattenResolution: 40
;lineEndPreShutoff: 1
;startWait: 0
;endWait: 0
;shadeChangeWait: 35
;fillSpacing: 15
;fillAngle: 23
;fillGroupThreshold: 27
;----------------------------------------
W1 X42 Y210 L485 T0 ;Define Workspace of this file
G21 ;Set units to MM
G1 F5600 ;Set Speed
M107 ;Pump off
G4 P1000 ;Pause for 1000 milliseconds
M84 ;Motors off
G28 X0 Y0 ;Home All Axis
;PancakePainter header complete
;Starting path #1/2, segments: 56, length: 1952, color #1
G00 X163.509 Y86.386
M106 ;Pump on
G4 P0 ;Pause for 0 milliseconds
G00 X162.699 Y100.413
G00 X161.617 Y114.283
G00 X160.803 Y128.304
G00 X160.611 Y142.359
G00 X160.112 Y156.4
G00 X162.832 Y169.526
G00 X176.781 Y171.032
G00 X190.65 Y173.271
G00 X204.651 Y174.431
G00 X218.698 Y174.73
G00 X232.75 Y174.58
G00 X246.804 Y174.37
G00 X260.84 Y173.842
G00 X273.9 Y174.78
G00 X270.55 Y161.72
G00 X271.46 Y147.7
G00 X271.53 Y133.65
G00 X270.474 Y119.66
G00 X271.971 Y105.772
G00 X269.119 Y92.155
G00 X265.529 Y79.642
G00 X251.836 Y81.191
G00 X237.798 Y81.526
G00 X223.955 Y83.482
G00 X210.074 Y84.503
G00 X196.218 Y85.665
G00 X182.357 Y83.744
G00 X168.318 Y83.821
G00 X169.764 Y77.547
G00 X179.294 Y68.079
G00 X190.565 Y59.714
G00 X201.602 Y52.473
G00 X215.349 Y50.365
G00 X229.254 Y51.277
G00 X243.287 Y51.364
G00 X257.253 Y52.888
G00 X271.093 Y55.056
G00 X285.079 Y54.329
G00 X295.185 Y59.706
G00 X296.827 Y73.614
G00 X296.412 Y87.671
G00 X296.289 Y101.711
G00 X296.399 Y115.763
G00 X296.526 Y129.815
G00 X296.589 Y143.866
G00 X296.63 Y157.902
G00 X289.076 Y168.038
G00 X276.794 Y174.572
;Nearing path end, moving to preshutoff position
G00 X274.044 Y175.527
M107 ;Pump off
G00 X273.711 Y175.643
G4 P0 ;Pause for 0 milliseconds
;Completed path #1/2 on color #1
;Starting path #2/2, segments: 13, length: 108, color #1
G00 X265.655 Y79.62
M106 ;Pump on
G4 P0 ;Pause for 0 milliseconds
G00 X276.438 Y73.484
G00 X286.625 Y66.499
;Nearing path end, moving to preshutoff position
G00 X294.725 Y58.599
M107 ;Pump off
G00 X294.977 Y58.353
G4 P0 ;Pause for 0 milliseconds
;Completed path #2/2 on color #1
;PancakePainter Footer Start
G4 P1000 ;Pause for 1000 milliseconds
G28 X0 Y0 ;Home All Axis
M84 ;Motors off
;PancakePainter Footer Complete
