;PancakePainter v1.0.0 GCODE header start
;Originally generated @ Thu Jun 30 2016 14:07:28 GMT-0400 (Eastern Daylight Time)
;Settings used to generate this file:
;----------------------------------------
;flattenResolution: 40
;lineEndPreShutoff: 1
;startWait: 0
;endWait: 0
;shadeChangeWait: 35
;fillSpacing: 15
;fillAngle: 23
;fillGroupThreshold: 27
;----------------------------------------
W1 X42 Y210 L485 T0 ;Define Workspace of this file
G21 ;Set units to MM
G1 F5600 ;Set Speed
M107 ;Pump off
G4 P1000 ;Pause for 1000 milliseconds
M84 ;Motors off
G28 X0 Y0 ;Home All Axis
;PancakePainter header complete
;Starting path #1/5, segments: 10, length: 895, color #4
G00 X263.187 Y39.951
M106 ;Pump on
G4 P0 ;Pause for 0 milliseconds
G00 X264.023 Y168.739
G00 X243.952 Y161.213
G00 X225.554 Y148.668
G00 X210.327 Y130.688
G00 X207.053 Y103.24
G00 X212.047 Y78.641
G00 X225.135 Y58.767
G00 X242.698 Y45.387
;Nearing path end, moving to preshutoff position
G00 X262.846 Y40.041
M107 ;Pump off
G00 X263.187 Y39.951
G4 P0 ;Pause for 0 milliseconds
;Completed path #1/5 on color #4
;Starting path #2/5, segments: 10, length: 887, color #4
G00 X273.888 Y39.251
M106 ;Pump on
G4 P0 ;Pause for 0 milliseconds
G00 X273.249 Y167.144
G00 X295.63 Y162.668
G00 X312.256 Y148.6
G00 X324.406 Y127.497
G00 X328.243 Y105.116
G00 X325.046 Y82.095
G00 X314.814 Y62.911
G00 X297.548 Y46.925
;Nearing path end, moving to preshutoff position
G00 X274.224 Y39.36
M107 ;Pump off
G00 X273.888 Y39.251
G4 P0 ;Pause for 0 milliseconds
;Completed path #2/5 on color #4
;Starting path #3/5, segments: 17, length: 1416, color #4
G00 X267.092 Y24.653
M106 ;Pump on
G4 P0 ;Pause for 0 milliseconds
G00 X238.675 Y29.174
G00 X212.84 Y46.612
G00 X196.048 Y73.092
G00 X187.652 Y107.968
G00 X195.402 Y138.323
G00 X215.424 Y166.74
G00 X241.904 Y178.366
G00 X269.675 Y184.178
G00 X303.26 Y175.782
G00 X327.802 Y157.053
G00 X344.595 Y129.281
G00 X344.595 Y98.926
G00 X340.074 Y69.863
G00 X323.281 Y44.674
G00 X298.093 Y28.528
;Nearing path end, moving to preshutoff position
G00 X267.442 Y24.697
M107 ;Pump off
G00 X267.092 Y24.653
G4 P0 ;Pause for 0 milliseconds
;Completed path #3/5 on color #4
;Starting path #4/5, segments: 6, length: 293, color #4
G00 X259.734 Y106.861
M106 ;Pump on
G4 P0 ;Pause for 0 milliseconds
G00 X216.115 Y90.084
G00 X226.181 Y105.183
G00 X236.247 Y113.571
G00 X248.829 Y113.571
;Nearing path end, moving to preshutoff position
G00 X259.434 Y107.045
M107 ;Pump off
G00 X259.734 Y106.861
G4 P0 ;Pause for 0 milliseconds
;Completed path #4/5 on color #4
;Starting path #5/5, segments: 7, length: 282, color #4
G00 X278.292 Y107.799
M106 ;Pump on
G4 P0 ;Pause for 0 milliseconds
G00 X307.56 Y94.951
G00 X319.757 Y90.459
G00 X312.972 Y106.291
G00 X304.679 Y111.568
G00 X291.108 Y113.076
;Nearing path end, moving to preshutoff position
G00 X278.618 Y107.933
M107 ;Pump off
G00 X278.292 Y107.799
G4 P0 ;Pause for 0 milliseconds
;Completed path #5/5 on color #4
;PancakePainter Footer Start
G4 P1000 ;Pause for 1000 milliseconds
G28 X0 Y0 ;Home All Axis
M84 ;Motors off
;PancakePainter Footer Complete
