;PancakePainter v1.0.0 GCODE header start
;Originally generated @ Fri Jul 01 2016 10:37:09 GMT-0400 (Eastern Daylight Time)
;Settings used to generate this file:
;----------------------------------------
;flattenResolution: 40
;lineEndPreShutoff: 1
;startWait: 0
;endWait: 0
;shadeChangeWait: 35
;fillSpacing: 30
;fillAngle: 30
;fillGroupThreshold: 27
;----------------------------------------
W1 X42 Y210 L485 T0 ;Define Workspace of this file
G21 ;Set units to MM
G1 F5600 ;Set Speed
M107 ;Pump off
G4 P1000 ;Pause for 1000 milliseconds
M84 ;Motors off
G28 X0 Y0 ;Home All Axis
;PancakePainter header complete
;Starting path #1/7, segments: 8, length: 73, color #1
G00 X214.099 Y59.642
M106 ;Pump on
G4 P0 ;Pause for 0 milliseconds
G00 X225.968 Y56.724
;Nearing path end, moving to preshutoff position
G00 X237.917 Y58.62
M107 ;Pump off
G00 X238.266 Y58.675
G4 P0 ;Pause for 0 milliseconds
;Completed path #1/7 on color #1
;Starting path #2/7, segments: 15, length: 82, color #1
G00 X250.188 Y58.997
M106 ;Pump on
G4 P0 ;Pause for 0 milliseconds
G00 X259.203 Y57.05
G00 X268.293 Y55.129
;Nearing path end, moving to preshutoff position
G00 X274.389 Y59.438
M107 ;Pump off
G00 X274.677 Y59.642
G4 P0 ;Pause for 0 milliseconds
;Completed path #2/7 on color #1
;Starting path #3/7, segments: 16, length: 115, color #1
G00 X264.366 Y62.864
M106 ;Pump on
G4 P0 ;Pause for 0 milliseconds
G00 X258.283 Y71.278
G00 X271.005 Y70.456
;Nearing path end, moving to preshutoff position
G00 X264.598 Y63.13
M107 ;Pump off
G00 X264.366 Y62.864
G4 P0 ;Pause for 0 milliseconds
;Completed path #3/7 on color #1
;Starting path #4/7, segments: 9, length: 218, color #1
G00 X242.455 Y75.431
M106 ;Pump on
G4 P0 ;Pause for 0 milliseconds
G00 X243.256 Y88.157
G00 X254.821 Y91.807
G00 X266.457 Y96.392
G00 X266.605 Y105.833
G00 X253.951 Y104.402
;Nearing path end, moving to preshutoff position
G00 X241.518 Y103.804
M107 ;Pump off
G00 X241.166 Y103.787
G4 P0 ;Pause for 0 milliseconds
;Completed path #4/7 on color #1
;Starting path #5/7, segments: 9, length: 176, color #1
G00 X224.088 Y119.253
M106 ;Pump on
G4 P0 ;Pause for 0 milliseconds
G00 X229.392 Y130.382
G00 X236.904 Y140.179
G00 X248.411 Y140.723
G00 X257.181 Y132.532
;Nearing path end, moving to preshutoff position
G00 X262.596 Y121.824
M107 ;Pump off
G00 X262.755 Y121.509
G4 P0 ;Pause for 0 milliseconds
;Completed path #5/7 on color #1
;Starting path #6/7, segments: 15, length: 101, color #1
G00 X226.666 Y61.897
M106 ;Pump on
G4 P0 ;Pause for 0 milliseconds
G00 X220.509 Y68.385
G00 X231.441 Y68.852
;Nearing path end, moving to preshutoff position
G00 X226.865 Y62.188
M107 ;Pump off
G00 X226.666 Y61.897
G4 P0 ;Pause for 0 milliseconds
;Completed path #6/7 on color #1
;Starting path #7/7, segments: 34, length: 1153, color #1
G00 X266.622 Y31.608
M106 ;Pump on
G4 P0 ;Pause for 0 milliseconds
G00 X253.259 Y27.678
G00 X239.53 Y25.536
G00 X225.494 Y25.323
G00 X212.061 Y28.466
G00 X201.855 Y38.052
G00 X196.906 Y51.143
G00 X191.536 Y64.079
G00 X186.874 Y77.228
G00 X185.257 Y91.169
G00 X185.113 Y105.154
G00 X187.742 Y118.915
G00 X191.741 Y132.285
G00 X197.87 Y144.535
G00 X206.564 Y155.386
G00 X219.255 Y160.115
G00 X233.159 Y161.922
G00 X247.084 Y163.403
G00 X260.922 Y161.428
G00 X273.828 Y156.999
G00 X282.94 Y146.622
G00 X287.757 Y133.463
G00 X291.251 Y119.991
G00 X292.861 Y106.105
G00 X292.954 Y92.097
G00 X290.405 Y78.532
G00 X287.663 Y64.779
G00 X285.013 Y51.017
G00 X276.685 Y40.1
;Nearing path end, moving to preshutoff position
G00 X266.891 Y31.836
M107 ;Pump off
G00 X266.622 Y31.608
G4 P0 ;Pause for 0 milliseconds
;Completed path #7/7 on color #1
;PancakePainter Footer Start
G4 P1000 ;Pause for 1000 milliseconds
G28 X0 Y0 ;Home All Axis
M84 ;Motors off
;PancakePainter Footer Complete
