;PancakePainter v1.0.0 GCODE header start
;Originally generated @ Thu Jun 30 2016 17:45:35 GMT-0400 (Eastern Daylight Time)
;Settings used to generate this file:
;----------------------------------------
;flattenResolution: 40
;lineEndPreShutoff: 1
;startWait: 0
;endWait: 0
;shadeChangeWait: 35
;fillSpacing: 30
;fillAngle: 30
;fillGroupThreshold: 27
;----------------------------------------
W1 X42 Y210 L485 T0 ;Define Workspace of this file
G21 ;Set units to MM
G1 F5600 ;Set Speed
M107 ;Pump off
G4 P1000 ;Pause for 1000 milliseconds
M84 ;Motors off
G28 X0 Y0 ;Home All Axis
;PancakePainter header complete
;Starting path #1/27, segments: 23, length: 376, color #4
G00 X196.151 Y61.702
M106 ;Pump on
G4 P0 ;Pause for 0 milliseconds
G00 X196.151 Y66.346
G00 X197.183 Y73.053
G00 X197.183 Y77.696
G00 X197.699 Y82.34
G00 X197.183 Y88.015
G00 X196.151 Y94.206
G00 X195.635 Y99.365
G00 X194.088 Y104.009
G00 X192.024 Y110.2
G00 X190.476 Y113.811
G00 X188.412 Y116.907
G00 X184.285 Y122.066
G00 X181.189 Y123.614
G00 X180.673 Y117.423
G00 X180.157 Y111.748
G00 X180.157 Y104.009
G00 X181.189 Y95.754
G00 X183.769 Y88.015
G00 X185.833 Y80.792
G00 X188.412 Y73.569
G00 X189.444 Y70.473
;Nearing path end, moving to preshutoff position
G00 X195.937 Y61.983
M107 ;Pump off
G00 X196.151 Y61.702
G4 P0 ;Pause for 0 milliseconds
;Completed path #1/27 on color #4
;Starting path #2/27, segments: 2, length: 78, color #4
G00 X195.749 Y72.465
M106 ;Pump on
G4 P0 ;Pause for 0 milliseconds
G00 X188.848 Y84.419
;Nearing path end, moving to preshutoff position
G00 X182.123 Y96.066
M107 ;Pump off
G00 X181.946 Y96.372
G4 P0 ;Pause for 0 milliseconds
;Completed path #2/27 on color #4
;Starting path #3/27, segments: 2, length: 76, color #4
G00 X195.259 Y92.503
M106 ;Pump on
G4 P0 ;Pause for 0 milliseconds
G00 X188.516 Y104.182
;Nearing path end, moving to preshutoff position
G00 X181.95 Y115.556
M107 ;Pump off
G00 X181.773 Y115.861
G4 P0 ;Pause for 0 milliseconds
;Completed path #3/27 on color #4
;Starting path #4/27, segments: 43, length: 740, color #4
G00 X212.793 Y149.864
M106 ;Pump on
G4 P0 ;Pause for 0 milliseconds
G00 X214.872 Y144.666
G00 X217.991 Y141.547
G00 X221.63 Y138.428
G00 X226.309 Y136.349
G00 X232.027 Y133.749
G00 X237.745 Y132.19
G00 X243.983 Y131.67
G00 X249.181 Y131.15
G00 X255.939 Y130.63
G00 X262.177 Y130.111
G00 X269.975 Y130.111
G00 X277.772 Y130.63
G00 X286.09 Y132.19
G00 X297.006 Y135.829
G00 X306.363 Y140.507
G00 X312.601 Y146.225
G00 X314.161 Y148.305
G00 X315.2 Y155.063
G00 X314.68 Y159.741
G00 X313.121 Y165.979
G00 X311.042 Y171.177
G00 X308.962 Y174.296
G00 X305.843 Y177.415
G00 X301.165 Y180.015
G00 X297.526 Y181.574
G00 X292.328 Y183.653
G00 X286.609 Y184.693
G00 X280.891 Y185.733
G00 X274.653 Y185.733
G00 X269.455 Y186.253
G00 X263.737 Y186.253
G00 X258.019 Y185.733
G00 X250.221 Y185.213
G00 X243.983 Y183.653
G00 X238.785 Y182.614
G00 X233.586 Y181.054
G00 X227.868 Y178.975
G00 X221.63 Y174.816
G00 X217.991 Y171.177
G00 X214.352 Y164.939
G00 X212.793 Y158.701
;Nearing path end, moving to preshutoff position
G00 X212.793 Y150.217
M107 ;Pump off
G00 X212.793 Y149.864
G4 P0 ;Pause for 0 milliseconds
;Completed path #4/27 on color #4
;Starting path #5/27, segments: 2, length: 32, color #4
G00 X242.998 Y150.381
M106 ;Pump on
G4 P0 ;Pause for 0 milliseconds
;Nearing path end, moving to preshutoff position
G00 X248.39 Y141.042
M107 ;Pump off
G00 X248.566 Y140.737
G4 P0 ;Pause for 0 milliseconds
;Completed path #5/27 on color #4
;Starting path #6/27, segments: 21, length: 184, color #4
G00 X250.324 Y150.443
M106 ;Pump on
G4 P0 ;Pause for 0 milliseconds
G00 X250.324 Y147.347
G00 X250.324 Y143.22
G00 X249.292 Y138.576
G00 X246.713 Y135.997
G00 X245.165 Y135.997
G00 X243.617 Y138.576
G00 X242.585 Y141.156
G00 X242.585 Y144.251
G00 X242.069 Y146.315
G00 X242.069 Y150.959
G00 X242.069 Y156.118
G00 X242.069 Y158.182
G00 X242.585 Y160.245
G00 X244.133 Y163.857
G00 X245.681 Y164.889
G00 X247.229 Y164.889
G00 X249.292 Y162.309
G00 X249.808 Y159.729
G00 X249.808 Y156.118
;Nearing path end, moving to preshutoff position
G00 X250.292 Y150.794
M107 ;Pump off
G00 X250.324 Y150.443
G4 P0 ;Pause for 0 milliseconds
;Completed path #6/27 on color #4
;Starting path #7/27, segments: 2, length: 14, color #4
G00 X248.605 Y159.55
M106 ;Pump on
G4 P0 ;Pause for 0 milliseconds
;Nearing path end, moving to preshutoff position
G00 X246.325 Y163.499
M107 ;Pump off
G00 X246.149 Y163.804
G4 P0 ;Pause for 0 milliseconds
;Completed path #7/27 on color #4
;Starting path #8/27, segments: 2, length: 34, color #4
G00 X279.346 Y151.542
M106 ;Pump on
G4 P0 ;Pause for 0 milliseconds
;Nearing path end, moving to preshutoff position
G00 X285.167 Y141.461
M107 ;Pump off
G00 X285.343 Y141.156
G4 P0 ;Pause for 0 milliseconds
;Completed path #8/27 on color #4
;Starting path #9/27, segments: 17, length: 186, color #4
G00 X286.44 Y160.245
M106 ;Pump on
G4 P0 ;Pause for 0 milliseconds
G00 X286.956 Y155.602
G00 X287.472 Y149.927
G00 X287.472 Y143.736
G00 X286.44 Y139.092
G00 X284.892 Y136.512
G00 X282.312 Y135.997
G00 X279.733 Y138.576
G00 X278.185 Y142.704
G00 X278.185 Y146.831
G00 X278.185 Y149.927
G00 X278.701 Y155.086
G00 X278.701 Y158.182
G00 X279.733 Y162.309
G00 X281.796 Y164.889
G00 X283.86 Y164.889
;Nearing path end, moving to preshutoff position
G00 X286.268 Y160.554
M107 ;Pump off
G00 X286.44 Y160.245
G4 P0 ;Pause for 0 milliseconds
;Completed path #9/27 on color #4
;Starting path #10/27, segments: 2, length: 195, color #4
G00 X265.861 Y104.25
M106 ;Pump on
G4 P0 ;Pause for 0 milliseconds
G00 X272.738 Y92.338
G00 X279.626 Y80.408
G00 X286.513 Y68.479
G00 X293.401 Y56.549
;Nearing path end, moving to preshutoff position
G00 X300.102 Y44.943
M107 ;Pump off
G00 X300.278 Y44.637
G4 P0 ;Pause for 0 milliseconds
;Completed path #10/27 on color #4
;Starting path #11/27, segments: 2, length: 222, color #4
G00 X293.029 Y36.025
M106 ;Pump on
G4 P0 ;Pause for 0 milliseconds
G00 X286.505 Y47.326
G00 X279.964 Y58.655
G00 X273.422 Y69.986
G00 X266.88 Y81.317
G00 X260.339 Y92.646
;Nearing path end, moving to preshutoff position
G00 X253.99 Y103.642
M107 ;Pump off
G00 X253.814 Y103.948
G4 P0 ;Pause for 0 milliseconds
;Completed path #11/27 on color #4
;Starting path #12/27, segments: 2, length: 230, color #4
G00 X244.252 Y99.342
M106 ;Pump on
G4 P0 ;Pause for 0 milliseconds
G00 X250.997 Y87.659
G00 X257.743 Y75.974
G00 X264.498 Y64.274
G00 X271.253 Y52.574
G00 X278 Y40.889
;Nearing path end, moving to preshutoff position
G00 X284.569 Y29.512
M107 ;Pump off
G00 X284.745 Y29.206
G4 P0 ;Pause for 0 milliseconds
;Completed path #12/27 on color #4
;Starting path #13/27, segments: 2, length: 228, color #4
G00 X275.297 Y24.403
M106 ;Pump on
G4 P0 ;Pause for 0 milliseconds
G00 X268.588 Y36.024
G00 X261.878 Y47.646
G00 X255.159 Y59.284
G00 X248.44 Y70.921
G00 X241.73 Y82.543
;Nearing path end, moving to preshutoff position
G00 X235.197 Y93.859
M107 ;Pump off
G00 X235.02 Y94.164
G4 P0 ;Pause for 0 milliseconds
;Completed path #13/27 on color #4
;Starting path #14/27, segments: 2, length: 205, color #4
G00 X227.899 Y85.33
M106 ;Pump on
G4 P0 ;Pause for 0 milliseconds
G00 X233.919 Y74.903
G00 X239.954 Y64.451
G00 X245.99 Y53.996
G00 X252.026 Y43.542
G00 X258.061 Y33.089
;Nearing path end, moving to preshutoff position
G00 X263.904 Y22.968
M107 ;Pump off
G00 X264.081 Y22.662
G4 P0 ;Pause for 0 milliseconds
;Completed path #14/27 on color #4
;Starting path #15/27, segments: 2, length: 150, color #4
G00 X249.867 Y26.115
M106 ;Pump on
G4 P0 ;Pause for 0 milliseconds
G00 X243.265 Y37.549
G00 X236.65 Y49.006
G00 X230.036 Y60.462
;Nearing path end, moving to preshutoff position
G00 X223.611 Y71.591
M107 ;Pump off
G00 X223.434 Y71.897
G4 P0 ;Pause for 0 milliseconds
;Completed path #15/27 on color #4
;Starting path #16/27, segments: 2, length: 5, color #4
G00 X227.186 Y44.232
M106 ;Pump on
G4 P0 ;Pause for 0 milliseconds
;Nearing path end, moving to preshutoff position
G00 X227.958 Y42.893
M107 ;Pump off
G00 X228.135 Y42.588
G4 P0 ;Pause for 0 milliseconds
;Completed path #16/27 on color #4
;Starting path #17/27, segments: 71, length: 1660, color #4
G00 X206.931 Y33.397
M106 ;Pump on
G4 P0 ;Pause for 0 milliseconds
G00 X213.87 Y28.593
G00 X218.674 Y25.39
G00 X224.545 Y21.654
G00 X232.552 Y17.384
G00 X238.957 Y15.249
G00 X245.362 Y13.648
G00 X253.902 Y12.046
G00 X262.976 Y11.513
G00 X267.78 Y11.513
G00 X276.32 Y12.046
G00 X283.259 Y13.648
G00 X292.333 Y16.316
G00 X301.407 Y20.587
G00 X308.88 Y24.857
G00 X317.42 Y30.728
G00 X327.028 Y39.802
G00 X336.102 Y50.477
G00 X340.906 Y57.95
G00 X346.777 Y67.558
G00 X351.047 Y78.233
G00 X354.784 Y91.577
G00 X356.385 Y100.117
G00 X357.452 Y107.056
G00 X356.385 Y117.731
G00 X354.784 Y126.805
G00 X352.115 Y134.278
G00 X349.446 Y140.149
G00 X345.71 Y144.419
G00 X343.041 Y147.622
G00 X340.372 Y150.824
G00 X337.169 Y154.027
G00 X331.298 Y158.297
G00 X327.028 Y159.898
G00 X324.893 Y162.033
G00 X321.69 Y163.101
G00 X321.69 Y167.371
G00 X320.623 Y171.641
G00 X319.021 Y175.911
G00 X316.353 Y179.647
G00 X313.15 Y183.917
G00 X308.88 Y186.586
G00 X304.076 Y189.255
G00 X299.272 Y191.924
G00 X293.401 Y193.525
G00 X289.664 Y194.593
G00 X283.259 Y195.126
G00 X274.185 Y196.194
G00 X264.044 Y196.728
G00 X252.301 Y196.194
G00 X239.491 Y194.059
G00 X228.282 Y190.856
G00 X217.607 Y185.519
G00 X211.201 Y177.512
G00 X207.999 Y169.506
G00 X205.864 Y160.966
G00 X196.256 Y157.763
G00 X188.25 Y151.358
G00 X181.844 Y145.487
G00 X177.041 Y138.014
G00 X172.77 Y129.474
G00 X170.635 Y119.332
G00 X170.635 Y111.326
G00 X171.169 Y100.651
G00 X172.237 Y90.509
G00 X177.041 Y75.03
G00 X180.243 Y67.024
G00 X186.115 Y56.349
G00 X192.52 Y47.275
G00 X198.925 Y39.802
;Nearing path end, moving to preshutoff position
G00 X206.656 Y33.617
M107 ;Pump off
G00 X206.931 Y33.397
G4 P0 ;Pause for 0 milliseconds
;Completed path #17/27 on color #4
;Starting path #18/27, segments: 2, length: 136, color #4
G00 X280.482 Y100.092
M106 ;Pump on
G4 P0 ;Pause for 0 milliseconds
G00 X286.46 Y89.738
G00 X292.45 Y79.364
G00 X298.439 Y68.989
;Nearing path end, moving to preshutoff position
G00 X304.241 Y58.941
M107 ;Pump off
G00 X304.417 Y58.636
G4 P0 ;Pause for 0 milliseconds
;Completed path #18/27 on color #4
;Starting path #19/27, segments: 57, length: 750, color #4
G00 X301.402 Y83.371
M106 ;Pump on
G4 P0 ;Pause for 0 milliseconds
G00 X303.466 Y78.212
G00 X305.013 Y73.053
G00 X305.013 Y69.441
G00 X305.529 Y64.282
G00 X305.529 Y58.091
G00 X303.981 Y50.868
G00 X302.434 Y46.74
G00 X300.37 Y42.613
G00 X297.274 Y37.969
G00 X293.147 Y34.358
G00 X288.503 Y30.23
G00 X284.376 Y27.651
G00 X280.764 Y25.587
G00 X277.153 Y24.039
G00 X273.025 Y22.491
G00 X268.898 Y21.975
G00 X264.771 Y21.46
G00 X260.643 Y21.975
G00 X257.032 Y22.491
G00 X253.42 Y23.523
G00 X249.292 Y25.071
G00 X246.197 Y25.587
G00 X242.069 Y28.167
G00 X238.974 Y30.23
G00 X235.878 Y32.81
G00 X233.299 Y34.874
G00 X230.719 Y37.453
G00 X228.655 Y40.549
G00 X226.591 Y43.129
G00 X226.075 Y45.708
G00 X224.528 Y48.288
G00 X222.98 Y52.416
G00 X221.948 Y54.995
G00 X221.948 Y59.123
G00 X221.948 Y62.218
G00 X221.948 Y65.83
G00 X221.948 Y69.957
G00 X222.464 Y72.021
G00 X222.98 Y75.117
G00 X225.044 Y80.792
G00 X226.591 Y84.919
G00 X229.171 Y88.531
G00 X233.299 Y94.206
G00 X238.458 Y97.302
G00 X243.617 Y100.397
G00 X247.745 Y102.461
G00 X253.42 Y105.041
G00 X259.611 Y105.557
G00 X263.739 Y105.557
G00 X270.446 Y105.041
G00 X278.701 Y102.461
G00 X283.86 Y99.365
G00 X290.051 Y95.754
G00 X294.695 Y91.626
G00 X297.274 Y89.047
;Nearing path end, moving to preshutoff position
G00 X301.194 Y83.657
M107 ;Pump off
G00 X301.402 Y83.371
G4 P0 ;Pause for 0 milliseconds
;Completed path #19/27 on color #4
;Starting path #20/27, segments: 18, length: 368, color #4
G00 X331.842 Y69.957
M106 ;Pump on
G4 P0 ;Pause for 0 milliseconds
G00 X331.842 Y76.148
G00 X331.842 Y81.824
G00 X332.358 Y90.079
G00 X334.422 Y99.881
G00 X336.485 Y106.072
G00 X338.033 Y111.232
G00 X341.129 Y116.907
G00 X346.804 Y122.582
G00 X347.32 Y114.843
G00 X347.836 Y108.136
G00 X347.32 Y100.913
G00 X346.804 Y94.722
G00 X344.224 Y85.951
G00 X341.645 Y78.728
G00 X337.517 Y70.473
G00 X332.874 Y61.186
;Nearing path end, moving to preshutoff position
G00 X331.883 Y69.607
M107 ;Pump off
G00 X331.842 Y69.957
G4 P0 ;Pause for 0 milliseconds
;Completed path #20/27 on color #4
;Starting path #21/27, segments: 2, length: 41, color #4
G00 X341.088 Y79.984
M106 ;Pump on
G4 P0 ;Pause for 0 milliseconds
G00 X337.471 Y86.249
;Nearing path end, moving to preshutoff position
G00 X334.031 Y92.208
M107 ;Pump off
G00 X333.854 Y92.513
G4 P0 ;Pause for 0 milliseconds
;Completed path #21/27 on color #4
;Starting path #22/27, segments: 2, length: 44, color #4
G00 X344.931 Y92.187
M106 ;Pump on
G4 P0 ;Pause for 0 milliseconds
G00 X341.086 Y98.846
;Nearing path end, moving to preshutoff position
G00 X337.418 Y105.201
M107 ;Pump off
G00 X337.241 Y105.506
G4 P0 ;Pause for 0 milliseconds
;Completed path #22/27 on color #4
;Starting path #23/27, segments: 2, length: 27, color #4
G00 X346.604 Y108.147
M106 ;Pump on
G4 P0 ;Pause for 0 milliseconds
;Nearing path end, moving to preshutoff position
G00 X342.047 Y116.04
M107 ;Pump off
G00 X341.871 Y116.346
G4 P0 ;Pause for 0 milliseconds
;Completed path #23/27 on color #4
;Switching Color to: Light
G4 P1000 ;Pause for 1000 milliseconds
G28 X0 Y0 ;Home All Axis
M84 ;Motors off
M142 ;Bottle change
G4 P35000 ;Pause for 35000 milliseconds
;Starting path #24/27, segments: 5, length: 62, color #1
G00 X206.462 Y37.804
M106 ;Pump on
G4 P0 ;Pause for 0 milliseconds
G00 X213.514 Y37.638
;Nearing path end, moving to preshutoff position
G00 X206.814 Y37.795
M107 ;Pump off
G00 X206.462 Y37.804
G4 P0 ;Pause for 0 milliseconds
;Completed path #24/27 on color #1
;Starting path #25/27, segments: 1, length: 0, color #1
;Completed path #25/27 on color #1
;Starting path #26/27, segments: 1, length: 0, color #1
;Completed path #26/27 on color #1
;Starting path #27/27, segments: 5, length: 62, color #1
G00 X329.346 Y61.702
M106 ;Pump on
G4 P0 ;Pause for 0 milliseconds
G00 X336.398 Y61.537
;Nearing path end, moving to preshutoff position
G00 X329.699 Y61.694
M107 ;Pump off
G00 X329.346 Y61.702
G4 P0 ;Pause for 0 milliseconds
;Completed path #27/27 on color #1
;PancakePainter Footer Start
G4 P1000 ;Pause for 1000 milliseconds
G28 X0 Y0 ;Home All Axis
M84 ;Motors off
;PancakePainter Footer Complete
