;PancakePainter v1.0.0 GCODE header start
;Originally generated @ Tue Jun 21 2016 15:54:00 GMT-0400 (Eastern Daylight Time)
;Settings used to generate this file:
;----------------------------------------
;flattenResolution: 15
;lineEndPreShutoff: 1
;startWait: 0
;endWait: 0
;shadeChangeWait: 35
;fillSpacing: 15
;fillAngle: 23
;fillGroupThreshold: 27
;----------------------------------------
W1 X42 Y210 L485 T0 ;Define Workspace of this file
G21 ;Set units to MM
G1 F5600 ;Set Speed
M107 ;Pump off
G4 P1000 ;Pause for 1000 milliseconds
M84 ;Motors off
G28 X0 Y0 ;Home All Axis
;PancakePainter header complete
;Starting path #1/26, segments: 5, length: 62, color #1
G00 X136.492 Y23.748
M106 ;Pump on
G4 P0 ;Pause for 0 milliseconds
G00 X138.865 Y20.413
G00 X142.794 Y21.57
G00 X142.983 Y25.66
G00 X139.204 Y27.076
;Nearing path end, moving to preshutoff position
G00 X136.714 Y24.021
M107 ;Pump off
G00 X136.492 Y23.748
G4 P0 ;Pause for 0 milliseconds
;Completed path #1/26 on color #1
;Starting path #2/26, segments: 1, length: 0, color #1
;Completed path #2/26 on color #1
;Starting path #3/26, segments: 2, length: 35, color #1
G00 X170.728 Y38.311
M106 ;Pump on
G4 P0 ;Pause for 0 milliseconds
G00 X169.11 Y42.123
G00 X167.482 Y45.957
;Nearing path end, moving to preshutoff position
G00 X166.002 Y49.445
M107 ;Pump off
G00 X165.864 Y49.769
G4 P0 ;Pause for 0 milliseconds
;Completed path #3/26 on color #1
;Starting path #4/26, segments: 2, length: 64, color #1
G00 X170.516 Y52.306
M106 ;Pump on
G4 P0 ;Pause for 0 milliseconds
G00 X172.277 Y48.157
G00 X174.041 Y44.003
G00 X175.806 Y39.844
G00 X177.569 Y35.69
;Nearing path end, moving to preshutoff position
G00 X179.193 Y31.866
M107 ;Pump off
G00 X179.33 Y31.541
G4 P0 ;Pause for 0 milliseconds
;Completed path #4/26 on color #1
;Starting path #5/26, segments: 2, length: 111, color #1
G00 X183.709 Y34.723
M106 ;Pump on
G4 P0 ;Pause for 0 milliseconds
G00 X181.794 Y39.233
G00 X179.881 Y43.741
G00 X177.968 Y48.246
G00 X176.045 Y52.777
G00 X174.122 Y57.308
G00 X172.21 Y61.813
G00 X170.296 Y66.321
;Nearing path end, moving to preshutoff position
G00 X168.52 Y70.506
M107 ;Pump off
G00 X168.382 Y70.831
G4 P0 ;Pause for 0 milliseconds
;Completed path #5/26 on color #1
;Starting path #6/26, segments: 2, length: 10, color #1
G00 X166.627 Y74.966
M106 ;Pump on
G4 P0 ;Pause for 0 milliseconds
;Nearing path end, moving to preshutoff position
G00 X165.418 Y77.814
M107 ;Pump off
G00 X165.28 Y78.139
G4 P0 ;Pause for 0 milliseconds
;Completed path #6/26 on color #1
;Starting path #7/26, segments: 16, length: 3253, color #1
G00 X168.598 Y83.818
M106 ;Pump on
G4 P0 ;Pause for 0 milliseconds
G00 X170.663 Y78.953
G00 X172.727 Y74.091
G00 X174.792 Y69.225
G00 X176.861 Y64.35
G00 X178.928 Y59.481
G00 X180.993 Y54.616
G00 X183.067 Y49.732
G00 X185.13 Y44.871
G00 X187.196 Y40.003
G00 X189.263 Y35.134
G00 X191.33 Y30.265
G00 X193.395 Y25.398
G00 X193.35 Y26.103
G00 X191.672 Y31.12
G00 X189.999 Y36.123
G00 X188.319 Y41.144
G00 X186.639 Y46.166
G00 X184.965 Y51.171
G00 X183.282 Y56.203
G00 X181.606 Y61.214
G00 X179.927 Y66.234
G00 X178.247 Y71.258
G00 X176.568 Y76.277
G00 X174.895 Y81.278
G00 X173.217 Y86.294
G00 X174.791 Y82.723
G00 X176.859 Y77.853
G00 X178.917 Y73.004
G00 X180.986 Y68.129
G00 X183.057 Y63.25
G00 X185.119 Y58.393
G00 X187.192 Y53.51
G00 X189.258 Y48.641
G00 X191.327 Y43.767
G00 X193.393 Y38.9
G00 X195.457 Y34.038
G00 X197.524 Y29.168
G00 X199.589 Y24.303
G00 X200.017 Y23.744
G00 X198.328 Y28.752
G00 X196.642 Y33.753
G00 X194.952 Y38.765
G00 X193.261 Y43.778
G00 X191.569 Y48.794
G00 X189.879 Y53.807
G00 X188.184 Y58.832
G00 X186.497 Y63.836
G00 X184.806 Y68.851
G00 X183.113 Y73.87
G00 X181.425 Y78.878
G00 X179.737 Y83.883
G00 X179.296 Y85.608
G00 X181.361 Y80.743
G00 X183.421 Y75.889
G00 X185.489 Y71.017
G00 X187.558 Y66.143
G00 X189.627 Y61.268
G00 X191.693 Y56.402
G00 X193.766 Y51.519
G00 X195.828 Y46.661
G00 X197.897 Y41.786
G00 X199.967 Y36.91
G00 X202.032 Y32.045
G00 X204.095 Y27.185
G00 X204.917 Y25.615
G00 X203.254 Y30.64
G00 X201.593 Y35.661
G00 X199.93 Y40.684
G00 X198.271 Y45.701
G00 X196.611 Y50.714
G00 X194.945 Y55.752
G00 X193.284 Y60.77
G00 X191.624 Y65.787
G00 X189.961 Y70.811
G00 X188.298 Y75.837
G00 X186.638 Y80.856
G00 X185.491 Y84.509
G00 X187.557 Y79.641
G00 X189.626 Y74.768
G00 X191.692 Y69.9
G00 X193.755 Y65.041
G00 X195.823 Y60.169
G00 X197.887 Y55.306
G00 X199.962 Y50.418
G00 X202.026 Y45.555
G00 X204.094 Y40.683
G00 X206.164 Y35.806
G00 X208.232 Y30.935
G00 X210.29 Y26.086
G00 X212.356 Y21.218
G00 X212.368 Y21.798
G00 X210.708 Y26.813
G00 X209.048 Y31.826
G00 X207.384 Y36.852
G00 X205.719 Y41.879
G00 X204.059 Y46.894
G00 X202.39 Y51.935
G00 X200.729 Y56.952
G00 X199.065 Y61.977
G00 X197.402 Y67.002
G00 X195.737 Y72.029
G00 X194.082 Y77.029
G00 X193.657 Y78.768
G00 X195.722 Y73.902
G00 X197.783 Y69.048
G00 X199.851 Y64.175
G00 X201.919 Y59.302
G00 X203.988 Y54.428
G00 X206.054 Y49.56
G00 X208.127 Y44.678
G00 X210.19 Y39.817
G00 X212.257 Y34.947
G00 X214.327 Y30.072
G00 X216.39 Y25.212
G00 X218.457 Y20.342
G00 X219.06 Y19.298
G00 X217.351 Y24.305
G00 X215.649 Y29.294
G00 X213.938 Y34.307
G00 X212.225 Y39.325
G00 X210.519 Y44.325
G00 X208.812 Y49.326
G00 X207.097 Y54.353
G00 X205.39 Y59.354
G00 X203.684 Y64.353
G00 X201.971 Y69.371
G00 X200.26 Y74.384
G00 X198.557 Y79.373
G00 X196.849 Y84.379
G00 X197.506 Y83.196
G00 X199.571 Y78.332
G00 X201.633 Y73.472
G00 X203.699 Y68.606
G00 X205.769 Y63.728
G00 X207.837 Y58.858
G00 X209.901 Y53.996
G00 X211.976 Y49.106
G00 X214.04 Y44.243
G00 X216.106 Y39.376
G00 X218.178 Y34.496
G00 X220.245 Y29.625
G00 X222.305 Y24.773
G00 X224.372 Y19.902
G00 X224.79 Y19.26
G00 X223.018 Y24.235
G00 X221.242 Y29.22
G00 X219.473 Y34.188
G00 X217.697 Y39.174
G00 X215.919 Y44.165
G00 X214.145 Y49.143
G00 X212.373 Y54.119
G00 X210.593 Y59.116
G00 X208.813 Y64.113
G00 X207.04 Y69.089
G00 X205.267 Y74.067
G00 X203.489 Y79.059
G00 X201.713 Y84.044
G00 X199.943 Y89.012
G00 X198.168 Y93.997
G00 X196.396 Y98.97
G00 X196.846 Y98.247
G00 X198.913 Y93.377
G00 X200.978 Y88.512
G00 X203.036 Y83.663
G00 X205.111 Y78.776
G00 X207.174 Y73.915
G00 X209.242 Y69.044
G00 X211.305 Y64.183
G00 X213.379 Y59.297
G00 X215.45 Y54.418
G00 X217.514 Y49.556
G00 X219.577 Y44.695
G00 X221.651 Y39.808
G00 X223.714 Y34.95
G00 X225.776 Y30.091
G00 X227.843 Y25.223
G00 X229.913 Y20.345
G00 X229.408 Y21.98
G00 X227.59 Y26.936
G00 X225.768 Y31.902
G00 X223.946 Y36.868
G00 X222.123 Y41.839
G00 X220.306 Y46.791
G00 X218.485 Y51.755
G00 X216.663 Y56.724
G00 X214.843 Y61.683
G00 X213.019 Y66.656
G00 X211.189 Y71.644
G00 X209.37 Y76.603
G00 X207.55 Y81.564
G00 X205.73 Y86.525
G00 X203.906 Y91.499
G00 X202.086 Y96.459
G00 X200.264 Y101.425
G00 X198.443 Y106.391
G00 X196.622 Y111.354
G00 X194.802 Y116.317
G00 X195.463 Y115.002
G00 X197.527 Y110.14
G00 X199.594 Y105.27
G00 X201.66 Y100.402
G00 X203.726 Y95.535
G00 X205.789 Y90.676
G00 X207.856 Y85.806
G00 X209.924 Y80.933
G00 X211.987 Y76.072
G00 X214.059 Y71.191
G00 X216.134 Y66.302
G00 X218.194 Y61.45
G00 X220.262 Y56.578
G00 X222.332 Y51.701
G00 X224.402 Y46.824
G00 X226.462 Y41.972
G00 X228.527 Y37.106
G00 X230.595 Y32.234
G00 X232.662 Y27.366
;Nearing path end, moving to preshutoff position
G00 X234.586 Y22.833
M107 ;Pump off
G00 X234.724 Y22.508
G4 P0 ;Pause for 0 milliseconds
;Completed path #7/26 on color #1
;Starting path #8/26, segments: 2, length: 331, color #1
G00 X236.154 Y32.636
M106 ;Pump on
G4 P0 ;Pause for 0 milliseconds
G00 X234.17 Y37.308
G00 X232.19 Y41.974
G00 X230.205 Y46.651
G00 X228.216 Y51.336
G00 X226.234 Y56.006
G00 X224.249 Y60.681
G00 X222.269 Y65.345
G00 X220.283 Y70.024
G00 X218.298 Y74.703
G00 X216.311 Y79.382
G00 X214.325 Y84.062
G00 X212.338 Y88.742
G00 X210.352 Y93.422
G00 X208.366 Y98.101
G00 X206.38 Y102.779
G00 X204.394 Y107.458
G00 X202.414 Y112.122
G00 X200.43 Y116.797
G00 X198.447 Y121.467
G00 X196.459 Y126.153
G00 X194.474 Y130.829
G00 X192.493 Y135.495
;Nearing path end, moving to preshutoff position
G00 X190.647 Y139.843
M107 ;Pump off
G00 X190.51 Y140.168
G4 P0 ;Pause for 0 milliseconds
;Completed path #8/26 on color #1
;Starting path #9/26, segments: 10, length: 1616, color #1
G00 X190.119 Y154.585
M106 ;Pump on
G4 P0 ;Pause for 0 milliseconds
G00 X192.173 Y149.745
G00 X194.237 Y144.882
G00 X196.299 Y140.025
G00 X198.362 Y135.165
G00 X200.425 Y130.305
G00 X202.487 Y125.447
G00 X204.549 Y120.589
G00 X206.612 Y115.728
G00 X208.668 Y110.886
G00 X210.733 Y106.021
G00 X212.798 Y101.154
G00 X214.862 Y96.293
G00 X216.924 Y91.436
G00 X218.988 Y86.573
G00 X221.052 Y81.711
G00 X223.114 Y76.852
G00 X225.172 Y72.003
G00 X227.239 Y67.134
G00 X229.299 Y62.281
G00 X231.36 Y57.424
G00 X233.421 Y52.569
G00 X235.483 Y47.711
G00 X237.548 Y42.847
G00 X239.612 Y37.985
G00 X241.675 Y33.124
G00 X243.737 Y28.267
G00 X244.325 Y27.354
G00 X242.697 Y32.378
G00 X241.076 Y37.383
G00 X239.448 Y42.409
G00 X237.82 Y47.434
G00 X236.194 Y52.454
G00 X234.562 Y57.492
G00 X232.936 Y62.509
G00 X231.309 Y67.535
G00 X229.68 Y72.562
G00 X228.058 Y77.57
G00 X226.602 Y82.13
G00 X228.667 Y77.266
G00 X230.723 Y72.421
G00 X232.791 Y67.551
G00 X234.854 Y62.691
G00 X236.912 Y57.843
G00 X238.982 Y52.966
G00 X241.042 Y48.112
G00 X243.106 Y43.25
G00 X245.166 Y38.397
G00 X247.236 Y33.52
G00 X249.288 Y28.685
G00 X248.399 Y31.742
G00 X246.778 Y36.763
G00 X245.159 Y41.779
G00 X243.536 Y46.806
G00 X241.914 Y51.828
G00 X240.288 Y56.864
G00 X238.667 Y61.886
G00 X237.044 Y66.912
G00 X235.42 Y71.941
G00 X233.801 Y76.957
G00 X232.18 Y81.977
G00 X232.68 Y81.309
G00 X234.735 Y76.467
G00 X236.804 Y71.592
G00 X238.865 Y66.737
G00 X240.927 Y61.879
G00 X242.992 Y57.015
G00 X245.054 Y52.157
G00 X247.117 Y47.297
G00 X249.182 Y42.43
G00 X251.245 Y37.571
G00 X253.304 Y32.72
G00 X253.293 Y33.492
G00 X251.713 Y38.521
G00 X250.134 Y43.552
G00 X248.552 Y48.592
G00 X246.972 Y53.625
G00 X245.385 Y58.678
G00 X243.807 Y63.705
G00 X242.223 Y68.748
G00 X240.64 Y73.79
G00 X239.059 Y78.825
G00 X238.471 Y81.162
G00 X240.531 Y76.309
G00 X242.596 Y71.443
G00 X244.657 Y66.589
G00 X246.718 Y61.732
G00 X248.787 Y56.86
G00 X250.846 Y52.007
G00 X252.911 Y47.144
G00 X254.974 Y42.282
G00 X257.033 Y37.432
G00 X257.762 Y36.278
G00 X256.256 Y41.337
G00 X254.751 Y46.393
G00 X253.245 Y51.453
G00 X251.739 Y56.514
G00 X250.232 Y61.577
G00 X248.725 Y66.64
G00 X247.218 Y71.706
G00 X245.713 Y76.76
G00 X245.792 Y77.41
G00 X247.86 Y72.54
G00 X249.918 Y67.69
G00 X251.982 Y62.829
G00 X254.047 Y57.962
G00 X256.11 Y53.104
G00 X258.176 Y48.236
;Nearing path end, moving to preshutoff position
G00 X260.094 Y43.716
M107 ;Pump off
G00 X260.232 Y43.391
G4 P0 ;Pause for 0 milliseconds
;Completed path #9/26 on color #1
;Starting path #10/26, segments: 2, length: 3, color #1
G00 X262.712 Y37.55
M106 ;Pump on
G4 P0 ;Pause for 0 milliseconds
;Nearing path end, moving to preshutoff position
G00 X263.003 Y36.864
M107 ;Pump off
G00 X263.141 Y36.539
G4 P0 ;Pause for 0 milliseconds
;Completed path #10/26 on color #1
;Starting path #11/26, segments: 6, length: 465, color #1
G00 X278.386 Y41.113
M106 ;Pump on
G4 P0 ;Pause for 0 milliseconds
G00 X276.389 Y45.817
G00 X274.371 Y50.571
G00 X273.552 Y50.312
G00 X273.883 Y45.188
G00 X274.216 Y40.048
G00 X273.625 Y38.831
G00 X271.62 Y43.556
G00 X269.614 Y48.282
G00 X267.615 Y52.991
G00 X265.605 Y57.727
G00 X263.593 Y62.466
G00 X261.594 Y67.175
G00 X259.59 Y71.898
G00 X257.58 Y76.632
G00 X257.865 Y74.923
G00 X259.298 Y69.976
G00 X260.724 Y65.053
G00 X262.15 Y60.127
G00 X263.581 Y55.186
G00 X265.011 Y50.247
G00 X266.434 Y45.334
G00 X267.864 Y40.395
G00 X269.131 Y35.924
G00 X267.129 Y40.639
G00 X265.122 Y45.368
G00 X263.118 Y50.089
G00 X261.114 Y54.81
G00 X259.103 Y59.547
G00 X257.1 Y64.268
G00 X255.094 Y68.993
G00 X253.086 Y73.723
;Nearing path end, moving to preshutoff position
G00 X251.227 Y78.102
M107 ;Pump off
G00 X251.09 Y78.427
G4 P0 ;Pause for 0 milliseconds
;Completed path #11/26 on color #1
;Starting path #12/26, segments: 2, length: 4, color #1
G00 X244.426 Y80.63
M106 ;Pump on
G4 P0 ;Pause for 0 milliseconds
;Nearing path end, moving to preshutoff position
G00 X243.985 Y81.668
M107 ;Pump off
G00 X243.847 Y81.993
G4 P0 ;Pause for 0 milliseconds
;Completed path #12/26 on color #1
;Starting path #13/26, segments: 78, length: 1984, color #1
G00 X226.833 Y83.41
M106 ;Pump on
G4 P0 ;Pause for 0 milliseconds
G00 X227.601 Y88.492
G00 X227.949 Y93.715
G00 X228.677 Y98.93
G00 X229.887 Y104.043
G00 X231.259 Y109.117
G00 X232.199 Y114.293
G00 X232.938 Y119.502
G00 X233.704 Y124.707
G00 X234.722 Y129.866
G00 X235.972 Y134.982
G00 X237.014 Y140.126
G00 X237.628 Y145.352
G00 X237.827 Y150.602
G00 X237.961 Y155.867
G00 X238.211 Y161.129
G00 X238.939 Y166.344
G00 X239.877 Y171.475
G00 X239.835 Y176.742
G00 X239.521 Y181.999
G00 X239.529 Y187.251
G00 X236.762 Y189.25
G00 X232.476 Y186.312
G00 X228.386 Y183.058
G00 X223.511 Y181.67
G00 X218.433 Y183.045
G00 X213.683 Y185.27
G00 X209.059 Y187.699
G00 X203.827 Y187.51
G00 X198.696 Y186.484
G00 X194.106 Y183.993
G00 X189.208 Y182.723
G00 X186.647 Y180.184
G00 X187.669 Y175.061
G00 X188.879 Y169.961
G00 X188.968 Y164.693
G00 X188.971 Y159.424
G00 X189.023 Y154.184
G00 X189.161 Y148.939
G00 X189.41 Y143.665
G00 X189.929 Y138.434
G00 X190.713 Y133.235
G00 X191.631 Y128.066
G00 X192.556 Y122.88
G00 X193.366 Y117.67
G00 X194.045 Y112.457
G00 X194.596 Y107.217
G00 X194.997 Y101.981
G00 X195.238 Y96.736
G00 X195.323 Y91.48
G00 X195.263 Y86.217
G00 X195.201 Y81.005
G00 X192.194 Y82.452
G00 X187.936 Y85.436
G00 X183.085 Y87.459
G00 X177.982 Y88.728
G00 X172.79 Y88.34
G00 X168.536 Y85.307
G00 X165.383 Y81.106
G00 X163.873 Y76.121
G00 X166.71 Y72.114
G00 X171.041 Y73.785
G00 X165.934 Y73.936
G00 X161.942 Y70.594
G00 X160.394 Y65.689
G00 X162.171 Y60.813
G00 X164.633 Y56.194
G00 X168.203 Y53.149
G00 X172.329 Y55.578
G00 X168.181 Y55.913
G00 X165.443 Y51.535
G00 X164.449 Y46.381
G00 X164.175 Y41.154
G00 X168.469 Y38.331
G00 X173.112 Y35.913
G00 X176.966 Y32.331
G00 X181.39 Y29.573
G00 X185.613 Y31.648
G00 X186.884 Y36.676
G00 X184.994 Y35.323
G00 X184.111 Y30.134
G00 X186.215 Y25.887
G00 X190.943 Y23.556
G00 X195.818 Y21.576
G00 X200.937 Y20.404
G00 X206.193 Y20.309
G00 X208.5 Y24.319
G00 X206.766 Y23.603
G00 X209.402 Y19.649
G00 X214.326 Y17.804
G00 X219.444 Y16.572
G00 X224.678 Y15.931
G00 X229.701 Y17.194
G00 X233.992 Y20.206
G00 X237.323 Y24.263
G00 X238.908 Y29.239
G00 X236.247 Y30.256
G00 X237.619 Y25.467
G00 X242.586 Y23.727
G00 X247.349 Y25.649
G00 X252.043 Y28.013
G00 X256.386 Y30.992
G00 X260.144 Y34.65
G00 X262.348 Y39.38
G00 X259.656 Y42.353
G00 X259.643 Y37.331
G00 X264.474 Y35.278
G00 X269.696 Y34.877
G00 X274.808 Y36.054
G00 X278.839 Y39.269
G00 X279.956 Y44.369
G00 X279.51 Y49.608
G00 X276.68 Y53.907
G00 X274.255 Y53.623
G00 X276.749 Y57.391
G00 X277.085 Y62.636
G00 X276.601 Y67.866
G00 X275.585 Y73.018
G00 X274.396 Y78.132
G00 X273.066 Y83.222
G00 X268.481 Y84.593
G00 X263.268 Y83.8
G00 X261.904 Y79.476
G00 X262.142 Y80.645
G00 X257.107 Y79.267
G00 X252.03 Y79.469
G00 X246.946 Y80.298
G00 X245.653 Y83.131
G00 X240.425 Y83.248
G00 X235.159 Y83.583
G00 X236.597 Y84.585
G00 X231.841 Y85.271
G00 X226.594 Y84.934
;Nearing path end, moving to preshutoff position
G00 X223.292 Y82.473
M107 ;Pump off
G00 X223.009 Y82.262
G4 P0 ;Pause for 0 milliseconds
;Completed path #13/26 on color #1
;Starting path #14/26, segments: 2, length: 258, color #1
G00 X225.117 Y85.629
M106 ;Pump on
G4 P0 ;Pause for 0 milliseconds
G00 X223.141 Y90.285
G00 X221.163 Y94.944
G00 X219.185 Y99.605
G00 X217.211 Y104.255
G00 X215.228 Y108.927
G00 X213.252 Y113.582
G00 X211.272 Y118.247
G00 X209.297 Y122.901
G00 X207.311 Y127.577
G00 X205.326 Y132.254
G00 X203.351 Y136.908
G00 X201.371 Y141.573
G00 X199.395 Y146.228
G00 X197.412 Y150.9
G00 X195.438 Y155.55
G00 X193.46 Y160.211
G00 X191.482 Y164.87
;Nearing path end, moving to preshutoff position
G00 X189.644 Y169.201
M107 ;Pump off
G00 X189.506 Y169.525
G4 P0 ;Pause for 0 milliseconds
;Completed path #14/26 on color #1
;Starting path #15/26, segments: 6, length: 1246, color #1
G00 X189.936 Y182.008
M106 ;Pump on
G4 P0 ;Pause for 0 milliseconds
G00 X191.978 Y177.198
G00 X194.021 Y172.385
G00 X196.065 Y167.57
G00 X198.109 Y162.753
G00 X200.153 Y157.939
G00 X202.194 Y153.13
G00 X204.239 Y148.311
G00 X206.28 Y143.503
G00 X208.331 Y138.672
G00 X210.382 Y133.84
G00 X212.423 Y129.032
G00 X214.468 Y124.213
G00 X216.51 Y119.404
G00 X218.553 Y114.59
G00 X220.597 Y109.774
G00 X222.641 Y104.958
G00 X224.685 Y100.144
G00 X226.732 Y95.32
G00 X224.983 Y100.19
G00 X223.214 Y105.111
G00 X221.444 Y110.033
G00 X219.674 Y114.957
G00 X217.905 Y119.878
G00 X216.138 Y124.795
G00 X214.367 Y129.722
G00 X212.6 Y134.637
G00 X210.824 Y139.577
G00 X209.049 Y144.515
G00 X207.281 Y149.431
G00 X205.511 Y154.356
G00 X203.745 Y159.268
G00 X201.974 Y164.194
G00 X200.204 Y169.119
G00 X198.437 Y174.034
G00 X196.664 Y178.965
G00 X195.218 Y183.061
G00 X197.266 Y178.235
G00 X199.308 Y173.425
G00 X201.352 Y168.609
G00 X203.39 Y163.808
G00 X205.438 Y158.983
G00 X207.484 Y154.164
G00 X209.525 Y149.356
G00 X211.572 Y144.532
G00 X213.624 Y139.698
G00 X215.665 Y134.889
G00 X217.709 Y130.074
G00 X219.754 Y125.256
G00 X221.802 Y120.432
G00 X223.84 Y115.631
G00 X225.885 Y110.814
G00 X227.928 Y105.999
G00 X227.618 Y107.235
G00 X225.871 Y112.168
G00 X224.123 Y117.105
G00 X222.383 Y122.018
G00 X220.632 Y126.961
G00 X218.887 Y131.888
G00 X217.138 Y136.827
G00 X215.395 Y141.748
G00 X213.641 Y146.702
G00 X211.895 Y151.632
G00 X210.15 Y156.559
G00 X208.399 Y161.502
G00 X206.656 Y166.424
G00 X204.912 Y171.349
G00 X203.163 Y176.287
G00 X201.419 Y181.212
G00 X200.043 Y185.189
G00 X202.084 Y180.382
G00 X204.131 Y175.559
G00 X206.167 Y170.762
G00 X208.218 Y165.931
G00 X210.258 Y161.125
G00 X212.306 Y156.3
G00 X214.346 Y151.493
G00 X216.4 Y146.656
G00 X218.441 Y141.847
G00 X220.487 Y137.027
G00 X222.531 Y132.211
G00 X224.575 Y127.396
G00 X226.617 Y122.585
G00 X228.658 Y117.775
;Nearing path end, moving to preshutoff position
G00 X230.564 Y113.287
M107 ;Pump off
G00 X230.702 Y112.962
G4 P0 ;Pause for 0 milliseconds
;Completed path #15/26 on color #1
;Starting path #16/26, segments: 2, length: 196, color #1
G00 X232.372 Y122.522
M106 ;Pump on
G4 P0 ;Pause for 0 milliseconds
G00 X230.448 Y127.057
G00 X228.526 Y131.583
G00 X226.596 Y136.131
G00 X224.665 Y140.681
G00 X222.733 Y145.231
G00 X220.808 Y149.766
G00 X218.876 Y154.318
G00 X216.944 Y158.871
G00 X215.018 Y163.406
G00 X213.087 Y167.956
G00 X211.156 Y172.506
G00 X209.226 Y177.054
G00 X207.304 Y181.58
;Nearing path end, moving to preshutoff position
G00 X205.517 Y185.79
M107 ;Pump off
G00 X205.379 Y186.114
G4 P0 ;Pause for 0 milliseconds
;Completed path #16/26 on color #1
;Starting path #17/26, segments: 2, length: 164, color #1
G00 X211.49 Y185.215
M106 ;Pump on
G4 P0 ;Pause for 0 milliseconds
G00 X213.547 Y180.369
G00 X215.599 Y175.534
G00 X217.663 Y170.671
G00 X219.721 Y165.824
G00 X221.775 Y160.984
G00 X223.841 Y156.117
G00 X225.896 Y151.277
G00 X227.953 Y146.429
G00 X230.017 Y141.567
G00 X232.07 Y136.732
;Nearing path end, moving to preshutoff position
G00 X233.989 Y132.21
M107 ;Pump off
G00 X234.127 Y131.886
G4 P0 ;Pause for 0 milliseconds
;Completed path #17/26 on color #1
;Starting path #18/26, segments: 2, length: 124, color #1
G00 X235.739 Y141.584
M106 ;Pump on
G4 P0 ;Pause for 0 milliseconds
G00 X233.85 Y146.033
G00 X231.952 Y150.506
G00 X230.059 Y154.966
G00 X228.16 Y159.438
G00 X226.259 Y163.919
G00 X224.36 Y168.391
G00 X222.467 Y172.851
G00 X220.568 Y177.324
;Nearing path end, moving to preshutoff position
G00 X218.818 Y181.448
M107 ;Pump off
G00 X218.68 Y181.773
G4 P0 ;Pause for 0 milliseconds
;Completed path #18/26 on color #1
;Starting path #19/26, segments: 2, length: 86, color #1
G00 X224.934 Y180.535
M106 ;Pump on
G4 P0 ;Pause for 0 milliseconds
G00 X226.916 Y175.866
G00 X228.901 Y171.191
G00 X230.89 Y166.503
G00 X232.88 Y161.816
G00 X234.864 Y157.141
;Nearing path end, moving to preshutoff position
G00 X236.708 Y152.796
M107 ;Pump off
G00 X236.846 Y152.472
G4 P0 ;Pause for 0 milliseconds
;Completed path #19/26 on color #1
;Starting path #20/26, segments: 2, length: 54, color #1
G00 X237.217 Y165.094
M106 ;Pump on
G4 P0 ;Pause for 0 milliseconds
G00 X235.372 Y169.441
G00 X233.517 Y173.81
G00 X231.663 Y178.18
;Nearing path end, moving to preshutoff position
G00 X229.955 Y182.202
M107 ;Pump off
G00 X229.817 Y182.527
G4 P0 ;Pause for 0 milliseconds
;Completed path #20/26 on color #1
;Starting path #21/26, segments: 2, length: 33, color #1
G00 X233.956 Y186.273
M106 ;Pump on
G4 P0 ;Pause for 0 milliseconds
G00 X235.466 Y182.715
G00 X236.985 Y179.138
;Nearing path end, moving to preshutoff position
G00 X238.357 Y175.906
M107 ;Pump off
G00 X238.495 Y175.581
G4 P0 ;Pause for 0 milliseconds
;Completed path #21/26 on color #1
;Starting path #22/26, segments: 4, length: 217, color #1
G00 X263.023 Y77.305
M106 ;Pump on
G4 P0 ;Pause for 0 milliseconds
G00 X265.017 Y72.609
G00 X267.014 Y67.904
G00 X269.016 Y63.186
G00 X271.011 Y58.487
G00 X271.914 Y57.223
G00 X270.835 Y62.205
G00 X269.752 Y67.208
G00 X268.668 Y72.212
G00 X267.586 Y77.205
G00 X266.504 Y82.203
G00 X267.99 Y79.1
G00 X269.985 Y74.4
G00 X271.986 Y69.686
G00 X273.984 Y64.979
;Nearing path end, moving to preshutoff position
G00 X275.839 Y60.608
M107 ;Pump off
G00 X275.977 Y60.283
G4 P0 ;Pause for 0 milliseconds
;Completed path #22/26 on color #1
;Starting path #23/26, segments: 2, length: 11, color #1
G00 X187.236 Y26.411
M106 ;Pump on
G4 P0 ;Pause for 0 milliseconds
;Nearing path end, moving to preshutoff position
G00 X185.825 Y29.736
M107 ;Pump off
G00 X185.688 Y30.06
G4 P0 ;Pause for 0 milliseconds
;Completed path #23/26 on color #1
;Starting path #24/26, segments: 2, length: 39, color #1
G00 X168.374 Y57.352
M106 ;Pump on
G4 P0 ;Pause for 0 milliseconds
G00 X166.569 Y61.606
G00 X164.753 Y65.884
;Nearing path end, moving to preshutoff position
G00 X163.085 Y69.813
M107 ;Pump off
G00 X162.947 Y70.138
G4 P0 ;Pause for 0 milliseconds
;Completed path #24/26 on color #1
;PancakePainter Footer Start
G4 P1000 ;Pause for 1000 milliseconds
G28 X0 Y0 ;Home All Axis
M84 ;Motors off
;PancakePainter Footer Complete
