;PancakePainter v1.0.0 GCODE header start
;Originally generated @ Thu Jun 30 2016 13:36:17 GMT-0400 (Eastern Daylight Time)
;Settings used to generate this file:
;----------------------------------------
;flattenResolution: 40
;lineEndPreShutoff: 1
;startWait: 0
;endWait: 0
;shadeChangeWait: 35
;fillSpacing: 15
;fillAngle: 23
;fillGroupThreshold: 27
;----------------------------------------
W1 X42 Y210 L485 T0 ;Define Workspace of this file
G21 ;Set units to MM
G1 F5600 ;Set Speed
M107 ;Pump off
G4 P1000 ;Pause for 1000 milliseconds
M84 ;Motors off
G28 X0 Y0 ;Home All Axis
;PancakePainter header complete
;Starting path #1/13, segments: 6, length: 93, color #1
G00 X207.976 Y63.186
M106 ;Pump on
G4 P0 ;Pause for 0 milliseconds
G00 X216.147 Y56.127
G00 X225.016 Y49.774
;Nearing path end, moving to preshutoff position
G00 X232.218 Y42.492
M107 ;Pump off
G00 X232.466 Y42.242
G4 P0 ;Pause for 0 milliseconds
;Completed path #1/13 on color #1
;Starting path #2/13, segments: 52, length: 1319, color #1
G00 X220.221 Y45.464
M106 ;Pump on
G4 P0 ;Pause for 0 milliseconds
G00 X231.405 Y37.656
G00 X244.996 Y34.587
G00 X258.954 Y32.948
G00 X272.881 Y34.869
G00 X285.84 Y40.306
G00 X298.172 Y46.707
G00 X307.696 Y57.08
G00 X313.603 Y69.608
G00 X312.687 Y83.539
G00 X305.776 Y94.049
G00 X292.234 Y90.387
G00 X279.768 Y84.022
G00 X274.947 Y85.226
G00 X274.702 Y99.32
G00 X274.873 Y113.296
G00 X275.713 Y127.336
G00 X275.829 Y141.425
G00 X274.338 Y153.039
G00 X260.477 Y151.239
G00 X246.677 Y150.094
G00 X235.426 Y148.948
G00 X235.216 Y134.97
G00 X234.509 Y120.899
G00 X234.713 Y106.806
G00 X236.856 Y95.635
G00 X238.267 Y81.774
G00 X229.725 Y86.372
G00 X217.515 Y93.217
G00 X203.861 Y93.322
G00 X201.307 Y80.543
G00 X203.81 Y66.686
G00 X209.073 Y53.759
;Nearing path end, moving to preshutoff position
G00 X218.981 Y45.687
M107 ;Pump off
G00 X219.254 Y45.464
G4 P0 ;Pause for 0 milliseconds
;Completed path #2/13 on color #1
;Starting path #3/13, segments: 9, length: 168, color #1
G00 X252.121 Y40.308
M106 ;Pump on
G4 P0 ;Pause for 0 milliseconds
G00 X243.396 Y47.895
G00 X234.446 Y55.424
G00 X225.408 Y62.903
G00 X217.038 Y71.074
;Nearing path end, moving to preshutoff position
G00 X207.943 Y77.483
M107 ;Pump off
G00 X207.654 Y77.686
G4 P0 ;Pause for 0 milliseconds
;Completed path #3/13 on color #1
;Starting path #4/13, segments: 19, length: 139, color #1
G00 X240.521 Y72.853
M106 ;Pump on
G4 P0 ;Pause for 0 milliseconds
G00 X249.664 Y65.064
G00 X258.24 Y56.746
G00 X267.106 Y49.2
;Nearing path end, moving to preshutoff position
G00 X275.385 Y41.515
M107 ;Pump off
G00 X275.644 Y41.275
G4 P0 ;Pause for 0 milliseconds
;Completed path #4/13 on color #1
;Starting path #5/13, segments: 9, length: 198, color #1
G00 X287.244 Y48.686
M106 ;Pump on
G4 P0 ;Pause for 0 milliseconds
G00 X277.66 Y58.833
G00 X269.409 Y70.018
G00 X259.785 Y79.698
G00 X250.393 Y89.848
;Nearing path end, moving to preshutoff position
G00 X241.404 Y99.66
M107 ;Pump off
G00 X241.166 Y99.92
G4 P0 ;Pause for 0 milliseconds
;Completed path #5/13 on color #1
;Starting path #6/13, segments: 15, length: 113, color #1
G00 X240.844 Y124.087
M106 ;Pump on
G4 P0 ;Pause for 0 milliseconds
G00 X249.581 Y114.326
G00 X258.545 Y105.364
;Nearing path end, moving to preshutoff position
G00 X267.647 Y97.255
M107 ;Pump off
G00 X267.91 Y97.02
G4 P0 ;Pause for 0 milliseconds
;Completed path #6/13 on color #1
;Starting path #7/13, segments: 16, length: 95, color #1
G00 X268.555 Y122.153
M106 ;Pump on
G4 P0 ;Pause for 0 milliseconds
G00 X260.374 Y129.03
G00 X251.39 Y134.804
;Nearing path end, moving to preshutoff position
G00 X244.315 Y141.882
M107 ;Pump off
G00 X244.066 Y142.131
G4 P0 ;Pause for 0 milliseconds
;Completed path #7/13 on color #1
;Starting path #8/13, segments: 5, length: 14, color #1
G00 X263.077 Y142.454
M106 ;Pump on
G4 P0 ;Pause for 0 milliseconds
;Nearing path end, moving to preshutoff position
G00 X264.024 Y142.217
M107 ;Pump off
G00 X264.366 Y142.131
G4 P0 ;Pause for 0 milliseconds
;Completed path #8/13 on color #1
;Starting path #9/13, segments: 4, length: 17, color #1
G00 X299.811 Y81.553
M106 ;Pump on
G4 P0 ;Pause for 0 milliseconds
;Nearing path end, moving to preshutoff position
G00 X302.837 Y77.013
M107 ;Pump off
G00 X303.033 Y76.72
G4 P0 ;Pause for 0 milliseconds
;Completed path #9/13 on color #1
;Starting path #10/13, segments: 9, length: 58, color #1
G00 X298.2 Y61.253
M106 ;Pump on
G4 P0 ;Pause for 0 milliseconds
G00 X291.582 Y67.584
;Nearing path end, moving to preshutoff position
G00 X284.911 Y74.532
M107 ;Pump off
G00 X284.666 Y74.786
G4 P0 ;Pause for 0 milliseconds
;Completed path #10/13 on color #1
;PancakePainter Footer Start
G4 P1000 ;Pause for 1000 milliseconds
G28 X0 Y0 ;Home All Axis
M84 ;Motors off
;PancakePainter Footer Complete
