%
(Header)
(Generated by gcodetools from Inkscape.)
(Using default header. To add your own header create file "header" in the output dir.)
M3
(Header end.)
G20 (All units in inches)
(Tool diameter should be at least 0.360722224217 inches)
(Depth, as a function of radius w, must be 10)
(Rapid feeds use safe Z=0.0 inches)
(Material surface at Z=0.0 inches)
(Change tool to Cylindrical cutter)

G00 Z0.000000
G00 X35.727979 Y58.332455

G01 Z0.000000 F100.0(Penetrate)
G01 X35.719174 Y57.934183 Z0.000000 F400.000000
G01 X35.669869 Y57.674962 Z0.000000
G01 X35.573039 Y57.494368 Z0.000000
G01 X35.456001 Y57.342307 Z0.000000
G01 X35.325474 Y57.270199 Z0.000000
G01 X35.084710 Y57.253604 Z0.000000
G01 X34.839826 Y57.269267 Z0.000000
G01 X34.709382 Y57.344028 Z0.000000
G01 X34.593022 Y57.497613 Z0.000000
G01 X34.497236 Y57.679675 Z0.000000
G01 X34.448807 Y57.937937 Z0.000000
G01 X34.441469 Y58.329322 Z0.000000
G01 X34.449766 Y58.723530 Z0.000000
G01 X34.497744 Y58.982272 Z0.000000
G01 X34.595195 Y59.163628 Z0.000000
G01 X34.712684 Y59.318511 Z0.000000
G01 X34.843353 Y59.391409 Z0.000000
G01 X35.084710 Y59.408173 Z0.000000
G01 X35.328691 Y59.390929 Z0.000000
G01 X35.458570 Y59.317269 Z0.000000
G01 X35.574535 Y59.160269 Z0.000000
G01 X35.672127 Y58.975385 Z0.000000
G01 X35.719851 Y58.718366 Z0.000000
G01 X35.727979 Y58.332455 Z0.000000
G00 Z0.000000

G00 Z0.000000
G00 X35.612860 Y57.567492

G01 Z0.000000 F100.0(Penetrate)
G01 X35.663068 Y57.659609 Z0.000000 F400.000000
G01 X35.694282 Y57.780795 Z0.000000
G01 X35.714009 Y57.903026 Z0.000000
G01 X35.724366 Y58.022377 Z0.000000
G01 X35.727979 Y58.168851 Z0.000000
G01 X35.727979 Y58.332455 Z0.000000
G01 X35.727979 Y58.493971 Z0.000000
G01 X35.724366 Y58.640275 Z0.000000
G01 X35.712795 Y58.761320 Z0.000000
G01 X35.692701 Y58.887078 Z0.000000
G01 X35.657480 Y59.009083 Z0.000000
G01 X35.607780 Y59.099422 Z0.000000
G01 X35.557065 Y59.192471 Z0.000000
G01 X35.486707 Y59.289075 Z0.000000
G01 X35.407628 Y59.346028 Z0.000000
G01 X35.321805 Y59.392990 Z0.000000
G01 X35.199151 Y59.408173 Z0.000000
G01 X35.084710 Y59.408173 Z0.000000
G01 X34.971426 Y59.408173 Z0.000000
G01 X34.849365 Y59.393159 Z0.000000
G01 X34.761622 Y59.345971 Z0.000000
G01 X34.761622 Y59.345971 Z0.000000
G01 X34.764275 Y59.340779 Z0.000000
G01 X34.681781 Y59.288031 Z0.000000
G01 X34.610407 Y59.191173 Z0.000000
G01 X34.558027 Y59.096515 Z0.000000
G01 X34.509738 Y59.009704 Z0.000000
G01 X34.475787 Y58.886119 Z0.000000
G01 X34.454310 Y58.752543 Z0.000000
G01 X34.454310 Y58.752543 Z0.000000
G01 X34.457640 Y58.751527 Z0.000000
G01 X34.444771 Y58.623737 Z0.000000
G01 X34.441469 Y58.480227 Z0.000000
G01 X34.441469 Y58.329322 Z0.000000
G01 X34.441469 Y58.164222 Z0.000000
G01 X34.444489 Y58.020430 Z0.000000
G01 X34.453774 Y57.906271 Z0.000000
G01 X34.472542 Y57.787004 Z0.000000
G01 X34.503050 Y57.666298 Z0.000000
G01 X34.553342 Y57.572459 Z0.000000
G01 X34.602985 Y57.478874 Z0.000000
G01 X34.672298 Y57.381931 Z0.000000
G01 X34.749571 Y57.320745 Z0.000000
G01 X34.749571 Y57.320745 Z0.000000
G01 X34.754030 Y57.326361 Z0.000000
G01 X34.837935 Y57.269973 Z0.000000
G01 X34.964935 Y57.253604 Z0.000000
G01 X35.084738 Y57.253604 Z0.000000
G01 X35.198022 Y57.253604 Z0.000000
G01 X35.320083 Y57.268618 Z0.000000
G01 X35.407403 Y57.315439 Z0.000000
G01 X35.488429 Y57.373831 Z0.000000
G01 X35.560875 Y57.471931 Z0.000000
G01 X35.612860 Y57.567492 Z0.000000
G00 Z0.000000

G00 Z0.000000
G00 X33.609958 Y57.291704

G01 Z0.000000 F100.0(Penetrate)
G01 X33.728180 Y57.173481 Z0.000000 F400.000000
G01 X33.609958 Y57.291704 Z0.000000
G01 X33.665696 Y57.235965 Z0.000000
G01 X33.101252 Y57.318148 Z0.000000
G01 X32.592575 Y57.291704 Z0.000000
G01 X32.474324 Y57.173481 Z0.000000
G01 X32.592575 Y57.291704 Z0.000000
G01 X32.592575 Y57.291704 Z0.000000
G01 X32.474324 Y57.409955 Z0.000000
G01 X32.592575 Y57.291704 Z0.000000
G01 X33.074808 Y57.291704 Z0.000000
G01 X33.105937 Y57.621763 Z0.000000
G01 X33.105937 Y58.186207 Z0.000000
G01 X33.105937 Y59.111812 Z0.000000
G01 X32.956585 Y59.069676 Z0.000000
G01 X32.581512 Y59.069676 Z0.000000
G01 X32.474324 Y58.962488 Z0.000000
G01 X32.581512 Y59.069676 Z0.000000
G01 X32.580129 Y59.068265 Z0.000000
G01 X32.474324 Y59.174042 Z0.000000
G01 X32.580129 Y59.068265 Z0.000000
G01 X32.542170 Y59.106195 Z0.000000
G01 X32.621164 Y59.071143 Z0.000000
G01 X32.700807 Y59.076647 Z0.000000
G01 X32.700807 Y59.076647 Z0.000000
G01 X32.784712 Y59.083025 Z0.000000
G01 X32.865512 Y59.094286 Z0.000000
G01 X32.923734 Y59.109018 Z0.000000
G01 X32.923734 Y59.109018 Z0.000000
G01 X32.996519 Y59.127503 Z0.000000
G01 X33.074921 Y59.175735 Z0.000000
G01 X33.096624 Y59.245895 Z0.000000
G01 X33.118637 Y59.316395 Z0.000000
G01 X33.091064 Y59.415821 Z0.000000
G01 X33.130998 Y59.373347 Z0.000000
G01 X33.014158 Y59.497638 Z0.000000
G01 X33.130998 Y59.373347 Z0.000000
G01 X33.126257 Y59.368606 Z0.000000
G01 X33.255261 Y59.497638 Z0.000000
G01 X33.126257 Y59.368606 Z0.000000
G01 X33.113670 Y59.300449 Z0.000000
G01 X33.105937 Y58.736005 Z0.000000
G01 X33.105937 Y58.171560 Z0.000000
G01 X33.137038 Y57.291704 Z0.000000
G01 X33.609958 Y57.291704 Z0.000000
G01 X33.728180 Y57.409955 Z0.000000
G01 X33.609958 Y57.291704 Z0.000000
G01 X33.609958 Y57.291704 Z0.000000
G00 Z0.000000

G00 Z0.000000
G00 X30.578270 Y59.460554

G01 Z0.000000 F100.0(Penetrate)
G01 X30.453556 Y58.896109 Z0.000000 F400.000000
G01 X30.453556 Y57.767220 Z0.000000
G01 X30.453556 Y57.327490 Z0.000000
G01 X30.607565 Y57.173481 Z0.000000
G01 X30.453556 Y57.327490 Z0.000000
G01 X30.453556 Y57.327490 Z0.000000
G01 X30.299547 Y57.173481 Z0.000000
G01 X30.453556 Y57.327490 Z0.000000
G01 X30.450818 Y57.324781 Z0.000000
G01 X30.453556 Y57.889225 Z0.000000
G01 X30.453556 Y58.453669 Z0.000000
G01 X30.358419 Y59.430977 Z0.000000
G01 X30.110176 Y59.052122 Z0.000000
G01 X29.870626 Y58.541045 Z0.000000
G01 X29.580586 Y57.929752 Z0.000000
G01 X29.655488 Y57.811303 Z0.000000
G01 X29.580586 Y57.929752 Z0.000000
G01 X29.556654 Y57.944823 Z0.000000
G01 X29.471931 Y57.811303 Z0.000000
G01 X29.556654 Y57.944823 Z0.000000
G01 X29.513163 Y58.036404 Z0.000000
G01 X29.271045 Y58.546267 Z0.000000
G01 X28.773995 Y59.431287 Z0.000000
G01 X28.688651 Y59.018114 Z0.000000
G01 X28.688651 Y57.889225 Z0.000000
G01 X28.688651 Y57.317386 Z0.000000
G01 X28.832556 Y57.173481 Z0.000000
G01 X28.688651 Y57.317386 Z0.000000
G01 X28.688651 Y57.317386 Z0.000000
G01 X28.544746 Y57.173481 Z0.000000
G01 X28.688651 Y57.317386 Z0.000000
G01 X28.574041 Y57.202776 Z0.000000
G01 X28.688651 Y57.767220 Z0.000000
G01 X28.688651 Y58.896109 Z0.000000
G01 X28.688651 Y59.345943 Z0.000000
G01 X28.544746 Y59.489848 Z0.000000
G01 X28.688651 Y59.345943 Z0.000000
G01 X28.883949 Y59.361522 Z0.000000
G01 X28.964777 Y59.489848 Z0.000000
G01 X28.883949 Y59.361522 Z0.000000
G01 X28.913836 Y59.298586 Z0.000000
G01 X29.155955 Y58.788695 Z0.000000
G01 X29.584114 Y57.929752 Z0.000000
G01 X29.750004 Y58.283687 Z0.000000
G01 X29.989554 Y58.794763 Z0.000000
G01 X30.257948 Y59.367420 Z0.000000
G01 X30.179744 Y59.489848 Z0.000000
G01 X30.257948 Y59.367420 Z0.000000
G01 X30.453556 Y59.335840 Z0.000000
G01 X30.607565 Y59.489848 Z0.000000
G01 X30.453556 Y59.335840 Z0.000000
G01 X30.578270 Y59.460554 Z0.000000
G00 Z0.000000

G00 Z0.000000
G00 X27.248330 Y59.342557

G01 Z0.000000 F100.0(Penetrate)
G01 X27.631221 Y58.280554 Z0.000000 F400.000000
G01 X27.822567 Y57.749553 Z0.000000
G01 X27.973754 Y57.327123 Z0.000000
G01 X28.193182 Y57.173481 Z0.000000
G01 X27.973754 Y57.327123 Z0.000000
G01 X27.973754 Y57.327123 Z0.000000
G01 X27.864929 Y57.173481 Z0.000000
G01 X27.973754 Y57.327123 Z0.000000
G01 X27.924901 Y57.258148 Z0.000000
G01 X27.744025 Y57.969037 Z0.000000
G01 X27.744025 Y57.969037 Z0.000000
G01 X27.731466 Y57.951314 Z0.000000
G01 X27.419103 Y57.951314 Z0.000000
G01 X26.542323 Y57.951314 Z0.000000
G01 X26.480657 Y57.810146 Z0.000000
G01 X26.305200 Y57.319842 Z0.000000
G01 X26.408860 Y57.173481 Z0.000000
G01 X26.305200 Y57.319842 Z0.000000
G01 X26.305200 Y57.319842 Z0.000000
G01 X26.096158 Y57.173481 Z0.000000
G01 X26.305200 Y57.319842 Z0.000000
G01 X26.199790 Y57.246041 Z0.000000
G01 X26.459886 Y57.752065 Z0.000000
G01 X26.650640 Y58.283292 Z0.000000
G01 X26.842410 Y58.814152 Z0.000000
G01 X27.036381 Y59.351221 Z0.000000
G01 X26.939325 Y59.489848 Z0.000000
G01 X27.036381 Y59.351221 Z0.000000
G01 X27.247850 Y59.343939 Z0.000000
G01 X27.350015 Y59.489848 Z0.000000
G01 X27.247850 Y59.343939 Z0.000000
G01 X27.248330 Y59.342557 Z0.000000
G00 Z0.000000

G00 Z0.000000
G00 X26.853896 Y57.951314

G01 Z0.000000 F100.0(Penetrate)
G01 X27.730535 Y57.951314 Z0.000000 F400.000000
G01 X27.670732 Y58.170911 Z0.000000
G01 X27.479301 Y58.701912 Z0.000000
G01 X27.137021 Y59.422030 Z0.000000
G01 X26.992749 Y59.230345 Z0.000000
G01 X26.800979 Y58.699485 Z0.000000
G01 X26.527083 Y57.941210 Z0.000000
G01 X26.527083 Y57.941210 Z0.000000
G01 X26.853896 Y57.951314 Z0.000000
G00 Z0.000000

G00 Z0.000000
G00 X25.739909 Y57.310387

G01 Z0.000000 F100.0(Penetrate)
G01 X25.876815 Y57.173481 Z0.000000 F400.000000
G01 X25.739909 Y57.310387 Z0.000000
G01 X25.678215 Y57.310387 Z0.000000
G01 X25.113770 Y57.310387 Z0.000000
G01 X24.504735 Y57.327490 Z0.000000
G01 X24.350726 Y57.173481 Z0.000000
G01 X24.504735 Y57.327490 Z0.000000
G01 X24.380021 Y57.202776 Z0.000000
G01 X24.504735 Y57.767220 Z0.000000
G01 X24.504735 Y58.331665 Z0.000000
G01 X24.504735 Y58.896109 Z0.000000
G01 X24.504735 Y59.335840 Z0.000000
G01 X24.350726 Y59.489848 Z0.000000
G01 X24.504735 Y59.335840 Z0.000000
G01 X24.549326 Y59.352942 Z0.000000
G01 X25.113770 Y59.352942 Z0.000000
G01 X25.739909 Y59.352942 Z0.000000
G01 X25.876815 Y59.489848 Z0.000000
G01 X25.739909 Y59.352942 Z0.000000
G01 X25.739909 Y59.352942 Z0.000000
G01 X25.876815 Y59.216065 Z0.000000
G01 X25.739909 Y59.352942 Z0.000000
G01 X25.832223 Y59.260656 Z0.000000
G01 X25.267779 Y59.352942 Z0.000000
G01 X24.521837 Y59.352942 Z0.000000
G01 X24.504735 Y59.180928 Z0.000000
G01 X24.521837 Y58.444441 Z0.000000
G01 X24.703335 Y58.444441 Z0.000000
G01 X25.267779 Y58.444441 Z0.000000
G01 X25.739909 Y58.444441 Z0.000000
G01 X25.876815 Y58.581347 Z0.000000
G01 X25.739909 Y58.444441 Z0.000000
G01 X25.739909 Y58.444441 Z0.000000
G01 X25.876815 Y58.307563 Z0.000000
G01 X25.739909 Y58.444441 Z0.000000
G01 X25.832223 Y58.352154 Z0.000000
G01 X25.267779 Y58.444441 Z0.000000
G01 X24.521837 Y58.444441 Z0.000000
G01 X24.504735 Y58.159650 Z0.000000
G01 X24.521837 Y57.310387 Z0.000000
G01 X24.703335 Y57.310387 Z0.000000
G01 X25.267779 Y57.310387 Z0.000000
G01 X25.739909 Y57.310387 Z0.000000
G01 X25.876815 Y57.447265 Z0.000000
G01 X25.739909 Y57.310387 Z0.000000
G01 X25.739909 Y57.310387 Z0.000000
G00 Z0.000000

G00 Z0.000000
G00 X23.899594 Y59.352942

G01 Z0.000000 F100.0(Penetrate)
G01 X24.036472 Y59.216065 Z0.000000 F400.000000
G01 X23.899594 Y59.352942 Z0.000000
G01 X23.904900 Y59.347637 Z0.000000
G01 X23.071977 Y59.352942 Z0.000000
G01 X23.071977 Y59.352942 Z0.000000
G01 X23.054875 Y59.041425 Z0.000000
G01 X23.054875 Y57.912537 Z0.000000
G01 X23.054875 Y57.327490 Z0.000000
G01 X23.208883 Y57.173481 Z0.000000
G01 X23.054875 Y57.327490 Z0.000000
G01 X23.054875 Y57.327490 Z0.000000
G01 X22.900866 Y57.173481 Z0.000000
G01 X23.054875 Y57.327490 Z0.000000
G01 X23.054875 Y57.348092 Z0.000000
G01 X23.054875 Y58.476981 Z0.000000
G01 X23.037744 Y59.352942 Z0.000000
G01 X22.769266 Y59.352942 Z0.000000
G01 X22.210155 Y59.352942 Z0.000000
G01 X22.073249 Y59.216065 Z0.000000
G01 X22.210155 Y59.352942 Z0.000000
G01 X22.210155 Y59.352942 Z0.000000
G01 X22.073249 Y59.489848 Z0.000000
G01 X22.210155 Y59.352942 Z0.000000
G01 X22.208208 Y59.354890 Z0.000000
G01 X22.772652 Y59.352942 Z0.000000
G01 X23.337097 Y59.352942 Z0.000000
G01 X23.899594 Y59.352942 Z0.000000
G01 X24.036472 Y59.489848 Z0.000000
G01 X23.899594 Y59.352942 Z0.000000
G01 X23.899594 Y59.352942 Z0.000000
G00 Z0.000000

G00 Z0.000000
G00 X20.064899 Y65.256664

G01 Z0.000000 F100.0(Penetrate)
G01 X20.183122 Y65.138413 Z0.000000 F400.000000
G01 X20.064899 Y65.256664 Z0.000000
G01 X20.008003 Y65.256664 Z0.000000
G01 X19.386635 Y65.256664 Z0.000000
G01 X19.268412 Y65.138413 Z0.000000
G01 X19.386635 Y65.256664 Z0.000000
G01 X19.386635 Y65.256664 Z0.000000
G01 X19.268412 Y65.374887 Z0.000000
G01 X19.386635 Y65.256664 Z0.000000
G01 X19.689995 Y65.256664 Z0.000000
G01 X19.725781 Y65.449930 Z0.000000
G01 X19.725781 Y66.578819 Z0.000000
G01 X19.689995 Y67.336558 Z0.000000
G01 X19.386635 Y67.336558 Z0.000000
G01 X19.268412 Y67.218335 Z0.000000
G01 X19.386635 Y67.336558 Z0.000000
G01 X19.386635 Y67.336558 Z0.000000
G01 X19.268412 Y67.454780 Z0.000000
G01 X19.386635 Y67.336558 Z0.000000
G01 X19.443559 Y67.336558 Z0.000000
G01 X20.064899 Y67.336558 Z0.000000
G01 X20.183122 Y67.454780 Z0.000000
G01 X20.064899 Y67.336558 Z0.000000
G01 X20.064899 Y67.336558 Z0.000000
G01 X20.183122 Y67.218335 Z0.000000
G01 X20.064899 Y67.336558 Z0.000000
G01 X19.761539 Y67.336558 Z0.000000
G01 X19.725781 Y67.143264 Z0.000000
G01 X19.725781 Y66.014375 Z0.000000
G01 X19.761539 Y65.256664 Z0.000000
G01 X20.064899 Y65.256664 Z0.000000
G01 X20.183122 Y65.374887 Z0.000000
G01 X20.064899 Y65.256664 Z0.000000
G01 X20.064899 Y65.256664 Z0.000000
G00 Z0.000000

G00 Z0.000000
G00 X18.915267 Y67.317903

G01 Z0.000000 F100.0(Penetrate)
G01 X19.052173 Y67.180997 Z0.000000 F400.000000
G01 X18.915267 Y67.317903 Z0.000000
G01 X18.920601 Y67.312569 Z0.000000
G01 X18.087679 Y67.317903 Z0.000000
G01 X18.087679 Y67.317903 Z0.000000
G01 X18.070548 Y67.006386 Z0.000000
G01 X18.070548 Y65.877497 Z0.000000
G01 X18.070548 Y65.292422 Z0.000000
G01 X18.224557 Y65.138413 Z0.000000
G01 X18.070548 Y65.292422 Z0.000000
G01 X18.070548 Y65.292422 Z0.000000
G01 X17.916539 Y65.138413 Z0.000000
G01 X18.070548 Y65.292422 Z0.000000
G01 X18.070548 Y65.313052 Z0.000000
G01 X18.070548 Y66.441941 Z0.000000
G01 X18.053445 Y67.317903 Z0.000000
G01 X17.784967 Y67.317903 Z0.000000
G01 X17.225829 Y67.317903 Z0.000000
G01 X17.088951 Y67.180997 Z0.000000
G01 X17.225829 Y67.317903 Z0.000000
G01 X17.225829 Y67.317903 Z0.000000
G01 X17.088951 Y67.454780 Z0.000000
G01 X17.225829 Y67.317903 Z0.000000
G01 X17.223881 Y67.319850 Z0.000000
G01 X17.788326 Y67.317903 Z0.000000
G01 X18.352770 Y67.317903 Z0.000000
G01 X18.915267 Y67.317903 Z0.000000
G01 X19.052173 Y67.454780 Z0.000000
G01 X18.915267 Y67.317903 Z0.000000
G01 X18.915267 Y67.317903 Z0.000000
G00 Z0.000000

G00 Z0.000000
G00 X16.290318 Y67.307489

G01 Z0.000000 F100.0(Penetrate)
G01 X16.673209 Y66.245515 Z0.000000 F400.000000
G01 X16.864556 Y65.714485 Z0.000000
G01 X17.015742 Y65.292055 Z0.000000
G01 X17.235170 Y65.138413 Z0.000000
G01 X17.015742 Y65.292055 Z0.000000
G01 X17.015742 Y65.292055 Z0.000000
G01 X16.906917 Y65.138413 Z0.000000
G01 X17.015742 Y65.292055 Z0.000000
G01 X16.966890 Y65.223080 Z0.000000
G01 X16.786013 Y65.933969 Z0.000000
G01 X16.786013 Y65.933969 Z0.000000
G01 X16.773455 Y65.916246 Z0.000000
G01 X16.461091 Y65.916246 Z0.000000
G01 X15.584311 Y65.916246 Z0.000000
G01 X15.522646 Y65.775078 Z0.000000
G01 X15.347188 Y65.284774 Z0.000000
G01 X15.450848 Y65.138413 Z0.000000
G01 X15.347188 Y65.284774 Z0.000000
G01 X15.347188 Y65.284774 Z0.000000
G01 X15.138146 Y65.138413 Z0.000000
G01 X15.347188 Y65.284774 Z0.000000
G01 X15.241778 Y65.210973 Z0.000000
G01 X15.501874 Y65.716997 Z0.000000
G01 X15.692628 Y66.248224 Z0.000000
G01 X15.884398 Y66.779112 Z0.000000
G01 X16.078369 Y67.316153 Z0.000000
G01 X15.981313 Y67.454780 Z0.000000
G01 X16.078369 Y67.316153 Z0.000000
G01 X16.289839 Y67.308872 Z0.000000
G01 X16.392003 Y67.454780 Z0.000000
G01 X16.289839 Y67.308872 Z0.000000
G01 X16.290318 Y67.307489 Z0.000000
G00 Z0.000000

G00 Z0.000000
G00 X15.895885 Y65.916246

G01 Z0.000000 F100.0(Penetrate)
G01 X16.772523 Y65.916246 Z0.000000 F400.000000
G01 X16.712720 Y66.135843 Z0.000000
G01 X16.521289 Y66.666844 Z0.000000
G01 X16.179010 Y67.386991 Z0.000000
G01 X16.034738 Y67.195305 Z0.000000
G01 X15.842968 Y66.664417 Z0.000000
G01 X15.569071 Y65.906142 Z0.000000
G01 X15.569071 Y65.906142 Z0.000000
G01 X15.895885 Y65.916246 Z0.000000
G00 Z0.000000

G00 Z0.000000
G00 X14.550898 Y66.802960

G01 Z0.000000 F100.0(Penetrate)
G01 X14.550898 Y66.885566 Z0.000000 F400.000000
G01 X14.535319 Y66.980054 Z0.000000
G01 X14.501650 Y67.045840 Z0.000000
G01 X14.465554 Y67.116368 Z0.000000
G01 X14.391301 Y67.187742 Z0.000000
G01 X14.320915 Y67.232813 Z0.000000
G01 X14.260943 Y67.266256 Z0.000000
G01 X14.179014 Y67.291233 Z0.000000
G01 X14.106342 Y67.305231 Z0.000000
G01 X14.038213 Y67.316407 Z0.000000
G01 X13.952728 Y67.322559 Z0.000000
G01 X13.864082 Y67.322559 Z0.000000
G01 X13.369375 Y67.322559 Z0.000000
G01 X13.347587 Y67.035398 Z0.000000
G01 X13.373269 Y66.187715 Z0.000000
G01 X13.812746 Y66.187715 Z0.000000
G01 X13.916463 Y66.187715 Z0.000000
G01 X14.018204 Y66.183087 Z0.000000
G01 X14.095391 Y66.224179 Z0.000000
G01 X14.094799 Y66.230077 Z0.000000
G01 X14.180877 Y66.250990 Z0.000000
G01 X14.271413 Y66.291968 Z0.000000
G01 X14.342844 Y66.340313 Z0.000000
G01 X14.342844 Y66.340313 Z0.000000
G01 X14.404086 Y66.390972 Z0.000000
G01 X14.457567 Y66.465281 Z0.000000
G01 X14.494510 Y66.531970 Z0.000000
G01 X14.530973 Y66.601764 Z0.000000
G01 X14.550898 Y66.703194 Z0.000000
G01 X14.550898 Y66.802960 Z0.000000
G00 Z0.000000

G00 Z0.000000
G00 X14.195637 Y65.977347

G01 Z0.000000 F100.0(Penetrate)
G01 X14.561369 Y65.547438 Z0.000000 F400.000000
G01 X14.780712 Y65.289571 Z0.000000
G01 X15.110150 Y65.138413 Z0.000000
G01 X14.780712 Y65.289571 Z0.000000
G01 X14.780712 Y65.289571 Z0.000000
G01 X14.710354 Y65.138413 Z0.000000
G01 X14.780712 Y65.289571 Z0.000000
G01 X14.747635 Y65.218508 Z0.000000
G01 X14.436429 Y65.694306 Z0.000000
G01 X13.997206 Y66.191638 Z0.000000
G01 X13.935625 Y66.187715 Z0.000000
G01 X13.373269 Y66.187715 Z0.000000
G01 X13.347587 Y65.881109 Z0.000000
G01 X13.347587 Y65.292422 Z0.000000
G01 X13.501596 Y65.138413 Z0.000000
G01 X13.347587 Y65.292422 Z0.000000
G01 X13.347587 Y65.292422 Z0.000000
G01 X13.193579 Y65.138413 Z0.000000
G01 X13.347587 Y65.292422 Z0.000000
G01 X13.222873 Y65.167708 Z0.000000
G01 X13.347587 Y65.732152 Z0.000000
G01 X13.347587 Y66.296597 Z0.000000
G01 X13.347587 Y66.861041 Z0.000000
G01 X13.347587 Y67.300772 Z0.000000
G01 X13.193579 Y67.454780 Z0.000000
G01 X13.347587 Y67.300772 Z0.000000
G01 X13.235714 Y67.412645 Z0.000000
G01 X13.842295 Y67.322559 Z0.000000
G01 X13.976971 Y67.321515 Z0.000000
G01 X14.080151 Y67.310508 Z0.000000
G01 X14.166427 Y67.293603 Z0.000000
G01 X14.246719 Y67.271759 Z0.000000
G01 X14.303474 Y67.244130 Z0.000000
G01 X14.365337 Y67.204421 Z0.000000
G01 X14.429571 Y67.155173 Z0.000000
G01 X14.466852 Y67.114449 Z0.000000
G01 X14.500691 Y67.047675 Z0.000000
G01 X14.500691 Y67.047675 Z0.000000
G01 X14.532921 Y66.987025 Z0.000000
G01 X14.546524 Y66.929029 Z0.000000
G01 X14.550898 Y66.824747 Z0.000000
G01 X14.549205 Y66.681661 Z0.000000
G01 X14.526740 Y66.589628 Z0.000000
G01 X14.471396 Y66.490201 Z0.000000
G01 X14.404453 Y66.391339 Z0.000000
G01 X14.322947 Y66.323972 Z0.000000
G01 X14.028815 Y66.203802 Z0.000000
G01 X14.195637 Y65.977347 Z0.000000
G00 Z0.000000

G00 Z0.000000
G00 X12.566650 Y65.275319

G01 Z0.000000 F100.0(Penetrate)
G01 X12.703556 Y65.138413 Z0.000000 F400.000000
G01 X12.566650 Y65.275319 Z0.000000
G01 X12.504956 Y65.275319 Z0.000000
G01 X11.940512 Y65.275319 Z0.000000
G01 X11.331476 Y65.292422 Z0.000000
G01 X11.177468 Y65.138413 Z0.000000
G01 X11.331476 Y65.292422 Z0.000000
G01 X11.206762 Y65.167708 Z0.000000
G01 X11.331476 Y65.732152 Z0.000000
G01 X11.331476 Y66.296597 Z0.000000
G01 X11.331476 Y66.861041 Z0.000000
G01 X11.331476 Y67.300772 Z0.000000
G01 X11.177468 Y67.454780 Z0.000000
G01 X11.331476 Y67.300772 Z0.000000
G01 X11.376067 Y67.317903 Z0.000000
G01 X11.940512 Y67.317903 Z0.000000
G01 X12.566650 Y67.317903 Z0.000000
G01 X12.703556 Y67.454780 Z0.000000
G01 X12.566650 Y67.317903 Z0.000000
G01 X12.566650 Y67.317903 Z0.000000
G01 X12.703556 Y67.180997 Z0.000000
G01 X12.566650 Y67.317903 Z0.000000
G01 X12.658965 Y67.225588 Z0.000000
G01 X12.094521 Y67.317903 Z0.000000
G01 X11.348579 Y67.317903 Z0.000000
G01 X11.331476 Y67.145860 Z0.000000
G01 X11.348579 Y66.409401 Z0.000000
G01 X11.530076 Y66.409401 Z0.000000
G01 X12.094521 Y66.409401 Z0.000000
G01 X12.566650 Y66.409401 Z0.000000
G01 X12.703556 Y66.546279 Z0.000000
G01 X12.566650 Y66.409401 Z0.000000
G01 X12.566650 Y66.409401 Z0.000000
G01 X12.703556 Y66.272495 Z0.000000
G01 X12.566650 Y66.409401 Z0.000000
G01 X12.658965 Y66.317086 Z0.000000
G01 X12.094521 Y66.409401 Z0.000000
G01 X11.348579 Y66.409401 Z0.000000
G01 X11.331476 Y66.124582 Z0.000000
G01 X11.348579 Y65.275319 Z0.000000
G01 X11.530076 Y65.275319 Z0.000000
G01 X12.094521 Y65.275319 Z0.000000
G01 X12.566650 Y65.275319 Z0.000000
G01 X12.703556 Y65.412225 Z0.000000
G01 X12.566650 Y65.275319 Z0.000000
G01 X12.566650 Y65.275319 Z0.000000
G00 Z0.000000

G00 Z0.000000
G00 X10.609637 Y66.746967

G01 Z0.000000 F100.0(Penetrate)
G01 X10.609637 Y66.842810 Z0.000000 F400.000000
G01 X10.590135 Y66.947684 Z0.000000
G01 X10.551273 Y67.023573 Z0.000000
G01 X10.509758 Y67.100394 Z0.000000
G01 X10.433417 Y67.174167 Z0.000000
G01 X10.359701 Y67.222907 Z0.000000
G01 X10.359701 Y67.222907 Z0.000000
G01 X10.356568 Y67.218899 Z0.000000
G01 X10.295297 Y67.258467 Z0.000000
G01 X10.212409 Y67.285334 Z0.000000
G01 X10.138100 Y67.302268 Z0.000000
G01 X10.066556 Y67.315645 Z0.000000
G01 X9.971052 Y67.322559 Z0.000000
G01 X9.867590 Y67.322559 Z0.000000
G01 X9.430456 Y67.322559 Z0.000000
G01 X9.408696 Y67.009744 Z0.000000
G01 X9.431246 Y66.133247 Z0.000000
G01 X9.822491 Y66.133247 Z0.000000
G01 X9.954006 Y66.133247 Z0.000000
G01 X10.073584 Y66.143040 Z0.000000
G01 X10.163895 Y66.164658 Z0.000000
G01 X10.163895 Y66.164658 Z0.000000
G01 X10.163838 Y66.167875 Z0.000000
G01 X10.256520 Y66.195081 Z0.000000
G01 X10.352730 Y66.243087 Z0.000000
G01 X10.419616 Y66.301818 Z0.000000
G01 X10.419616 Y66.301818 Z0.000000
G01 X10.479335 Y66.362157 Z0.000000
G01 X10.535751 Y66.438667 Z0.000000
G01 X10.564029 Y66.508235 Z0.000000
G01 X10.590643 Y66.575884 Z0.000000
G01 X10.609467 Y66.665151 Z0.000000
G01 X10.609637 Y66.746967 Z0.000000
G00 Z0.000000

G00 Z0.000000
G00 X10.609637 Y66.754756

G01 Z0.000000 F100.0(Penetrate)
G01 X10.609637 Y66.667183 Z0.000000 F400.000000
G01 X10.598207 Y66.602356 Z0.000000
G01 X10.571452 Y66.527285 Z0.000000
G01 X10.572609 Y66.526297 Z0.000000
G01 X10.543060 Y66.453315 Z0.000000
G01 X10.511875 Y66.402204 Z0.000000
G01 X10.462401 Y66.345054 Z0.000000
G01 X10.394103 Y66.276305 Z0.000000
G01 X10.328600 Y66.228581 Z0.000000
G01 X10.236228 Y66.188336 Z0.000000
G01 X10.140188 Y66.157066 Z0.000000
G01 X10.026989 Y66.137169 Z0.000000
G01 X9.870722 Y66.133247 Z0.000000
G01 X9.431246 Y66.133247 Z0.000000
G01 X9.408696 Y65.852323 Z0.000000
G01 X9.408696 Y65.292422 Z0.000000
G01 X9.562705 Y65.138413 Z0.000000
G01 X9.408696 Y65.292422 Z0.000000
G01 X9.408696 Y65.292422 Z0.000000
G01 X9.254688 Y65.138413 Z0.000000
G01 X9.408696 Y65.292422 Z0.000000
G01 X9.283954 Y65.167708 Z0.000000
G01 X9.408696 Y65.732152 Z0.000000
G01 X9.408696 Y66.296597 Z0.000000
G01 X9.408696 Y66.861041 Z0.000000
G01 X9.408696 Y67.300772 Z0.000000
G01 X9.254688 Y67.454780 Z0.000000
G01 X9.408696 Y67.300772 Z0.000000
G01 X9.286692 Y67.422776 Z0.000000
G01 X9.883168 Y67.322559 Z0.000000
G01 X10.015333 Y67.320556 Z0.000000
G01 X10.116369 Y67.307460 Z0.000000
G01 X10.204394 Y67.287112 Z0.000000
G01 X10.288524 Y67.261261 Z0.000000
G01 X10.348412 Y67.230301 Z0.000000
G01 X10.411686 Y67.188560 Z0.000000
G01 X10.480209 Y67.133160 Z0.000000
G01 X10.520059 Y67.085154 Z0.000000
G01 X10.556805 Y67.012651 Z0.000000
G01 X10.556805 Y67.012651 Z0.000000
G01 X10.591772 Y66.943168 Z0.000000
G01 X10.606730 Y66.871935 Z0.000000
G01 X10.609637 Y66.754756 Z0.000000
G00 Z0.000000

G00 Z0.000000
G00 X8.605972 Y66.295835

G01 Z0.000000 F100.0(Penetrate)
G01 X8.595360 Y66.617907 Z0.000000 F400.000000
G01 X8.508407 Y66.897307 Z0.000000
G01 X8.360495 Y67.087779 Z0.000000
G01 X8.188762 Y67.260301 Z0.000000
G01 X7.950764 Y67.360180 Z0.000000
G01 X7.691233 Y67.370001 Z0.000000
G01 X7.429839 Y67.359869 Z0.000000
G01 X7.190458 Y67.260724 Z0.000000
G01 X7.019121 Y67.087186 Z0.000000
G01 X7.019121 Y67.087186 Z0.000000
G01 X7.024850 Y67.082445 Z0.000000
G01 X6.872224 Y66.896714 Z0.000000
G01 X6.785582 Y66.617737 Z0.000000
G01 X6.774970 Y66.295835 Z0.000000
G01 X6.785497 Y65.970404 Z0.000000
G01 X6.874369 Y65.689480 Z0.000000
G01 X7.025188 Y65.499432 Z0.000000
G01 X7.025188 Y65.499432 Z0.000000
G01 X7.041896 Y65.513345 Z0.000000
G01 X7.198134 Y65.329873 Z0.000000
G01 X7.435116 Y65.232563 Z0.000000
G01 X7.691233 Y65.223193 Z0.000000
G01 X7.947491 Y65.232280 Z0.000000
G01 X8.184303 Y65.329760 Z0.000000
G01 X8.355471 Y65.499996 Z0.000000
G01 X8.505952 Y65.689819 Z0.000000
G01 X8.594937 Y65.970489 Z0.000000
G01 X8.605972 Y66.295835 Z0.000000
G00 Z0.000000

G00 Z0.000000
G00 X8.361708 Y67.086396

G01 Z0.000000 F100.0(Penetrate)
G01 X8.442142 Y66.993742 Z0.000000 F400.000000
G01 X8.507448 Y66.899085 Z0.000000
G01 X8.550769 Y66.761078 Z0.000000
G01 X8.550769 Y66.761078 Z0.000000
G01 X8.594485 Y66.621943 Z0.000000
G01 X8.605972 Y66.474792 Z0.000000
G01 X8.605972 Y66.295835 Z0.000000
G01 X8.605972 Y66.117075 Z0.000000
G01 X8.594711 Y65.969529 Z0.000000
G01 X8.550176 Y65.829491 Z0.000000
G01 X8.552829 Y65.828277 Z0.000000
G01 X8.506432 Y65.690976 Z0.000000
G01 X8.441408 Y65.597532 Z0.000000
G01 X8.362357 Y65.507814 Z0.000000
G01 X8.363881 Y65.506064 Z0.000000
G01 X8.279666 Y65.413608 Z0.000000
G01 X8.200672 Y65.341613 Z0.000000
G01 X8.086288 Y65.288414 Z0.000000
G01 X8.086767 Y65.286806 Z0.000000
G01 X7.969532 Y65.238969 Z0.000000
G01 X7.844903 Y65.223193 Z0.000000
G01 X7.689681 Y65.223193 Z0.000000
G01 X7.538861 Y65.223193 Z0.000000
G01 X7.413808 Y65.239054 Z0.000000
G01 X7.292848 Y65.289910 Z0.000000
G01 X7.176996 Y65.345141 Z0.000000
G01 X7.098143 Y65.416515 Z0.000000
G01 X7.017738 Y65.507899 Z0.000000
G01 X6.937333 Y65.599593 Z0.000000
G01 X6.872337 Y65.694278 Z0.000000
G01 X6.828988 Y65.831015 Z0.000000
G01 X6.786005 Y65.968147 Z0.000000
G01 X6.774970 Y66.115579 Z0.000000
G01 X6.774970 Y66.295835 Z0.000000
G01 X6.774970 Y66.472845 Z0.000000
G01 X6.785808 Y66.618782 Z0.000000
G01 X6.828677 Y66.756704 Z0.000000
G01 X6.826052 Y66.757720 Z0.000000
G01 X6.871434 Y66.894795 Z0.000000
G01 X6.937502 Y66.991908 Z0.000000
G01 X7.019770 Y67.087948 Z0.000000
G01 X7.097212 Y67.178033 Z0.000000
G01 X7.175077 Y67.249464 Z0.000000
G01 X7.293356 Y67.304074 Z0.000000
G01 X7.416659 Y67.355805 Z0.000000
G01 X7.542022 Y67.370001 Z0.000000
G01 X7.689681 Y67.370001 Z0.000000
G01 X7.843435 Y67.370001 Z0.000000
G01 X7.968516 Y67.354676 Z0.000000
G01 X8.087840 Y67.303227 Z0.000000
G01 X8.087840 Y67.303227 Z0.000000
G01 X8.205160 Y67.248222 Z0.000000
G01 X8.283420 Y67.176481 Z0.000000
G01 X8.361708 Y67.086396 Z0.000000
G00 Z0.000000

G00 Z0.000000
G00 X22.325245 Y67.086396

G01 Z0.000000 F100.0(Penetrate)
G01 X22.405679 Y66.993742 Z0.000000 F400.000000
G01 X22.470985 Y66.899085 Z0.000000
G01 X22.514306 Y66.761078 Z0.000000
G01 X22.514306 Y66.761078 Z0.000000
G01 X22.558022 Y66.621943 Z0.000000
G01 X22.569509 Y66.474792 Z0.000000
G01 X22.569509 Y66.295835 Z0.000000
G01 X22.569509 Y66.117075 Z0.000000
G01 X22.558248 Y65.969529 Z0.000000
G01 X22.513713 Y65.829491 Z0.000000
G01 X22.516366 Y65.828277 Z0.000000
G01 X22.469969 Y65.690976 Z0.000000
G01 X22.404917 Y65.597532 Z0.000000
G01 X22.325866 Y65.507814 Z0.000000
G01 X22.327419 Y65.506064 Z0.000000
G01 X22.243203 Y65.413608 Z0.000000
G01 X22.164209 Y65.341613 Z0.000000
G01 X22.049825 Y65.288414 Z0.000000
G01 X22.050276 Y65.286806 Z0.000000
G01 X21.933069 Y65.238969 Z0.000000
G01 X21.808440 Y65.223193 Z0.000000
G01 X21.653218 Y65.223193 Z0.000000
G01 X21.502398 Y65.223193 Z0.000000
G01 X21.377346 Y65.239054 Z0.000000
G01 X21.256385 Y65.289910 Z0.000000
G01 X21.140533 Y65.345141 Z0.000000
G01 X21.061680 Y65.416515 Z0.000000
G01 X20.981275 Y65.507899 Z0.000000
G01 X20.900870 Y65.599593 Z0.000000
G01 X20.835874 Y65.694278 Z0.000000
G01 X20.792525 Y65.831015 Z0.000000
G01 X20.749514 Y65.968147 Z0.000000
G01 X20.738507 Y66.115579 Z0.000000
G01 X20.738507 Y66.295835 Z0.000000
G01 X20.738507 Y66.472845 Z0.000000
G01 X20.749345 Y66.618782 Z0.000000
G01 X20.792214 Y66.756704 Z0.000000
G01 X20.789590 Y66.757720 Z0.000000
G01 X20.834971 Y66.894795 Z0.000000
G01 X20.901039 Y66.991908 Z0.000000
G01 X20.983307 Y67.087948 Z0.000000
G01 X21.060749 Y67.178033 Z0.000000
G01 X21.138586 Y67.249464 Z0.000000
G01 X21.256893 Y67.304074 Z0.000000
G01 X21.380196 Y67.355805 Z0.000000
G01 X21.505531 Y67.370001 Z0.000000
G01 X21.653218 Y67.370001 Z0.000000
G01 X21.806973 Y67.370001 Z0.000000
G01 X21.932053 Y67.354676 Z0.000000
G01 X22.051377 Y67.303227 Z0.000000
G01 X22.051377 Y67.303227 Z0.000000
G01 X22.168697 Y67.248222 Z0.000000
G01 X22.246957 Y67.176481 Z0.000000
G01 X22.325245 Y67.086396 Z0.000000
G00 Z0.000000

G00 Z0.000000
G00 X22.569509 Y66.295835

G01 Z0.000000 F100.0(Penetrate)
G01 X22.558897 Y66.617907 Z0.000000 F400.000000
G01 X22.471945 Y66.897307 Z0.000000
G01 X22.324032 Y67.087779 Z0.000000
G01 X22.152300 Y67.260301 Z0.000000
G01 X21.914302 Y67.360180 Z0.000000
G01 X21.654770 Y67.370001 Z0.000000
G01 X21.393376 Y67.359869 Z0.000000
G01 X21.153995 Y67.260724 Z0.000000
G01 X20.982658 Y67.087186 Z0.000000
G01 X20.982658 Y67.087186 Z0.000000
G01 X20.988359 Y67.082445 Z0.000000
G01 X20.835761 Y66.896714 Z0.000000
G01 X20.749119 Y66.617737 Z0.000000
G01 X20.738507 Y66.295835 Z0.000000
G01 X20.749034 Y65.970404 Z0.000000
G01 X20.837906 Y65.689480 Z0.000000
G01 X20.988726 Y65.499432 Z0.000000
G01 X20.988726 Y65.499432 Z0.000000
G01 X21.005433 Y65.513345 Z0.000000
G01 X21.161671 Y65.329873 Z0.000000
G01 X21.398653 Y65.232563 Z0.000000
G01 X21.654770 Y65.223193 Z0.000000
G01 X21.911028 Y65.232280 Z0.000000
G01 X22.147841 Y65.329760 Z0.000000
G01 X22.319008 Y65.499996 Z0.000000
G01 X22.469461 Y65.689819 Z0.000000
G01 X22.558446 Y65.970489 Z0.000000
G01 X22.569509 Y66.295835 Z0.000000
G00 Z0.000000

G00 Z0.000000
G00 X24.956121 Y67.425486

G01 Z0.000000 F100.0(Penetrate)
G01 X24.841539 Y66.861041 Z0.000000 F400.000000
G01 X24.841539 Y65.732152 Z0.000000
G01 X24.841539 Y65.282318 Z0.000000
G01 X24.985416 Y65.138413 Z0.000000
G01 X24.841539 Y65.282318 Z0.000000
G01 X24.688913 Y65.279073 Z0.000000
G01 X24.604303 Y65.138413 Z0.000000
G01 X24.688913 Y65.279073 Z0.000000
G01 X24.647991 Y65.211057 Z0.000000
G01 X24.443831 Y65.741663 Z0.000000
G01 X23.915314 Y66.739206 Z0.000000
G01 X23.457380 Y67.406154 Z0.000000
G01 X23.362102 Y67.021146 Z0.000000
G01 X23.362102 Y65.892257 Z0.000000
G01 X23.362102 Y65.282318 Z0.000000
G01 X23.506007 Y65.138413 Z0.000000
G01 X23.362102 Y65.282318 Z0.000000
G01 X23.362102 Y65.282318 Z0.000000
G01 X23.218197 Y65.138413 Z0.000000
G01 X23.362102 Y65.282318 Z0.000000
G01 X23.247491 Y65.167708 Z0.000000
G01 X23.362102 Y65.732152 Z0.000000
G01 X23.362102 Y66.861041 Z0.000000
G01 X23.362102 Y67.310875 Z0.000000
G01 X23.218197 Y67.454780 Z0.000000
G01 X23.362102 Y67.310875 Z0.000000
G01 X23.610909 Y67.313754 Z0.000000
G01 X23.695801 Y67.454780 Z0.000000
G01 X23.610909 Y67.313754 Z0.000000
G01 X23.675848 Y67.191185 Z0.000000
G01 X24.204366 Y66.193642 Z0.000000
G01 X24.782159 Y65.222939 Z0.000000
G01 X24.841539 Y65.662274 Z0.000000
G01 X24.841539 Y66.791163 Z0.000000
G01 X24.841539 Y67.310875 Z0.000000
G01 X24.697634 Y67.454780 Z0.000000
G01 X24.841539 Y67.310875 Z0.000000
G01 X24.841539 Y67.310875 Z0.000000
G01 X24.985416 Y67.454780 Z0.000000
G01 X24.841539 Y67.310875 Z0.000000
G01 X24.956121 Y67.425486 Z0.000000
G00 Z0.000000

G00 Z0.000000
G00 X28.370925 Y65.397832

G01 Z0.000000 F100.0(Penetrate)
G01 X28.510541 Y65.306420 Z0.000000 F400.000000
G01 X28.370925 Y65.397832 Z0.000000
G01 X28.414641 Y65.369215 Z0.000000
G01 X28.344283 Y65.383382 Z0.000000
G01 X28.296785 Y65.359704 Z0.000000
G01 X28.255073 Y65.341585 Z0.000000
G01 X28.203793 Y65.321829 Z0.000000
G01 X28.133830 Y65.296966 Z0.000000
G01 X28.075862 Y65.276617 Z0.000000
G01 X28.015466 Y65.259176 Z0.000000
G01 X27.943443 Y65.246081 Z0.000000
G01 X27.875484 Y65.233183 Z0.000000
G01 X27.806650 Y65.229430 Z0.000000
G01 X27.723366 Y65.229430 Z0.000000
G01 X27.565604 Y65.231405 Z0.000000
G01 X27.435387 Y65.255310 Z0.000000
G01 X27.310334 Y65.300042 Z0.000000
G01 X27.192224 Y65.349431 Z0.000000
G01 X27.103945 Y65.409459 Z0.000000
G01 X27.016033 Y65.499404 Z0.000000
G01 X26.933483 Y65.588275 Z0.000000
G01 X26.875176 Y65.683836 Z0.000000
G01 X26.824065 Y65.819359 Z0.000000
G01 X26.773914 Y65.956999 Z0.000000
G01 X26.750546 Y66.105758 Z0.000000
G01 X26.749530 Y66.294283 Z0.000000
G01 X26.750321 Y66.472449 Z0.000000
G01 X26.771995 Y66.615847 Z0.000000
G01 X26.818618 Y66.752837 Z0.000000
G01 X26.865947 Y66.888502 Z0.000000
G01 X26.924565 Y66.987844 Z0.000000
G01 X27.010050 Y67.082868 Z0.000000
G01 X27.008723 Y67.084223 Z0.000000
G01 X27.095761 Y67.173094 Z0.000000
G01 X27.185507 Y67.236820 Z0.000000
G01 X27.307879 Y67.290612 Z0.000000
G01 X27.435076 Y67.340396 Z0.000000
G01 X27.566056 Y67.364469 Z0.000000
G01 X27.724919 Y67.365344 Z0.000000
G01 X27.841448 Y67.365344 Z0.000000
G01 X27.949483 Y67.350640 Z0.000000
G01 X28.065081 Y67.321261 Z0.000000
G01 X28.065081 Y67.321261 Z0.000000
G01 X28.178873 Y67.285588 Z0.000000
G01 X28.301442 Y67.237780 Z0.000000
G01 X28.364462 Y67.202728 Z0.000000
G01 X28.510541 Y67.293011 Z0.000000
G01 X28.364462 Y67.202728 Z0.000000
G01 X28.493410 Y66.944551 Z0.000000
G01 X28.510541 Y66.927420 Z0.000000
G01 X28.493410 Y66.944551 Z0.000000
G01 X28.493410 Y66.944551 Z0.000000
G01 X28.487201 Y66.927420 Z0.000000
G01 X28.493410 Y66.944551 Z0.000000
G01 X28.415375 Y67.111655 Z0.000000
G01 X28.296701 Y67.240122 Z0.000000
G01 X28.158581 Y67.291938 Z0.000000
G01 X28.017837 Y67.336106 Z0.000000
G01 X27.859539 Y67.364244 Z0.000000
G01 X27.704711 Y67.365344 Z0.000000
G01 X27.575679 Y67.365344 Z0.000000
G01 X27.444418 Y67.343077 Z0.000000
G01 X27.336722 Y67.301844 Z0.000000
G01 X27.228659 Y67.259708 Z0.000000
G01 X27.115121 Y67.189407 Z0.000000
G01 X27.027519 Y67.101269 Z0.000000
G01 X27.027519 Y67.101269 Z0.000000
G01 X26.942853 Y67.012115 Z0.000000
G01 X26.865975 Y66.888586 Z0.000000
G01 X26.819437 Y66.755208 Z0.000000
G01 X26.819437 Y66.755208 Z0.000000
G01 X26.773886 Y66.623551 Z0.000000
G01 X26.749530 Y66.461302 Z0.000000
G01 X26.749530 Y66.294283 Z0.000000
G01 X26.749530 Y66.119051 Z0.000000
G01 X26.775523 Y65.950762 Z0.000000
G01 X26.824686 Y65.817666 Z0.000000
G01 X26.824686 Y65.817666 Z0.000000
G01 X26.873934 Y65.686432 Z0.000000
G01 X26.950698 Y65.566290 Z0.000000
G01 X27.033502 Y65.481511 Z0.000000
G01 X27.036804 Y65.484502 Z0.000000
G01 X27.120794 Y65.395687 Z0.000000
G01 X27.236900 Y65.327022 Z0.000000
G01 X27.349958 Y65.285677 Z0.000000
G01 X27.352244 Y65.289205 Z0.000000
G01 X27.461351 Y65.248565 Z0.000000
G01 X27.588295 Y65.229430 Z0.000000
G01 X27.707816 Y65.229430 Z0.000000
G01 X27.867921 Y65.232167 Z0.000000
G01 X28.030791 Y65.262422 Z0.000000
G01 X28.174583 Y65.311444 Z0.000000
G01 X28.315751 Y65.367832 Z0.000000
G01 X28.426523 Y65.498388 Z0.000000
G01 X28.494793 Y65.651606 Z0.000000
G01 X28.488753 Y65.667354 Z0.000000
G01 X28.494793 Y65.651606 Z0.000000
G01 X28.494793 Y65.651606 Z0.000000
G01 X28.510541 Y65.667354 Z0.000000
G01 X28.494793 Y65.651606 Z0.000000
G01 X28.370925 Y65.397832 Z0.000000
G00 Z0.000000

G00 Z0.000000
G00 X29.436286 Y65.916246

G01 Z0.000000 F100.0(Penetrate)
G01 X30.312925 Y65.916246 Z0.000000 F400.000000
G01 X30.253122 Y66.135843 Z0.000000
G01 X30.061690 Y66.666844 Z0.000000
G01 X29.719411 Y67.386991 Z0.000000
G01 X29.575111 Y67.195305 Z0.000000
G01 X29.383369 Y66.664417 Z0.000000
G01 X29.109473 Y65.906142 Z0.000000
G01 X29.109473 Y65.906142 Z0.000000
G01 X29.436286 Y65.916246 Z0.000000
G00 Z0.000000

G00 Z0.000000
G00 X29.830720 Y67.307489

G01 Z0.000000 F100.0(Penetrate)
G01 X30.213582 Y66.245515 Z0.000000 F400.000000
G01 X30.404957 Y65.714485 Z0.000000
G01 X30.556144 Y65.292055 Z0.000000
G01 X30.775572 Y65.138413 Z0.000000
G01 X30.556144 Y65.292055 Z0.000000
G01 X30.556144 Y65.292055 Z0.000000
G01 X30.447319 Y65.138413 Z0.000000
G01 X30.556144 Y65.292055 Z0.000000
G01 X30.507291 Y65.223080 Z0.000000
G01 X30.326415 Y65.933969 Z0.000000
G01 X30.326415 Y65.933969 Z0.000000
G01 X30.313856 Y65.916246 Z0.000000
G01 X30.001492 Y65.916246 Z0.000000
G01 X29.124713 Y65.916246 Z0.000000
G01 X29.063047 Y65.775078 Z0.000000
G01 X28.887561 Y65.284774 Z0.000000
G01 X28.991222 Y65.138413 Z0.000000
G01 X28.887561 Y65.284774 Z0.000000
G01 X28.887561 Y65.284774 Z0.000000
G01 X28.678548 Y65.138413 Z0.000000
G01 X28.887561 Y65.284774 Z0.000000
G01 X28.782180 Y65.210973 Z0.000000
G01 X29.042247 Y65.716997 Z0.000000
G01 X29.233030 Y66.248224 Z0.000000
G01 X29.424800 Y66.779112 Z0.000000
G01 X29.618771 Y67.316153 Z0.000000
G01 X29.521715 Y67.454780 Z0.000000
G01 X29.618771 Y67.316153 Z0.000000
G01 X29.830240 Y67.308872 Z0.000000
G01 X29.932404 Y67.454780 Z0.000000
G01 X29.830240 Y67.308872 Z0.000000
G01 X29.830720 Y67.307489 Z0.000000
G00 Z0.000000

G00 Z0.000000
G00 X32.455669 Y67.317903

G01 Z0.000000 F100.0(Penetrate)
G01 X32.592575 Y67.180997 Z0.000000 F400.000000
G01 X32.455669 Y67.317903 Z0.000000
G01 X32.460974 Y67.312569 Z0.000000
G01 X31.628052 Y67.317903 Z0.000000
G01 X31.628052 Y67.317903 Z0.000000
G01 X31.610949 Y67.006386 Z0.000000
G01 X31.610949 Y65.877497 Z0.000000
G01 X31.610949 Y65.292422 Z0.000000
G01 X31.764958 Y65.138413 Z0.000000
G01 X31.610949 Y65.292422 Z0.000000
G01 X31.610949 Y65.292422 Z0.000000
G01 X31.456941 Y65.138413 Z0.000000
G01 X31.610949 Y65.292422 Z0.000000
G01 X31.610949 Y65.313052 Z0.000000
G01 X31.610949 Y66.441941 Z0.000000
G01 X31.593847 Y67.317903 Z0.000000
G01 X31.325369 Y67.317903 Z0.000000
G01 X30.766230 Y67.317903 Z0.000000
G01 X30.629324 Y67.180997 Z0.000000
G01 X30.766230 Y67.317903 Z0.000000
G01 X30.766230 Y67.317903 Z0.000000
G01 X30.629324 Y67.454780 Z0.000000
G01 X30.766230 Y67.317903 Z0.000000
G01 X30.764283 Y67.319850 Z0.000000
G01 X31.328727 Y67.317903 Z0.000000
G01 X31.893172 Y67.317903 Z0.000000
G01 X32.455669 Y67.317903 Z0.000000
G01 X32.592575 Y67.454780 Z0.000000
G01 X32.455669 Y67.317903 Z0.000000
G01 X32.455669 Y67.317903 Z0.000000
G00 Z0.000000

G00 Z0.000000
G00 X33.601632 Y67.307489

G01 Z0.000000 F100.0(Penetrate)
G01 X33.984495 Y66.245515 Z0.000000 F400.000000
G01 X34.175870 Y65.714485 Z0.000000
G01 X34.327028 Y65.292055 Z0.000000
G01 X34.546456 Y65.138413 Z0.000000
G01 X34.327028 Y65.292055 Z0.000000
G01 X34.327028 Y65.292055 Z0.000000
G01 X34.218231 Y65.138413 Z0.000000
G01 X34.327028 Y65.292055 Z0.000000
G01 X34.278175 Y65.223080 Z0.000000
G01 X34.097299 Y65.933969 Z0.000000
G01 X34.097299 Y65.933969 Z0.000000
G01 X34.084740 Y65.916246 Z0.000000
G01 X33.772405 Y65.916246 Z0.000000
G01 X32.895597 Y65.916246 Z0.000000
G01 X32.833959 Y65.775078 Z0.000000
G01 X32.658474 Y65.284774 Z0.000000
G01 X32.762134 Y65.138413 Z0.000000
G01 X32.658474 Y65.284774 Z0.000000
G01 X32.658474 Y65.284774 Z0.000000
G01 X32.449432 Y65.138413 Z0.000000
G01 X32.658474 Y65.284774 Z0.000000
G01 X32.553092 Y65.210973 Z0.000000
G01 X32.813160 Y65.716997 Z0.000000
G01 X33.003942 Y66.248224 Z0.000000
G01 X33.195684 Y66.779112 Z0.000000
G01 X33.389683 Y67.316153 Z0.000000
G01 X33.292599 Y67.454780 Z0.000000
G01 X33.389683 Y67.316153 Z0.000000
G01 X33.601124 Y67.308872 Z0.000000
G01 X33.703288 Y67.454780 Z0.000000
G01 X33.601124 Y67.308872 Z0.000000
G01 X33.601632 Y67.307489 Z0.000000
G00 Z0.000000

G00 Z0.000000
G00 X33.207170 Y65.916246

G01 Z0.000000 F100.0(Penetrate)
G01 X34.083809 Y65.916246 Z0.000000 F400.000000
G01 X34.024034 Y66.135843 Z0.000000
G01 X33.832603 Y66.666844 Z0.000000
G01 X33.490295 Y67.386991 Z0.000000
G01 X33.346023 Y67.195305 Z0.000000
G01 X33.154253 Y66.664417 Z0.000000
G01 X32.880385 Y65.906142 Z0.000000
G01 X32.880385 Y65.906142 Z0.000000
G01 X33.207170 Y65.916246 Z0.000000
G00 Z0.000000

G00 Z0.000000
G00 X36.253025 Y66.746967

G01 Z0.000000 F100.0(Penetrate)
G01 X36.253025 Y66.842810 Z0.000000 F400.000000
G01 X36.233495 Y66.947684 Z0.000000
G01 X36.194633 Y67.023573 Z0.000000
G01 X36.153118 Y67.100394 Z0.000000
G01 X36.076777 Y67.174167 Z0.000000
G01 X36.003061 Y67.222907 Z0.000000
G01 X36.003061 Y67.222907 Z0.000000
G01 X35.999928 Y67.218899 Z0.000000
G01 X35.938658 Y67.258467 Z0.000000
G01 X35.855769 Y67.285334 Z0.000000
G01 X35.781460 Y67.302268 Z0.000000
G01 X35.709945 Y67.315645 Z0.000000
G01 X35.614413 Y67.322559 Z0.000000
G01 X35.510978 Y67.322559 Z0.000000
G01 X35.073816 Y67.322559 Z0.000000
G01 X35.052057 Y67.009744 Z0.000000
G01 X35.074606 Y66.133247 Z0.000000
G01 X35.465851 Y66.133247 Z0.000000
G01 X35.597366 Y66.133247 Z0.000000
G01 X35.716944 Y66.143040 Z0.000000
G01 X35.807255 Y66.164658 Z0.000000
G01 X35.807255 Y66.164658 Z0.000000
G01 X35.807199 Y66.167875 Z0.000000
G01 X35.899909 Y66.195081 Z0.000000
G01 X35.996090 Y66.243087 Z0.000000
G01 X36.062977 Y66.301818 Z0.000000
G01 X36.062977 Y66.301818 Z0.000000
G01 X36.122695 Y66.362157 Z0.000000
G01 X36.179111 Y66.438667 Z0.000000
G01 X36.207390 Y66.508235 Z0.000000
G01 X36.234003 Y66.575884 Z0.000000
G01 X36.252828 Y66.665151 Z0.000000
G01 X36.253025 Y66.746967 Z0.000000
G00 Z0.000000

G00 Z0.000000
G00 X36.253025 Y66.754756

G01 Z0.000000 F100.0(Penetrate)
G01 X36.253025 Y66.667183 Z0.000000 F400.000000
G01 X36.241567 Y66.602356 Z0.000000
G01 X36.214840 Y66.527285 Z0.000000
G01 X36.215998 Y66.526326 Z0.000000
G01 X36.186449 Y66.453315 Z0.000000
G01 X36.155235 Y66.402204 Z0.000000
G01 X36.105790 Y66.345054 Z0.000000
G01 X36.037464 Y66.276305 Z0.000000
G01 X35.971960 Y66.228581 Z0.000000
G01 X35.879617 Y66.188336 Z0.000000
G01 X35.783577 Y66.157066 Z0.000000
G01 X35.670349 Y66.137169 Z0.000000
G01 X35.514083 Y66.133247 Z0.000000
G01 X35.074606 Y66.133247 Z0.000000
G01 X35.052057 Y65.852323 Z0.000000
G01 X35.052057 Y65.292422 Z0.000000
G01 X35.206065 Y65.138413 Z0.000000
G01 X35.052057 Y65.292422 Z0.000000
G01 X35.052057 Y65.292422 Z0.000000
G01 X34.898048 Y65.138413 Z0.000000
G01 X35.052057 Y65.292422 Z0.000000
G01 X34.927343 Y65.167708 Z0.000000
G01 X35.052057 Y65.732152 Z0.000000
G01 X35.052057 Y66.296597 Z0.000000
G01 X35.052057 Y66.861041 Z0.000000
G01 X35.052057 Y67.300772 Z0.000000
G01 X34.898048 Y67.454780 Z0.000000
G01 X35.052057 Y67.300772 Z0.000000
G01 X34.930052 Y67.422776 Z0.000000
G01 X35.526529 Y67.322559 Z0.000000
G01 X35.658722 Y67.320556 Z0.000000
G01 X35.759729 Y67.307460 Z0.000000
G01 X35.847754 Y67.287112 Z0.000000
G01 X35.931884 Y67.261261 Z0.000000
G01 X35.991772 Y67.230301 Z0.000000
G01 X36.055074 Y67.188560 Z0.000000
G01 X36.123570 Y67.133160 Z0.000000
G01 X36.163420 Y67.085154 Z0.000000
G01 X36.200193 Y67.012651 Z0.000000
G01 X36.200193 Y67.012651 Z0.000000
G01 X36.235160 Y66.943168 Z0.000000
G01 X36.250118 Y66.871935 Z0.000000
G01 X36.253025 Y66.754756 Z0.000000
G00 Z0.000000

G00 Z0.000000
G00 X38.436127 Y67.326200

G01 Z0.000000 F100.0(Penetrate)
G01 X38.410699 Y66.761755 Z0.000000 F400.000000
G01 X38.410699 Y66.068702 Z0.000000
G01 X38.410021 Y65.910489 Z0.000000
G01 X38.394471 Y65.785916 Z0.000000
G01 X38.364499 Y65.670938 Z0.000000
G01 X38.329955 Y65.565020 Z0.000000
G01 X38.288976 Y65.495707 Z0.000000
G01 X38.226295 Y65.420579 Z0.000000
G01 X38.158646 Y65.352789 Z0.000000
G01 X38.094384 Y65.309807 Z0.000000
G01 X38.004045 Y65.274727 Z0.000000
G01 X37.909782 Y65.239759 Z0.000000
G01 X37.807308 Y65.223306 Z0.000000
G01 X37.674889 Y65.222431 Z0.000000
G01 X37.539733 Y65.223616 Z0.000000
G01 X37.436185 Y65.240860 Z0.000000
G01 X37.341500 Y65.277577 Z0.000000
G01 X37.249241 Y65.314238 Z0.000000
G01 X37.187802 Y65.356515 Z0.000000
G01 X37.126136 Y65.419055 Z0.000000
G01 X37.061987 Y65.497089 Z0.000000
G01 X37.019992 Y65.567814 Z0.000000
G01 X36.985307 Y65.669471 Z0.000000
G01 X36.956295 Y65.777562 Z0.000000
G01 X36.941365 Y65.902897 Z0.000000
G01 X36.940603 Y66.068702 Z0.000000
G01 X36.940603 Y66.197311 Z0.000000
G01 X36.940603 Y66.761755 Z0.000000
G01 X36.940603 Y67.300772 Z0.000000
G01 X36.786594 Y67.454780 Z0.000000
G01 X36.940603 Y67.300772 Z0.000000
G01 X36.940603 Y67.300772 Z0.000000
G01 X37.094612 Y67.454780 Z0.000000
G01 X36.940603 Y67.300772 Z0.000000
G01 X36.958242 Y67.318411 Z0.000000
G01 X36.940603 Y66.753966 Z0.000000
G01 X36.940603 Y66.053152 Z0.000000
G01 X36.940603 Y65.921213 Z0.000000
G01 X36.951469 Y65.805079 Z0.000000
G01 X36.971252 Y65.721061 Z0.000000
G01 X36.974018 Y65.720694 Z0.000000
G01 X36.994762 Y65.635181 Z0.000000
G01 X37.032608 Y65.543261 Z0.000000
G01 X37.081573 Y65.473326 Z0.000000
G01 X37.146230 Y65.394530 Z0.000000
G01 X37.239561 Y65.319318 Z0.000000
G01 X37.336476 Y65.279553 Z0.000000
G01 X37.338170 Y65.282601 Z0.000000
G01 X37.431275 Y65.242186 Z0.000000
G01 X37.553054 Y65.222431 Z0.000000
G01 X37.674889 Y65.222431 Z0.000000
G01 X37.797373 Y65.222431 Z0.000000
G01 X37.918588 Y65.242017 Z0.000000
G01 X38.012765 Y65.278057 Z0.000000
G01 X38.012765 Y65.278057 Z0.000000
G01 X38.110104 Y65.318048 Z0.000000
G01 X38.203745 Y65.393514 Z0.000000
G01 X38.269926 Y65.472903 Z0.000000
G01 X38.319513 Y65.544108 Z0.000000
G01 X38.356484 Y65.639527 Z0.000000
G01 X38.379033 Y65.727298 Z0.000000
G01 X38.399297 Y65.813122 Z0.000000
G01 X38.410699 Y65.925192 Z0.000000
G01 X38.410699 Y66.045363 Z0.000000
G01 X38.410699 Y66.185627 Z0.000000
G01 X38.410699 Y66.750071 Z0.000000
G01 X38.410699 Y67.300772 Z0.000000
G01 X38.256690 Y67.454780 Z0.000000
G01 X38.410699 Y67.300772 Z0.000000
G01 X38.410699 Y67.300772 Z0.000000
G01 X38.564707 Y67.454780 Z0.000000
G01 X38.410699 Y67.300772 Z0.000000
G01 X38.436127 Y67.326200 Z0.000000
G00 Z0.000000

G00 Z0.000000
G00 X40.482831 Y65.275319

G01 Z0.000000 F100.0(Penetrate)
G01 X40.619737 Y65.138413 Z0.000000 F400.000000
G01 X40.482831 Y65.275319 Z0.000000
G01 X40.451476 Y65.275319 Z0.000000
G01 X39.887031 Y65.275319 Z0.000000
G01 X39.308306 Y65.292422 Z0.000000
G01 X39.154298 Y65.138413 Z0.000000
G01 X39.308306 Y65.292422 Z0.000000
G01 X39.183592 Y65.167708 Z0.000000
G01 X39.308306 Y65.732152 Z0.000000
G01 X39.308306 Y66.861041 Z0.000000
G01 X39.308306 Y67.300772 Z0.000000
G01 X39.154298 Y67.454780 Z0.000000
G01 X39.308306 Y67.300772 Z0.000000
G01 X39.308306 Y67.300772 Z0.000000
G01 X39.462315 Y67.454780 Z0.000000
G01 X39.308306 Y67.300772 Z0.000000
G01 X39.308306 Y67.280170 Z0.000000
G01 X39.308306 Y66.151281 Z0.000000
G01 X39.325437 Y65.275319 Z0.000000
G01 X39.476596 Y65.275319 Z0.000000
G01 X40.041040 Y65.275319 Z0.000000
G01 X40.482831 Y65.275319 Z0.000000
G01 X40.619737 Y65.412225 Z0.000000
G01 X40.482831 Y65.275319 Z0.000000
G01 X40.482831 Y65.275319 Z0.000000
G00 Z0.000000

G00 Z0.000000
G00 X42.181611 Y67.317903

G01 Z0.000000 F100.0(Penetrate)
G01 X42.318517 Y67.180997 Z0.000000 F400.000000
G01 X42.181611 Y67.317903 Z0.000000
G01 X42.186917 Y67.312569 Z0.000000
G01 X41.353994 Y67.317903 Z0.000000
G01 X41.353994 Y67.317903 Z0.000000
G01 X41.336892 Y67.006386 Z0.000000
G01 X41.336892 Y65.877497 Z0.000000
G01 X41.336892 Y65.292422 Z0.000000
G01 X41.490900 Y65.138413 Z0.000000
G01 X41.336892 Y65.292422 Z0.000000
G01 X41.336892 Y65.292422 Z0.000000
G01 X41.182883 Y65.138413 Z0.000000
G01 X41.336892 Y65.292422 Z0.000000
G01 X41.336892 Y65.313052 Z0.000000
G01 X41.336892 Y66.441941 Z0.000000
G01 X41.319761 Y67.317903 Z0.000000
G01 X41.051283 Y67.317903 Z0.000000
G01 X40.492172 Y67.317903 Z0.000000
G01 X40.355266 Y67.180997 Z0.000000
G01 X40.492172 Y67.317903 Z0.000000
G01 X40.492172 Y67.317903 Z0.000000
G01 X40.355266 Y67.454780 Z0.000000
G01 X40.492172 Y67.317903 Z0.000000
G01 X40.490225 Y67.319850 Z0.000000
G01 X41.054669 Y67.317903 Z0.000000
G01 X41.619114 Y67.317903 Z0.000000
G01 X42.181611 Y67.317903 Z0.000000
G01 X42.318517 Y67.454780 Z0.000000
G01 X42.181611 Y67.317903 Z0.000000
G01 X42.181611 Y67.317903 Z0.000000
G00 Z0.000000

G00 Z0.000000
G00 X45.127249 Y65.271425

G01 Z0.000000 F100.0(Penetrate)
G01 X45.260232 Y65.138413 Z0.000000 F400.000000
G01 X45.127249 Y65.271425 Z0.000000
G01 X45.040635 Y65.271425 Z0.000000
G01 X44.476190 Y65.271425 Z0.000000
G01 X43.825160 Y65.271425 Z0.000000
G01 X43.692149 Y65.138413 Z0.000000
G01 X43.825160 Y65.271425 Z0.000000
G01 X43.819008 Y65.405198 Z0.000000
G01 X43.692149 Y65.463561 Z0.000000
G01 X43.819008 Y65.405198 Z0.000000
G01 X43.883721 Y65.460401 Z0.000000
G01 X43.992857 Y65.553477 Z0.000000
G01 X44.101653 Y65.646470 Z0.000000
G01 X44.212764 Y65.741268 Z0.000000
G01 X44.319444 Y65.835813 Z0.000000
G01 X44.417460 Y65.927337 Z0.000000
G01 X44.620265 Y66.122974 Z0.000000
G01 X44.769532 Y66.284772 Z0.000000
G01 X44.856316 Y66.401922 Z0.000000
G01 X44.856316 Y66.401922 Z0.000000
G01 X44.941490 Y66.533494 Z0.000000
G01 X44.994802 Y66.695941 Z0.000000
G01 X45.003551 Y66.849640 Z0.000000
G01 X45.003551 Y67.002294 Z0.000000
G01 X44.930484 Y67.156472 Z0.000000
G01 X44.823945 Y67.246670 Z0.000000
G01 X44.717744 Y67.328119 Z0.000000
G01 X44.556200 Y67.368449 Z0.000000
G01 X44.393753 Y67.368449 Z0.000000
G01 X44.288541 Y67.368054 Z0.000000
G01 X44.166762 Y67.349032 Z0.000000
G01 X44.047326 Y67.316435 Z0.000000
G01 X43.926901 Y67.281919 Z0.000000
G01 X43.830466 Y67.170724 Z0.000000
G01 X43.761688 Y67.043639 Z0.000000
G01 X43.765244 Y67.031645 Z0.000000
G01 X43.761688 Y67.043639 Z0.000000
G01 X43.761688 Y67.043639 Z0.000000
G01 X43.749694 Y67.031645 Z0.000000
G01 X43.761688 Y67.043639 Z0.000000
G01 X43.869074 Y67.284092 Z0.000000
G01 X43.749694 Y67.358345 Z0.000000
G01 X43.869074 Y67.284092 Z0.000000
G01 X43.869074 Y67.284092 Z0.000000
G01 X43.960740 Y67.292757 Z0.000000
G01 X44.076394 Y67.324394 Z0.000000
G01 X44.191823 Y67.354112 Z0.000000
G01 X44.294863 Y67.368449 Z0.000000
G01 X44.401514 Y67.368449 Z0.000000
G01 X44.617302 Y67.359192 Z0.000000
G01 X44.750539 Y67.309888 Z0.000000
G01 X44.861650 Y67.214638 Z0.000000
G01 X44.861650 Y67.214638 Z0.000000
G01 X44.960202 Y67.116170 Z0.000000
G01 X44.998499 Y67.027157 Z0.000000
G01 X45.003551 Y66.865190 Z0.000000
G01 X45.003551 Y66.787974 Z0.000000
G01 X44.999374 Y66.727381 Z0.000000
G01 X44.984078 Y66.659958 Z0.000000
G01 X44.964774 Y66.594228 Z0.000000
G01 X44.944454 Y66.539957 Z0.000000
G01 X44.906890 Y66.479505 Z0.000000
G01 X44.869185 Y66.420323 Z0.000000
G01 X44.830464 Y66.365036 Z0.000000
G01 X44.783022 Y66.302693 Z0.000000
G01 X44.783446 Y66.301451 Z0.000000
G01 X44.731686 Y66.241733 Z0.000000
G01 X44.670924 Y66.175890 Z0.000000
G01 X44.596502 Y66.099888 Z0.000000
G01 X44.486463 Y65.992587 Z0.000000
G01 X44.376143 Y65.888080 Z0.000000
G01 X44.261730 Y65.784561 Z0.000000
G01 X44.144297 Y65.682763 Z0.000000
G01 X44.034146 Y65.588671 Z0.000000
G01 X43.778622 Y65.317963 Z0.000000
G01 X44.072754 Y65.271425 Z0.000000
G01 X44.637198 Y65.271425 Z0.000000
G01 X45.127249 Y65.271425 Z0.000000
G01 X45.260232 Y65.404436 Z0.000000
G01 X45.127249 Y65.271425 Z0.000000
G01 X45.127249 Y65.271425 Z0.000000
G00 Z0.000000

G00 Z0.000000
G00 X46.614842 Y66.074939

G01 Z0.000000 F100.0(Penetrate)
G01 X46.988984 Y65.652312 Z0.000000 F400.000000
G01 X47.311084 Y65.288443 Z0.000000
G01 X47.643514 Y65.138413 Z0.000000
G01 X47.311084 Y65.288443 Z0.000000
G01 X47.311084 Y65.288443 Z0.000000
G01 X47.243690 Y65.138413 Z0.000000
G01 X47.311084 Y65.288443 Z0.000000
G01 X47.272674 Y65.331848 Z0.000000
G01 X46.898532 Y65.754476 Z0.000000
G01 X46.329572 Y66.333681 Z0.000000
G01 X46.247417 Y66.244753 Z0.000000
G01 X45.987575 Y65.967356 Z0.000000
G01 X45.943182 Y65.813432 Z0.000000
G01 X45.943182 Y65.292422 Z0.000000
G01 X46.097190 Y65.138413 Z0.000000
G01 X45.943182 Y65.292422 Z0.000000
G01 X45.943182 Y65.292422 Z0.000000
G01 X45.789173 Y65.138413 Z0.000000
G01 X45.943182 Y65.292422 Z0.000000
G01 X45.818468 Y65.167708 Z0.000000
G01 X45.943182 Y65.732152 Z0.000000
G01 X45.943182 Y66.296597 Z0.000000
G01 X45.943182 Y66.861041 Z0.000000
G01 X45.943182 Y67.300772 Z0.000000
G01 X45.789173 Y67.454780 Z0.000000
G01 X45.943182 Y67.300772 Z0.000000
G01 X45.943182 Y67.300772 Z0.000000
G01 X46.097190 Y67.454780 Z0.000000
G01 X45.943182 Y67.300772 Z0.000000
G01 X46.057256 Y67.414874 Z0.000000
G01 X45.943182 Y66.850430 Z0.000000
G01 X45.987575 Y65.967356 Z0.000000
G01 X46.386383 Y66.333596 Z0.000000
G01 X46.755502 Y66.761135 Z0.000000
G01 X47.280717 Y67.319737 Z0.000000
G01 X47.221930 Y67.454780 Z0.000000
G01 X47.280717 Y67.319737 Z0.000000
G01 X47.280717 Y67.319737 Z0.000000
G01 X47.595282 Y67.454780 Z0.000000
G01 X47.280717 Y67.319737 Z0.000000
G01 X47.408705 Y67.374686 Z0.000000
G01 X46.981759 Y67.001757 Z0.000000
G01 X46.386863 Y66.369043 Z0.000000
G01 X46.614842 Y66.074939 Z0.000000
G00 Z0.000000

G00 Z0.000000
G00 X49.247383 Y65.256636

G01 Z0.000000 F100.0(Penetrate)
G01 X49.365606 Y65.138413 Z0.000000 F400.000000
G01 X49.247383 Y65.256636 Z0.000000
G01 X49.303122 Y65.200897 Z0.000000
G01 X48.738677 Y65.283109 Z0.000000
G01 X48.229972 Y65.256664 Z0.000000
G01 X48.111749 Y65.138413 Z0.000000
G01 X48.229972 Y65.256664 Z0.000000
G01 X48.229972 Y65.256664 Z0.000000
G01 X48.111749 Y65.374887 Z0.000000
G01 X48.229972 Y65.256664 Z0.000000
G01 X48.712233 Y65.256664 Z0.000000
G01 X48.743334 Y65.586695 Z0.000000
G01 X48.743334 Y66.151139 Z0.000000
G01 X48.743334 Y67.076772 Z0.000000
G01 X48.594010 Y67.034608 Z0.000000
G01 X48.218937 Y67.034608 Z0.000000
G01 X48.111749 Y66.927420 Z0.000000
G01 X48.218937 Y67.034608 Z0.000000
G01 X48.217526 Y67.033197 Z0.000000
G01 X48.111749 Y67.139002 Z0.000000
G01 X48.217526 Y67.033197 Z0.000000
G01 X48.179595 Y67.071156 Z0.000000
G01 X48.258589 Y67.036076 Z0.000000
G01 X48.338232 Y67.041579 Z0.000000
G01 X48.338232 Y67.041579 Z0.000000
G01 X48.422109 Y67.047957 Z0.000000
G01 X48.502909 Y67.059218 Z0.000000
G01 X48.561160 Y67.073950 Z0.000000
G01 X48.561160 Y67.073950 Z0.000000
G01 X48.633917 Y67.092435 Z0.000000
G01 X48.712318 Y67.140667 Z0.000000
G01 X48.734021 Y67.210828 Z0.000000
G01 X48.756062 Y67.281355 Z0.000000
G01 X48.728461 Y67.380782 Z0.000000
G01 X48.768424 Y67.338307 Z0.000000
G01 X48.651555 Y67.462570 Z0.000000
G01 X48.768424 Y67.338307 Z0.000000
G01 X48.763682 Y67.333538 Z0.000000
G01 X48.892686 Y67.462570 Z0.000000
G01 X48.763682 Y67.333538 Z0.000000
G01 X48.751067 Y67.265381 Z0.000000
G01 X48.743334 Y66.700937 Z0.000000
G01 X48.743334 Y66.136492 Z0.000000
G01 X48.774463 Y65.256664 Z0.000000
G01 X49.247383 Y65.256664 Z0.000000
G01 X49.365606 Y65.374887 Z0.000000
G01 X49.247383 Y65.256664 Z0.000000
G01 X49.247383 Y65.256636 Z0.000000
G00 Z0.000000

G00 Z0.000000
G00 X51.402742 Y65.720158

G01 Z0.000000 F100.0(Penetrate)
G01 X51.402742 Y65.720158 Z0.000000 F400.000000
G01 X51.402742 Y65.988043 Z0.000000
G01 X51.382451 Y66.101581 Z0.000000
G01 X51.344774 Y66.181619 Z0.000000
G01 X51.305517 Y66.263153 Z0.000000
G01 X51.226410 Y66.343700 Z0.000000
G01 X51.145243 Y66.400934 Z0.000000
G01 X51.141517 Y66.397181 Z0.000000
G01 X51.081235 Y66.439119 Z0.000000
G01 X50.998290 Y66.465845 Z0.000000
G01 X50.926182 Y66.479251 Z0.000000
G01 X50.861581 Y66.487210 Z0.000000
G01 X50.789276 Y66.490286 Z0.000000
G01 X50.720583 Y66.490286 Z0.000000
G01 X50.624684 Y66.485516 Z0.000000
G01 X50.528079 Y66.464829 Z0.000000
G01 X50.445247 Y66.439373 Z0.000000
G01 X50.365463 Y66.409119 Z0.000000
G01 X50.279724 Y66.365713 Z0.000000
G01 X50.153401 Y66.292956 Z0.000000
G01 X50.109572 Y66.222739 Z0.000000
G01 X50.094755 Y66.198412 Z0.000000
G01 X50.081519 Y66.176173 Z0.000000
G01 X50.078358 Y66.153482 Z0.000000
G01 X50.078019 Y66.122748 Z0.000000
G01 X50.078019 Y66.088909 Z0.000000
G01 X50.081575 Y65.915286 Z0.000000
G01 X50.107709 Y65.761560 Z0.000000
G01 X50.145781 Y65.650590 Z0.000000
G01 X50.145781 Y65.650590 Z0.000000
G01 X50.147615 Y65.650251 Z0.000000
G01 X50.187098 Y65.541342 Z0.000000
G01 X50.256384 Y65.440645 Z0.000000
G01 X50.327730 Y65.372996 Z0.000000
G01 X50.386037 Y65.321604 Z0.000000
G01 X50.462575 Y65.278593 Z0.000000
G01 X50.531720 Y65.251838 Z0.000000
G01 X50.533949 Y65.253560 Z0.000000
G01 X50.601231 Y65.228640 Z0.000000
G01 X50.684797 Y65.216984 Z0.000000
G01 X50.760884 Y65.216984 Z0.000000
G01 X50.934903 Y65.216984 Z0.000000
G01 X51.103897 Y65.278621 Z0.000000
G01 X51.213315 Y65.388998 Z0.000000
G01 X51.213315 Y65.388998 Z0.000000
G01 X51.323720 Y65.501012 Z0.000000
G01 X51.401726 Y65.680280 Z0.000000
G01 X51.402658 Y65.720101 Z0.000000
G01 X51.244698 Y65.877356 Z0.000000
G01 X51.402658 Y65.720101 Z0.000000
G01 X51.402742 Y65.720158 Z0.000000
G00 Z0.000000

G00 Z0.000000
G00 X51.402742 Y65.889802

G01 Z0.000000 F100.0(Penetrate)
G01 X51.402658 Y65.685106 Z0.000000 F400.000000
G01 X51.353974 Y65.549216 Z0.000000
G01 X51.233917 Y65.409911 Z0.000000
G01 X51.100934 Y65.276730 Z0.000000
G01 X50.958242 Y65.221330 Z0.000000
G01 X50.757921 Y65.216984 Z0.000000
G01 X50.654741 Y65.219524 Z0.000000
G01 X50.574815 Y65.235723 Z0.000000
G01 X50.493451 Y65.266655 Z0.000000
G01 X50.415529 Y65.302554 Z0.000000
G01 X50.359282 Y65.342573 Z0.000000
G01 X50.297588 Y65.401614 Z0.000000
G01 X50.225763 Y65.478463 Z0.000000
G01 X50.176487 Y65.563553 Z0.000000
G01 X50.132206 Y65.689875 Z0.000000
G01 X50.094360 Y65.819726 Z0.000000
G01 X50.078019 Y65.966538 Z0.000000
G01 X50.078415 Y66.155824 Z0.000000
G01 X50.076891 Y66.351856 Z0.000000
G01 X50.093965 Y66.513541 Z0.000000
G01 X50.121341 Y66.664332 Z0.000000
G01 X50.161698 Y66.809987 Z0.000000
G01 X50.215885 Y66.929254 Z0.000000
G01 X50.305462 Y67.041043 Z0.000000
G01 X50.305462 Y67.041043 Z0.000000
G01 X50.390947 Y67.140159 Z0.000000
G01 X50.476602 Y67.217742 Z0.000000
G01 X50.601372 Y67.288552 Z0.000000
G01 X50.734045 Y67.345165 Z0.000000
G01 X50.876257 Y67.364554 Z0.000000
G01 X51.055045 Y67.364554 Z0.000000
G01 X51.112787 Y67.362437 Z0.000000
G01 X51.155544 Y67.358684 Z0.000000
G01 X51.191725 Y67.351910 Z0.000000
G01 X51.233127 Y67.384818 Z0.000000
G01 X51.277577 Y67.420490 Z0.000000
G01 X51.277577 Y67.420490 Z0.000000
G01 X51.335065 Y67.462570 Z0.000000
G01 X51.277577 Y67.420490 Z0.000000
G01 X51.322619 Y67.177864 Z0.000000
G01 X51.335065 Y67.165446 Z0.000000
G01 X51.322619 Y67.177864 Z0.000000
G01 X51.322619 Y67.177864 Z0.000000
G01 X51.319515 Y67.165446 Z0.000000
G01 X51.322619 Y67.177864 Z0.000000
G01 X51.303118 Y67.210461 Z0.000000
G01 X51.265131 Y67.262954 Z0.000000
G01 X51.215149 Y67.325607 Z0.000000
G01 X51.154246 Y67.358853 Z0.000000
G01 X51.077679 Y67.364554 Z0.000000
G01 X51.008365 Y67.364554 Z0.000000
G01 X50.762126 Y67.353406 Z0.000000
G01 X50.539086 Y67.262220 Z0.000000
G01 X50.372208 Y67.118372 Z0.000000
G01 X50.230419 Y66.954259 Z0.000000
G01 X50.132742 Y66.725941 Z0.000000
G01 X50.068904 Y66.177301 Z0.000000
G01 X50.068904 Y66.177301 Z0.000000
G01 X50.297955 Y66.365544 Z0.000000
G01 X50.380110 Y66.415441 Z0.000000
G01 X50.456931 Y66.443663 Z0.000000
G01 X50.535248 Y66.466410 Z0.000000
G01 X50.535248 Y66.466410 Z0.000000
G01 X50.612802 Y66.483908 Z0.000000
G01 X50.691796 Y66.490286 Z0.000000
G01 X50.793707 Y66.490088 Z0.000000
G01 X50.885090 Y66.485121 Z0.000000
G01 X50.955081 Y66.475102 Z0.000000
G01 X51.021686 Y66.458169 Z0.000000
G01 X51.021686 Y66.458169 Z0.000000
G01 X51.082787 Y66.438413 Z0.000000
G01 X51.133277 Y66.409288 Z0.000000
G01 X51.201857 Y66.360972 Z0.000000
G01 X51.201857 Y66.360972 Z0.000000
G01 X51.272271 Y66.302128 Z0.000000
G01 X51.312572 Y66.251949 Z0.000000
G01 X51.348584 Y66.173407 Z0.000000
G01 X51.348584 Y66.173407 Z0.000000
G01 X51.384991 Y66.093848 Z0.000000
G01 X51.400569 Y66.011947 Z0.000000
G01 X51.402742 Y65.889802 Z0.000000
G00 Z0.000000


(Footer)
M5
G00 X0.0000 Y0.0000
M2
(Using default footer. To add your own footer create file "footer" in the output dir.)
(end)
%