;PancakePainter v1.0.0 GCODE header start
;Originally generated @ Thu Jun 30 2016 13:26:14 GMT-0400 (Eastern Daylight Time)
;Settings used to generate this file:
;----------------------------------------
;flattenResolution: 40
;lineEndPreShutoff: 1
;startWait: 0
;endWait: 0
;shadeChangeWait: 35
;fillSpacing: 15
;fillAngle: 23
;fillGroupThreshold: 27
;----------------------------------------
W1 X42 Y210 L485 T0 ;Define Workspace of this file
G21 ;Set units to MM
G1 F5600 ;Set Speed
M107 ;Pump off
G4 P1000 ;Pause for 1000 milliseconds
M84 ;Motors off
G28 X0 Y0 ;Home All Axis
;PancakePainter header complete
;Starting path #1/12, segments: 6, length: 384, color #1
G00 X170.303 Y23.274
M106 ;Pump on
G4 P0 ;Pause for 0 milliseconds
G00 X183.849 Y22.963
G00 X197.35 Y21.727
G00 X210.791 Y21.368
G00 X224.356 Y20.989
G00 X237.825 Y22.247
G00 X251.373 Y22.055
G00 X264.922 Y21.821
G00 X278.475 Y21.659
G00 X292.029 Y21.472
;Nearing path end, moving to preshutoff position
G00 X305.231 Y21.385
M107 ;Pump off
G00 X305.584 Y21.382
G4 P0 ;Pause for 0 milliseconds
;Completed path #1/12 on color #1
;Starting path #2/12, segments: 15, length: 872, color #1
G00 X306.243 Y26.852
M106 ;Pump on
G4 P0 ;Pause for 0 milliseconds
G00 X306.075 Y40.533
G00 X307.208 Y54.412
G00 X308.487 Y68.33
G00 X309.533 Y82.223
G00 X310.622 Y96.055
G00 X310.244 Y110.038
G00 X309.032 Y123.957
G00 X309.276 Y137.939
G00 X309.941 Y151.907
G00 X311.03 Y165.811
G00 X312.891 Y179.599
G00 X313.325 Y193.563
G00 X302.236 Y195.583
G00 X288.254 Y195.583
G00 X274.276 Y195.713
G00 X260.301 Y196.133
G00 X246.323 Y196.593
G00 X232.343 Y196.831
G00 X218.368 Y196.786
G00 X204.384 Y196.694
G00 X190.384 Y196.601
;Nearing path end, moving to preshutoff position
G00 X176.77 Y196.551
M107 ;Pump off
G00 X176.417 Y196.549
G4 P0 ;Pause for 0 milliseconds
;Completed path #2/12 on color #1
;Starting path #3/12, segments: 4, length: 473, color #1
G00 X174.374 Y192.093
M106 ;Pump on
G4 P0 ;Pause for 0 milliseconds
G00 X174.533 Y178.196
G00 X174.647 Y164.298
G00 X174.183 Y150.409
G00 X172.581 Y136.62
G00 X172.056 Y122.745
G00 X172.625 Y108.844
G00 X172.75 Y94.954
G00 X172.89 Y81.054
G00 X173.095 Y67.159
G00 X173.31 Y53.265
G00 X173.479 Y39.369
;Nearing path end, moving to preshutoff position
G00 X173.545 Y25.822
M107 ;Pump off
G00 X173.547 Y25.469
G4 P0 ;Pause for 0 milliseconds
;Completed path #3/12 on color #1
;Starting path #4/12, segments: 3, length: 37, color #1
G00 X194.534 Y47.788
M106 ;Pump on
G4 P0 ;Pause for 0 milliseconds
;Nearing path end, moving to preshutoff position
G00 X206.893 Y49.848
M107 ;Pump off
G00 X207.241 Y49.906
G4 P0 ;Pause for 0 milliseconds
;Completed path #4/12 on color #1
;Starting path #5/12, segments: 13, length: 200, color #1
G00 X214.422 Y58.537
M106 ;Pump on
G4 P0 ;Pause for 0 milliseconds
G00 X208.837 Y49.08
G00 X204.951 Y38.264
G00 X198.599 Y36.736
G00 X195.316 Y48.032
G00 X189.462 Y58.041
;Nearing path end, moving to preshutoff position
G00 X183.667 Y67.752
M107 ;Pump off
G00 X183.487 Y68.055
G4 P0 ;Pause for 0 milliseconds
;Completed path #5/12 on color #1
;Starting path #6/12, segments: 13, length: 382, color #1
G00 X234.077 Y51.264
M106 ;Pump on
G4 P0 ;Pause for 0 milliseconds
G00 X225.085 Y61.094
G00 X217.506 Y72.161
G00 X211.495 Y84.235
G00 X203.854 Y95.269
G00 X197.312 Y107.044
G00 X191.42 Y119.089
G00 X195.478 Y131.221
G00 X207.838 Y134.374
G00 X217.857 Y126.788
;Nearing path end, moving to preshutoff position
G00 X224.866 Y115.685
M107 ;Pump off
G00 X225.054 Y115.387
G4 P0 ;Pause for 0 milliseconds
;Completed path #6/12 on color #1
;Starting path #7/12, segments: 9, length: 109, color #1
G00 X227.31 Y113.131
M106 ;Pump on
G4 P0 ;Pause for 0 milliseconds
G00 X227.237 Y125.982
G00 X227.663 Y138.804
;Nearing path end, moving to preshutoff position
G00 X228.259 Y150.479
M107 ;Pump off
G00 X228.277 Y150.831
G4 P0 ;Pause for 0 milliseconds
;Completed path #7/12 on color #1
;Starting path #8/12, segments: 24, length: 549, color #1
G00 X231.76 Y150.187
M106 ;Pump on
G4 P0 ;Pause for 0 milliseconds
G00 X245.592 Y150.187
G00 X257.289 Y148.475
G00 X254.99 Y135.172
G00 X252.734 Y121.579
G00 X255.102 Y117.278
G00 X266.307 Y125.284
G00 X279.579 Y128.235
G00 X281.441 Y115.783
G00 X276.297 Y102.98
G00 X271.315 Y90.277
G00 X263.823 Y78.868
G00 X254.454 Y68.741
G00 X245.365 Y58.692
;Nearing path end, moving to preshutoff position
G00 X236.329 Y48.924
M107 ;Pump off
G00 X236.09 Y48.665
G4 P0 ;Pause for 0 milliseconds
;Completed path #8/12 on color #1
;Starting path #9/12, segments: 19, length: 227, color #1
G00 X274.655 Y153.468
M106 ;Pump on
G4 P0 ;Pause for 0 milliseconds
G00 X281.936 Y164.114
G00 X287.432 Y175.839
G00 X293.574 Y187.037
G00 X299.516 Y178.075
G00 X299.975 Y164.841
;Nearing path end, moving to preshutoff position
G00 X301.599 Y152.131
M107 ;Pump off
G00 X301.644 Y151.781
G4 P0 ;Pause for 0 milliseconds
;Completed path #9/12 on color #1
;Starting path #10/12, segments: 2, length: 33, color #1
G00 X296.667 Y169.009
M106 ;Pump on
G4 P0 ;Pause for 0 milliseconds
;Nearing path end, moving to preshutoff position
G00 X285.262 Y168.439
M107 ;Pump off
G00 X284.91 Y168.421
G4 P0 ;Pause for 0 milliseconds
;Completed path #10/12 on color #1
;PancakePainter Footer Start
G4 P1000 ;Pause for 1000 milliseconds
G28 X0 Y0 ;Home All Axis
M84 ;Motors off
;PancakePainter Footer Complete
