;PancakePainter v1.0.0 GCODE header start
;Originally generated @ Thu Jun 30 2016 13:08:22 GMT-0400 (Eastern Daylight Time)
;Settings used to generate this file:
;----------------------------------------
;flattenResolution: 40
;lineEndPreShutoff: 1
;startWait: 0
;endWait: 0
;shadeChangeWait: 35
;fillSpacing: 15
;fillAngle: 23
;fillGroupThreshold: 27
;----------------------------------------
W1 X42 Y210 L485 T0 ;Define Workspace of this file
G21 ;Set units to MM
G1 F5600 ;Set Speed
M107 ;Pump off
G4 P1000 ;Pause for 1000 milliseconds
M84 ;Motors off
G28 X0 Y0 ;Home All Axis
;PancakePainter header complete
;Starting path #1/10, segments: 27, length: 781, color #1
G00 X112.598 Y63.186
M106 ;Pump on
G4 P0 ;Pause for 0 milliseconds
G00 X121.936 Y53.123
G00 X132.523 Y44.616
G00 X145.249 Y39.336
G00 X158.794 Y37.086
G00 X172.089 Y40.376
G00 X183.675 Y47.601
G00 X189.954 Y59.652
G00 X188.298 Y73.106
G00 X182.025 Y84.936
G00 X172.84 Y95.027
G00 X160.63 Y100.825
G00 X147.84 Y105.404
G00 X134.133 Y106.51
G00 X120.371 Y106.938
G00 X125.991 Y110.62
G00 X136.394 Y119.066
G00 X147.391 Y127.332
G00 X157.1 Y137
G00 X167.738 Y145.686
;Nearing path end, moving to preshutoff position
G00 X176.785 Y154.135
M107 ;Pump off
G00 X177.043 Y154.376
G4 P0 ;Pause for 0 milliseconds
;Completed path #1/10 on color #1
;Starting path #2/10, segments: 4, length: 324, color #1
G00 X210.877 Y156.632
M106 ;Pump on
G4 P0 ;Pause for 0 milliseconds
G00 X210.635 Y143.947
G00 X210.095 Y131.272
G00 X209.544 Y118.598
G00 X209.268 Y105.917
G00 X209.543 Y93.232
G00 X210.041 Y80.552
G00 X210.053 Y67.867
G00 X209.02 Y55.226
;Nearing path end, moving to preshutoff position
G00 X208.319 Y42.916
M107 ;Pump off
G00 X208.299 Y42.564
G4 P0 ;Pause for 0 milliseconds
;Completed path #2/10 on color #1
;Starting path #3/10, segments: 7, length: 168, color #1
G00 X212.81 Y96.698
M106 ;Pump on
G4 P0 ;Pause for 0 milliseconds
G00 X224.675 Y96.698
G00 X236.427 Y97.007
G00 X248.231 Y97.676
G00 X260.071 Y98.285
;Nearing path end, moving to preshutoff position
G00 X271.425 Y98.621
M107 ;Pump off
G00 X271.777 Y98.631
G4 P0 ;Pause for 0 milliseconds
;Completed path #3/10 on color #1
;Starting path #4/10, segments: 11, length: 137, color #1
G00 X284.666 Y44.497
M106 ;Pump on
G4 P0 ;Pause for 0 milliseconds
G00 X296.116 Y43.489
G00 X308.005 Y44.217
G00 X319.941 Y45.576
;Nearing path end, moving to preshutoff position
G00 X331.36 Y46.718
M107 ;Pump off
G00 X331.711 Y46.753
G4 P0 ;Pause for 0 milliseconds
;Completed path #4/10 on color #1
;Starting path #5/10, segments: 7, length: 248, color #1
G00 X351.367 Y46.753
M106 ;Pump on
G4 P0 ;Pause for 0 milliseconds
G00 X363.719 Y44.93
G00 X376.045 Y46.206
G00 X388.399 Y48.092
G00 X400.812 Y49.632
G00 X413.22 Y51.273
G00 X425.662 Y52.554
;Nearing path end, moving to preshutoff position
G00 X437.057 Y55.055
M107 ;Pump off
G00 X437.401 Y55.131
G4 P0 ;Pause for 0 milliseconds
;Completed path #5/10 on color #1
;Starting path #6/10, segments: 10, length: 399, color #1
G00 X385.845 Y47.719
M106 ;Pump on
G4 P0 ;Pause for 0 milliseconds
G00 X386.32 Y61.776
G00 X387.77 Y75.768
G00 X389.611 Y89.68
G00 X389.663 Y103.746
G00 X389.82 Y117.814
G00 X390.733 Y131.827
G00 X391.965 Y145.656
G00 X392.823 Y159.645
G00 X392.934 Y173.713
;Nearing path end, moving to preshutoff position
G00 X394.19 Y187.214
M107 ;Pump off
G00 X394.223 Y187.565
G4 P0 ;Pause for 0 milliseconds
;Completed path #6/10 on color #1
;Starting path #7/10, segments: 13, length: 136, color #1
G00 X336.545 Y174.676
M106 ;Pump on
G4 P0 ;Pause for 0 milliseconds
G00 X324.909 Y172.836
G00 X313.127 Y171.136
G00 X301.365 Y169.844
;Nearing path end, moving to preshutoff position
G00 X289.852 Y169.843
M107 ;Pump off
G00 X289.5 Y169.843
G4 P0 ;Pause for 0 milliseconds
;Completed path #7/10 on color #1
;Starting path #8/10, segments: 5, length: 346, color #1
G00 X274.033 Y165.009
M106 ;Pump on
G4 P0 ;Pause for 0 milliseconds
G00 X274.355 Y151.454
G00 X274.189 Y137.883
G00 X274.033 Y124.312
G00 X273.984 Y110.743
G00 X273.865 Y97.173
G00 X273.71 Y83.599
G00 X273.556 Y70.022
G00 X273.436 Y56.454
;Nearing path end, moving to preshutoff position
G00 X273.39 Y43.239
M107 ;Pump off
G00 X273.388 Y42.886
G4 P0 ;Pause for 0 milliseconds
;Completed path #8/10 on color #1
;Starting path #9/10, segments: 11, length: 360, color #1
G00 X305.933 Y44.497
M106 ;Pump on
G4 P0 ;Pause for 0 milliseconds
G00 X307.291 Y57.159
G00 X308.527 Y69.696
G00 X309.425 Y82.379
G00 X311.025 Y95.007
G00 X311.536 Y107.661
G00 X312.426 Y120.35
G00 X312.323 Y133.086
G00 X311.933 Y145.809
G00 X311.733 Y158.543
;Nearing path end, moving to preshutoff position
G00 X311.42 Y170.457
M107 ;Pump off
G00 X311.411 Y170.809
G4 P0 ;Pause for 0 milliseconds
;Completed path #9/10 on color #1
;Starting path #10/10, segments: 4, length: 264, color #1
G00 X109.698 Y155.02
M106 ;Pump on
G4 P0 ;Pause for 0 milliseconds
G00 X109.917 Y141.864
G00 X110.348 Y128.576
G00 X110.443 Y115.269
G00 X110.754 Y101.966
G00 X111.404 Y88.676
G00 X112.515 Y75.417
;Nearing path end, moving to preshutoff position
G00 X114.164 Y62.57
M107 ;Pump off
G00 X114.209 Y62.22
G4 P0 ;Pause for 0 milliseconds
;Completed path #10/10 on color #1
;PancakePainter Footer Start
G4 P1000 ;Pause for 1000 milliseconds
G28 X0 Y0 ;Home All Axis
M84 ;Motors off
;PancakePainter Footer Complete
