;PancakePainter v1.0.0 GCODE header start
;Originally generated @ Thu Jun 30 2016 13:49:32 GMT-0400 (Eastern Daylight Time)
;Settings used to generate this file:
;----------------------------------------
;flattenResolution: 40
;lineEndPreShutoff: 1
;startWait: 0
;endWait: 0
;shadeChangeWait: 35
;fillSpacing: 15
;fillAngle: 23
;fillGroupThreshold: 27
;----------------------------------------
W1 X42 Y210 L485 T0 ;Define Workspace of this file
G21 ;Set units to MM
G1 F5600 ;Set Speed
M107 ;Pump off
G4 P1000 ;Pause for 1000 milliseconds
M84 ;Motors off
G28 X0 Y0 ;Home All Axis
;PancakePainter header complete
;Starting path #1/27, segments: 10, length: 118, color #1
G00 X206.688 Y20.653
M106 ;Pump on
G4 P0 ;Pause for 0 milliseconds
G00 X220.193 Y22.135
G00 X233.953 Y22.264
;Nearing path end, moving to preshutoff position
G00 X247.258 Y22.892
M107 ;Pump off
G00 X247.61 Y22.908
G4 P0 ;Pause for 0 milliseconds
;Completed path #1/27 on color #1
;Starting path #2/27, segments: 21, length: 584, color #1
G00 X250.188 Y23.553
M106 ;Pump on
G4 P0 ;Pause for 0 milliseconds
G00 X250.188 Y37.268
G00 X250.485 Y50.845
G00 X250.189 Y64.58
G00 X249.085 Y78.241
G00 X250.836 Y91.494
G00 X252.428 Y103.796
G00 X266.04 Y105.106
G00 X278.733 Y108.911
G00 X287.865 Y118.861
G00 X295.008 Y130.546
G00 X302.497 Y141.994
G00 X310.68 Y152.922
G00 X317.637 Y164.749
G00 X324.291 Y176.151
;Nearing path end, moving to preshutoff position
G00 X331.203 Y187.265
M107 ;Pump off
G00 X331.389 Y187.565
G4 P0 ;Pause for 0 milliseconds
;Completed path #2/27 on color #1
;Starting path #3/27, segments: 49, length: 704, color #1
G00 X330.744 Y190.465
M106 ;Pump on
G4 P0 ;Pause for 0 milliseconds
G00 X317.471 Y190.57
G00 X303.792 Y189.529
G00 X290.086 Y188.834
G00 X278.756 Y185.157
G00 X272.399 Y173.012
G00 X267.652 Y160.041
G00 X261.487 Y147.72
G00 X250.59 Y140.535
G00 X248.539 Y149.979
G00 X247.799 Y163.691
G00 X249.438 Y177.24
G00 X247.144 Y186.528
G00 X233.909 Y183.688
G00 X220.455 Y185.58
G00 X210.792 Y182.442
G00 X208.817 Y169.036
G00 X206.688 Y155.817
;Nearing path end, moving to preshutoff position
G00 X208.884 Y142.801
M107 ;Pump off
G00 X208.943 Y142.454
G4 P0 ;Pause for 0 milliseconds
;Completed path #3/27 on color #1
;Starting path #4/27, segments: 24, length: 396, color #1
G00 X207.976 Y138.265
M106 ;Pump on
G4 P0 ;Pause for 0 milliseconds
G00 X204.778 Y124.929
G00 X199.563 Y112.446
G00 X198.612 Y103.863
G00 X210.061 Y102.609
G00 X209.839 Y89.219
G00 X209.472 Y75.37
G00 X209.569 Y61.403
G00 X209.563 Y47.7
G00 X209.169 Y33.92
;Nearing path end, moving to preshutoff position
G00 X208.44 Y20.334
M107 ;Pump off
G00 X208.421 Y19.982
G4 P0 ;Pause for 0 milliseconds
;Completed path #4/27 on color #1
;Starting path #5/27, segments: 42, length: 867, color #1
G00 X254.055 Y21.619
M106 ;Pump on
G4 P0 ;Pause for 0 milliseconds
G00 X254.515 Y35.41
G00 X253.401 Y49.158
G00 X255.974 Y61.56
G00 X269.55 Y59.706
G00 X278.696 Y69.943
G00 X282.843 Y82.88
G00 X278.551 Y95.828
G00 X280.817 Y101.862
G00 X290.979 Y110.223
G00 X297.339 Y122.18
G00 X303.391 Y126.662
G00 X309.922 Y114.698
G00 X318.635 Y103.928
G00 X323.467 Y91.021
G00 X324.202 Y77.133
G00 X319.876 Y64.192
G00 X313.481 Y51.894
G00 X306.866 Y39.923
G00 X296.695 Y30.549
G00 X283.527 Y26.891
G00 X269.87 Y24.814
;Nearing path end, moving to preshutoff position
G00 X256.655 Y22.015
M107 ;Pump off
G00 X256.31 Y21.942
G4 P0 ;Pause for 0 milliseconds
;Completed path #5/27 on color #1
;Starting path #6/27, segments: 8, length: 48, color #1
G00 X254.699 Y29.675
M106 ;Pump on
G4 P0 ;Pause for 0 milliseconds
G00 X263.129 Y28.659
;Nearing path end, moving to preshutoff position
G00 X270.475 Y26.241
M107 ;Pump off
G00 X270.81 Y26.13
G4 P0 ;Pause for 0 milliseconds
;Completed path #6/27 on color #1
;Starting path #7/27, segments: 14, length: 80, color #1
G00 X281.444 Y27.419
M106 ;Pump on
G4 P0 ;Pause for 0 milliseconds
G00 X269.042 Y32.72
;Nearing path end, moving to preshutoff position
G00 X257.271 Y38.541
M107 ;Pump off
G00 X256.955 Y38.697
G4 P0 ;Pause for 0 milliseconds
;Completed path #7/27 on color #1
;Starting path #8/27, segments: 15, length: 112, color #1
G00 X255.988 Y46.108
M106 ;Pump on
G4 P0 ;Pause for 0 milliseconds
G00 X268.713 Y42.681
G00 X280.479 Y37.655
;Nearing path end, moving to preshutoff position
G00 X290.812 Y31.152
M107 ;Pump off
G00 X291.111 Y30.964
G4 P0 ;Pause for 0 milliseconds
;Completed path #8/27 on color #1
;Starting path #9/27, segments: 5, length: 136, color #1
G00 X298.522 Y34.83
M106 ;Pump on
G4 P0 ;Pause for 0 milliseconds
G00 X288.269 Y41.073
G00 X277.713 Y46.557
G00 X267.03 Y52.05
;Nearing path end, moving to preshutoff position
G00 X256.942 Y57.54
M107 ;Pump off
G00 X256.633 Y57.708
G4 P0 ;Pause for 0 milliseconds
;Completed path #9/27 on color #1
;Starting path #10/27, segments: 13, length: 112, color #1
G00 X268.877 Y58.997
M106 ;Pump on
G4 P0 ;Pause for 0 milliseconds
G00 X280.212 Y52.366
G00 X290.594 Y44.605
;Nearing path end, moving to preshutoff position
G00 X302.06 Y40.115
M107 ;Pump off
G00 X302.389 Y39.986
G4 P0 ;Pause for 0 milliseconds
;Completed path #10/27 on color #1
;Starting path #11/27, segments: 13, length: 113, color #1
G00 X308.511 Y44.819
M106 ;Pump on
G4 P0 ;Pause for 0 milliseconds
G00 X297.921 Y52.727
G00 X286.826 Y59.817
;Nearing path end, moving to preshutoff position
G00 X276.903 Y66.533
M107 ;Pump off
G00 X276.611 Y66.731
G4 P0 ;Pause for 0 milliseconds
;Completed path #11/27 on color #1
;Starting path #12/27, segments: 9, length: 105, color #1
G00 X280.477 Y70.92
M106 ;Pump on
G4 P0 ;Pause for 0 milliseconds
G00 X291.384 Y66.51
G00 X302.107 Y60.489
;Nearing path end, moving to preshutoff position
G00 X311.133 Y53.415
M107 ;Pump off
G00 X311.411 Y53.197
G4 P0 ;Pause for 0 milliseconds
;Completed path #12/27 on color #1
;Starting path #13/27, segments: 19, length: 108, color #1
G00 X313.344 Y63.831
M106 ;Pump on
G4 P0 ;Pause for 0 milliseconds
G00 X303.737 Y70.561
G00 X291.818 Y74.272
;Nearing path end, moving to preshutoff position
G00 X282.375 Y81.026
M107 ;Pump off
G00 X282.088 Y81.231
G4 P0 ;Pause for 0 milliseconds
;Completed path #13/27 on color #1
;Starting path #14/27, segments: 11, length: 120, color #1
G00 X284.344 Y89.609
M106 ;Pump on
G4 P0 ;Pause for 0 milliseconds
G00 X293.93 Y85.167
G00 X303.208 Y80.063
G00 X311.067 Y73.187
;Nearing path end, moving to preshutoff position
G00 X319.182 Y67.261
M107 ;Pump off
G00 X319.467 Y67.053
G4 P0 ;Pause for 0 milliseconds
;Completed path #14/27 on color #1
;Starting path #15/27, segments: 7, length: 143, color #1
G00 X323.656 Y73.497
M106 ;Pump on
G4 P0 ;Pause for 0 milliseconds
G00 X313.428 Y80.625
G00 X303.445 Y88.132
G00 X293.003 Y95.122
;Nearing path end, moving to preshutoff position
G00 X282.408 Y100.092
M107 ;Pump off
G00 X282.088 Y100.242
G4 P0 ;Pause for 0 milliseconds
;Completed path #15/27 on color #1
;Starting path #16/27, segments: 9, length: 122, color #1
G00 X285.955 Y106.042
M106 ;Pump on
G4 P0 ;Pause for 0 milliseconds
G00 X295.45 Y101.181
G00 X304.99 Y96.242
G00 X314.24 Y90.94
;Nearing path end, moving to preshutoff position
G00 X322.096 Y84.357
M107 ;Pump off
G00 X322.367 Y84.131
G4 P0 ;Pause for 0 milliseconds
;Completed path #16/27 on color #1
;Starting path #17/27, segments: 9, length: 106, color #1
G00 X322.367 Y91.542
M106 ;Pump on
G4 P0 ;Pause for 0 milliseconds
G00 X312.016 Y98.255
G00 X301.669 Y105.127
;Nearing path end, moving to preshutoff position
G00 X291.728 Y111.649
M107 ;Pump off
G00 X291.433 Y111.842
G4 P0 ;Pause for 0 milliseconds
;Completed path #17/27 on color #1
;Starting path #18/27, segments: 6, length: 60, color #1
G00 X298.2 Y119.576
M106 ;Pump on
G4 P0 ;Pause for 0 milliseconds
G00 X306.864 Y113.961
;Nearing path end, moving to preshutoff position
G00 X314.365 Y107.56
M107 ;Pump off
G00 X314.633 Y107.331
G4 P0 ;Pause for 0 milliseconds
;Completed path #18/27 on color #1
;PancakePainter Footer Start
G4 P1000 ;Pause for 1000 milliseconds
G28 X0 Y0 ;Home All Axis
M84 ;Motors off
;PancakePainter Footer Complete
