;PancakePainter v1.0.0 GCODE header start
;Originally generated @ Thu Jun 30 2016 14:11:35 GMT-0400 (Eastern Daylight Time)
;Settings used to generate this file:
;----------------------------------------
;flattenResolution: 40
;lineEndPreShutoff: 1
;startWait: 0
;endWait: 0
;shadeChangeWait: 35
;fillSpacing: 15
;fillAngle: 23
;fillGroupThreshold: 27
;----------------------------------------
W1 X42 Y210 L485 T0 ;Define Workspace of this file
G21 ;Set units to MM
G1 F5600 ;Set Speed
M107 ;Pump off
G4 P1000 ;Pause for 1000 milliseconds
M84 ;Motors off
G28 X0 Y0 ;Home All Axis
;PancakePainter header complete
;Starting path #1/36, segments: 4, length: 31, color #1
G00 X211.521 Y41.597
M106 ;Pump on
G4 P0 ;Pause for 0 milliseconds
;Nearing path end, moving to preshutoff position
G00 X221.488 Y39.417
M107 ;Pump off
G00 X221.832 Y39.342
G4 P0 ;Pause for 0 milliseconds
;Completed path #1/36 on color #1
;Starting path #2/36, segments: 2, length: 40, color #1
G00 X216.677 Y43.208
M106 ;Pump on
G4 P0 ;Pause for 0 milliseconds
G00 X223.664 Y42.302
;Nearing path end, moving to preshutoff position
G00 X229.883 Y39.796
M107 ;Pump off
G00 X230.21 Y39.664
G4 P0 ;Pause for 0 milliseconds
;Completed path #2/36 on color #1
;Starting path #3/36, segments: 4, length: 51, color #1
G00 X223.766 Y47.397
M106 ;Pump on
G4 P0 ;Pause for 0 milliseconds
G00 X232.621 Y46.379
;Nearing path end, moving to preshutoff position
G00 X241.139 Y45.19
M107 ;Pump off
G00 X241.488 Y45.142
G4 P0 ;Pause for 0 milliseconds
;Completed path #3/36 on color #1
;Starting path #4/36, segments: 4, length: 33, color #1
G00 X244.71 Y47.719
M106 ;Pump on
G4 P0 ;Pause for 0 milliseconds
;Nearing path end, moving to preshutoff position
G00 X234.096 Y50.529
M107 ;Pump off
G00 X233.755 Y50.62
G4 P0 ;Pause for 0 milliseconds
;Completed path #4/36 on color #1
;Starting path #5/36, segments: 55, length: 2423, color #1
G00 X230.532 Y50.942
M106 ;Pump on
G4 P0 ;Pause for 0 milliseconds
G00 X215.71 Y62.864
G00 X203.143 Y80.264
G00 X198.31 Y94.442
G00 X198.954 Y109.264
G00 X209.588 Y123.442
G00 X224.41 Y136.976
G00 X239.232 Y151.154
G00 X246.644 Y164.365
G00 X254.699 Y173.709
G00 X265.333 Y181.765
G00 X277.255 Y185.954
G00 X284.988 Y185.31
G00 X292.077 Y181.121
G00 X300.455 Y169.843
G00 X303.678 Y161.465
G00 X308.511 Y152.443
G00 X310.122 Y138.265
G00 X315.922 Y125.376
G00 X326.233 Y110.876
G00 X329.778 Y93.798
G00 X327.2 Y74.142
G00 X319.789 Y58.997
G00 X310.766 Y52.553
G00 X298.844 Y48.042
G00 X280.799 Y43.531
G00 X269.522 Y44.819
G00 X277.899 Y26.775
G00 X268.555 Y19.364
G00 X264.688 Y35.475
G00 X260.177 Y49.331
G00 X242.777 Y34.508
G00 X248.577 Y47.075
G00 X233.432 Y38.053
G00 X224.732 Y37.408
G00 X213.454 Y37.731
G00 X205.076 Y42.886
G00 X223.121 Y45.464
G00 X236.332 Y54.164
G00 X225.377 Y63.509
G00 X220.866 Y73.175
G00 X226.021 Y84.775
G00 X234.721 Y68.986
G00 X242.132 Y64.153
G00 X248.255 Y63.831
G00 X254.377 Y67.697
G00 X256.31 Y94.442
G00 X263.722 Y65.764
G00 X270.488 Y78.653
G00 X272.099 Y64.153
G00 X287.244 Y83.486
G00 X278.222 Y56.742
G00 X304 Y62.864
G00 X274.677 Y49.008
;Nearing path end, moving to preshutoff position
G00 X286.585 Y45.248
M107 ;Pump off
G00 X286.922 Y45.142
G4 P0 ;Pause for 0 milliseconds
;Completed path #5/36 on color #1
;Starting path #6/36, segments: 10, length: 105, color #1
G00 X279.188 Y45.786
M106 ;Pump on
G4 P0 ;Pause for 0 milliseconds
G00 X267.956 Y49.113
G00 X262.009 Y58.99
;Nearing path end, moving to preshutoff position
G00 X260.856 Y70.891
M107 ;Pump off
G00 X260.821 Y71.242
G4 P0 ;Pause for 0 milliseconds
;Completed path #6/36 on color #1
;Starting path #7/36, segments: 10, length: 115, color #1
G00 X255.988 Y69.631
M106 ;Pump on
G4 P0 ;Pause for 0 milliseconds
G00 X256.111 Y56.138
G00 X253.102 Y52.446
;Nearing path end, moving to preshutoff position
G00 X247.13 Y63.84
M107 ;Pump off
G00 X246.966 Y64.153
G4 P0 ;Pause for 0 milliseconds
;Completed path #7/36 on color #1
;Starting path #8/36, segments: 5, length: 59, color #1
G00 X243.421 Y63.509
M106 ;Pump on
G4 P0 ;Pause for 0 milliseconds
G00 X247.602 Y54.041
;Nearing path end, moving to preshutoff position
G00 X254.436 Y47.954
M107 ;Pump off
G00 X254.699 Y47.719
G4 P0 ;Pause for 0 milliseconds
;Completed path #8/36 on color #1
;Starting path #9/36, segments: 5, length: 44, color #1
G00 X255.021 Y52.231
M106 ;Pump on
G4 P0 ;Pause for 0 milliseconds
G00 X252.057 Y58.987
;Nearing path end, moving to preshutoff position
G00 X251.811 Y66.378
M107 ;Pump off
G00 X251.799 Y66.731
G4 P0 ;Pause for 0 milliseconds
;Completed path #9/36 on color #1
;Starting path #10/36, segments: 9, length: 60, color #1
G00 X262.755 Y66.409
M106 ;Pump on
G4 P0 ;Pause for 0 milliseconds
G00 X266.921 Y56.996
;Nearing path end, moving to preshutoff position
G00 X271.3 Y48.036
M107 ;Pump off
G00 X271.455 Y47.719
G4 P0 ;Pause for 0 milliseconds
;Completed path #10/36 on color #1
;Starting path #11/36, segments: 10, length: 79, color #1
G00 X273.388 Y49.975
M106 ;Pump on
G4 P0 ;Pause for 0 milliseconds
G00 X278.36 Y62.336
;Nearing path end, moving to preshutoff position
G00 X282.621 Y75.096
M107 ;Pump off
G00 X282.733 Y75.431
G4 P0 ;Pause for 0 milliseconds
;Completed path #11/36 on color #1
;Starting path #12/36, segments: 8, length: 43, color #1
G00 X276.288 Y67.053
M106 ;Pump on
G4 P0 ;Pause for 0 milliseconds
G00 X273.78 Y60.17
;Nearing path end, moving to preshutoff position
G00 X270.651 Y54.155
M107 ;Pump off
G00 X270.488 Y53.842
G4 P0 ;Pause for 0 milliseconds
;Completed path #12/36 on color #1
;Starting path #13/36, segments: 4, length: 41, color #1
G00 X273.066 Y52.875
M106 ;Pump on
G4 P0 ;Pause for 0 milliseconds
G00 X280.112 Y54.597
;Nearing path end, moving to preshutoff position
G00 X286.281 Y57.556
M107 ;Pump off
G00 X286.6 Y57.708
G4 P0 ;Pause for 0 milliseconds
;Completed path #13/36 on color #1
;Starting path #14/36, segments: 6, length: 77, color #1
G00 X273.711 Y44.819
M106 ;Pump on
G4 P0 ;Pause for 0 milliseconds
G00 X270.741 Y57.918
;Nearing path end, moving to preshutoff position
G00 X268.926 Y70.893
M107 ;Pump off
G00 X268.877 Y71.242
G4 P0 ;Pause for 0 milliseconds
;Completed path #14/36 on color #1
;Starting path #15/36, segments: 6, length: 171, color #1
G00 X256.633 Y85.098
M106 ;Pump on
G4 P0 ;Pause for 0 milliseconds
G00 X258.337 Y73.18
G00 X259.436 Y61.182
G00 X262.638 Y49.76
G00 X267.068 Y38.631
;Nearing path end, moving to preshutoff position
G00 X272.569 Y29.014
M107 ;Pump off
G00 X272.744 Y28.708
G4 P0 ;Pause for 0 milliseconds
;Completed path #15/36 on color #1
;Starting path #16/36, segments: 9, length: 53, color #1
G00 X245.677 Y49.331
M106 ;Pump on
G4 P0 ;Pause for 0 milliseconds
G00 X241.739 Y57.121
;Nearing path end, moving to preshutoff position
G00 X238.09 Y65.121
M107 ;Pump off
G00 X237.943 Y65.442
G4 P0 ;Pause for 0 milliseconds
;Completed path #16/36 on color #1
;Starting path #17/36, segments: 3, length: 39, color #1
G00 X236.01 Y63.831
M106 ;Pump on
G4 P0 ;Pause for 0 milliseconds
;Nearing path end, moving to preshutoff position
G00 X237.891 Y51.291
M107 ;Pump off
G00 X237.943 Y50.942
G4 P0 ;Pause for 0 milliseconds
;Completed path #17/36 on color #1
;Starting path #18/36, segments: 2, length: 29, color #1
G00 X234.077 Y57.064
M106 ;Pump on
G4 P0 ;Pause for 0 milliseconds
;Nearing path end, moving to preshutoff position
G00 X234.077 Y67.022
M107 ;Pump off
G00 X234.077 Y67.375
G4 P0 ;Pause for 0 milliseconds
;Completed path #18/36 on color #1
;Starting path #19/36, segments: 2, length: 30, color #1
G00 X227.954 Y63.186
M106 ;Pump on
G4 P0 ;Pause for 0 milliseconds
;Nearing path end, moving to preshutoff position
G00 X229.2 Y73.147
M107 ;Pump off
G00 X229.243 Y73.497
G4 P0 ;Pause for 0 milliseconds
;Completed path #19/36 on color #1
;Starting path #20/36, segments: 6, length: 31, color #1
G00 X226.666 Y78.975
M106 ;Pump on
G4 P0 ;Pause for 0 milliseconds
;Nearing path end, moving to preshutoff position
G00 X223.239 Y69.319
M107 ;Pump off
G00 X223.121 Y68.986
G4 P0 ;Pause for 0 milliseconds
;Completed path #20/36 on color #1
;Starting path #21/36, segments: 9, length: 71, color #1
G00 X239.555 Y84.131
M106 ;Pump on
G4 P0 ;Pause for 0 milliseconds
G00 X241.825 Y92.481
;Nearing path end, moving to preshutoff position
G00 X239.647 Y84.471
M107 ;Pump off
G00 X239.555 Y84.131
G4 P0 ;Pause for 0 milliseconds
;Completed path #21/36 on color #1
;Starting path #22/36, segments: 5, length: 68, color #1
G00 X253.733 Y104.753
M106 ;Pump on
G4 P0 ;Pause for 0 milliseconds
G00 X258.761 Y108.379
;Nearing path end, moving to preshutoff position
G00 X254.019 Y104.96
M107 ;Pump off
G00 X253.733 Y104.753
G4 P0 ;Pause for 0 milliseconds
;Completed path #22/36 on color #1
;Starting path #23/36, segments: 5, length: 64, color #1
G00 X245.677 Y123.442
M106 ;Pump on
G4 P0 ;Pause for 0 milliseconds
G00 X245.315 Y132.515
;Nearing path end, moving to preshutoff position
G00 X245.663 Y123.795
M107 ;Pump off
G00 X245.677 Y123.442
G4 P0 ;Pause for 0 milliseconds
;Completed path #23/36 on color #1
;Starting path #24/36, segments: 5, length: 66, color #1
G00 X259.855 Y142.131
M106 ;Pump on
G4 P0 ;Pause for 0 milliseconds
G00 X262.87 Y150.415
;Nearing path end, moving to preshutoff position
G00 X259.975 Y142.463
M107 ;Pump off
G00 X259.855 Y142.131
G4 P0 ;Pause for 0 milliseconds
;Completed path #24/36 on color #1
;Starting path #25/36, segments: 8, length: 72, color #1
G00 X273.066 Y131.176
M106 ;Pump on
G4 P0 ;Pause for 0 milliseconds
G00 X271.735 Y120.804
;Nearing path end, moving to preshutoff position
G00 X273.021 Y130.826
M107 ;Pump off
G00 X273.066 Y131.176
G4 P0 ;Pause for 0 milliseconds
;Completed path #25/36 on color #1
;Starting path #26/36, segments: 11, length: 66, color #1
G00 X290.788 Y144.065
M106 ;Pump on
G4 P0 ;Pause for 0 milliseconds
G00 X289.188 Y136.331
;Nearing path end, moving to preshutoff position
G00 X290.717 Y143.719
M107 ;Pump off
G00 X290.788 Y144.065
G4 P0 ;Pause for 0 milliseconds
;Completed path #26/36 on color #1
;Starting path #27/36, segments: 6, length: 65, color #1
G00 X289.822 Y155.02
M106 ;Pump on
G4 P0 ;Pause for 0 milliseconds
G00 X285.221 Y163.385
;Nearing path end, moving to preshutoff position
G00 X289.652 Y155.329
M107 ;Pump off
G00 X289.822 Y155.02
G4 P0 ;Pause for 0 milliseconds
;Completed path #27/36 on color #1
;Starting path #28/36, segments: 4, length: 59, color #1
G00 X269.844 Y160.82
M106 ;Pump on
G4 P0 ;Pause for 0 milliseconds
G00 X268.741 Y169.03
;Nearing path end, moving to preshutoff position
G00 X269.797 Y161.17
M107 ;Pump off
G00 X269.844 Y160.82
G4 P0 ;Pause for 0 milliseconds
;Completed path #28/36 on color #1
;Starting path #29/36, segments: 6, length: 69, color #1
G00 X303.033 Y120.22
M106 ;Pump on
G4 P0 ;Pause for 0 milliseconds
G00 X301.657 Y110.84
;Nearing path end, moving to preshutoff position
G00 X302.982 Y119.871
M107 ;Pump off
G00 X303.033 Y120.22
G4 P0 ;Pause for 0 milliseconds
;Completed path #29/36 on color #1
;Starting path #30/36, segments: 6, length: 67, color #1
G00 X311.733 Y92.187
M106 ;Pump on
G4 P0 ;Pause for 0 milliseconds
G00 X311.658 Y85.18
;Nearing path end, moving to preshutoff position
G00 X311.729 Y91.834
M107 ;Pump off
G00 X311.733 Y92.187
G4 P0 ;Pause for 0 milliseconds
;Completed path #30/36 on color #1
;Starting path #31/36, segments: 8, length: 78, color #1
G00 X300.777 Y74.464
M106 ;Pump on
G4 P0 ;Pause for 0 milliseconds
G00 X292.301 Y73.97
;Nearing path end, moving to preshutoff position
G00 X300.425 Y74.444
M107 ;Pump off
G00 X300.777 Y74.464
G4 P0 ;Pause for 0 milliseconds
;Completed path #31/36 on color #1
;Starting path #32/36, segments: 7, length: 55, color #1
G00 X280.799 Y90.253
M106 ;Pump on
G4 P0 ;Pause for 0 milliseconds
G00 X285.208 Y96.738
;Nearing path end, moving to preshutoff position
G00 X280.998 Y90.545
M107 ;Pump off
G00 X280.799 Y90.253
G4 P0 ;Pause for 0 milliseconds
;Completed path #32/36 on color #1
;Starting path #33/36, segments: 6, length: 71, color #1
G00 X224.41 Y112.164
M106 ;Pump on
G4 P0 ;Pause for 0 milliseconds
G00 X226.226 Y120.9
;Nearing path end, moving to preshutoff position
G00 X224.482 Y112.51
M107 ;Pump off
G00 X224.41 Y112.164
G4 P0 ;Pause for 0 milliseconds
;Completed path #33/36 on color #1
;Starting path #34/36, segments: 7, length: 67, color #1
G00 X212.81 Y93.798
M106 ;Pump on
G4 P0 ;Pause for 0 milliseconds
G00 X213.22 Y102.268
;Nearing path end, moving to preshutoff position
G00 X212.827 Y94.15
M107 ;Pump off
G00 X212.81 Y93.798
G4 P0 ;Pause for 0 milliseconds
;Completed path #34/36 on color #1
;PancakePainter Footer Start
G4 P1000 ;Pause for 1000 milliseconds
G28 X0 Y0 ;Home All Axis
M84 ;Motors off
;PancakePainter Footer Complete
