;PancakePainter v1.0.0 GCODE header start
;Originally generated @ Mon Jun 27 2016 19:40:30 GMT-0400 (Eastern Daylight Time)
;Settings used to generate this file:
;----------------------------------------
;flattenResolution: 40
;lineEndPreShutoff: 1
;startWait: 0
;endWait: 0
;shadeChangeWait: 35
;fillSpacing: 15
;fillAngle: 23
;fillGroupThreshold: 27
;----------------------------------------
W1 X42 Y210 L485 T0 ;Define Workspace of this file
G21 ;Set units to MM
G1 F5600 ;Set Speed
M107 ;Pump off
G4 P1000 ;Pause for 1000 milliseconds
M84 ;Motors off
G28 X0 Y0 ;Home All Axis
;PancakePainter header complete
;Starting path #1/1, segments: 36, length: 1513, color #1
G00 X63.53 Y125.096
M106 ;Pump on
G4 P0 ;Pause for 0 milliseconds
G00 X66.229 Y111.39
G00 X71.388 Y98.333
G00 X77.035 Y85.464
G00 X82.559 Y72.585
G00 X88.42 Y59.827
G00 X97.512 Y49.306
G00 X108.057 Y40.073
G00 X118.917 Y31.28
G00 X131.787 Y25.712
G00 X145.595 Y23.379
G00 X159.411 Y25.348
G00 X169.929 Y34.152
G00 X180.921 Y42.868
G00 X187.954 Y54.768
G00 X193.453 Y67.655
G00 X198.345 Y80.792
G00 X205.143 Y92.953
G00 X213.385 Y104.282
G00 X221.366 Y115.797
G00 X231.883 Y125.092
G00 X244.339 Y130.415
G00 X258.192 Y131.414
G00 X271.48 Y126.915
G00 X281.201 Y117.171
G00 X288.822 Y105.381
G00 X296.942 Y93.932
G00 X303.512 Y81.531
G00 X309.726 Y68.931
G00 X315.526 Y56.158
G00 X322.2 Y43.825
G00 X333.373 Y36.01
G00 X346.361 Y35.388
G00 X355.743 Y45.17
G00 X359.666 Y58.59
G00 X364.856 Y71.383
G00 X367.604 Y85.142
G00 X372.248 Y98.297
;Nearing path end, moving to preshutoff position
G00 X384.442 Y101.673
M107 ;Pump off
G00 X384.782 Y101.767
G4 P0 ;Pause for 0 milliseconds
;Completed path #1/1 on color #1
;PancakePainter Footer Start
G4 P1000 ;Pause for 1000 milliseconds
G28 X0 Y0 ;Home All Axis
M84 ;Motors off
;PancakePainter Footer Complete
