;PancakePainter v1.0.0 GCODE header start
;Originally generated @ Mon Jun 27 2016 18:46:21 GMT-0400 (Eastern Daylight Time)
;Settings used to generate this file:
;----------------------------------------
;flattenResolution: 15
;lineEndPreShutoff: 1
;startWait: 0
;endWait: 0
;shadeChangeWait: 35
;fillSpacing: 15
;fillAngle: 23
;fillGroupThreshold: 27
;----------------------------------------
W1 X42 Y210 L485 T0 ;Define Workspace of this file
G21 ;Set units to MM
G1 F5600 ;Set Speed
M107 ;Pump off
G4 P1000 ;Pause for 1000 milliseconds
M84 ;Motors off
G28 X0 Y0 ;Home All Axis
;PancakePainter header complete
;Starting path #1/1, segments: 36, length: 1513, color #1
G00 X63.53 Y125.096
M106 ;Pump on
G4 P0 ;Pause for 0 milliseconds
G00 X64.101 Y119.846
G00 X65.093 Y114.67
G00 X66.848 Y109.69
G00 X68.74 Y104.759
G00 X70.74 Y99.869
G00 X72.816 Y95.009
G00 X74.942 Y90.171
G00 X77.092 Y85.337
G00 X79.233 Y80.51
G00 X81.305 Y75.668
G00 X83.293 Y70.784
G00 X85.372 Y65.92
G00 X87.684 Y61.168
G00 X90.392 Y56.634
G00 X93.68 Y52.506
G00 X97.738 Y49.145
G00 X101.931 Y45.899
G00 X105.792 Y42.321
G00 X109.537 Y38.599
G00 X113.432 Y35.051
G00 X117.722 Y31.996
G00 X122.364 Y29.445
G00 X127.187 Y27.299
G00 X132.185 Y25.594
G00 X137.316 Y24.344
G00 X142.543 Y23.578
G00 X147.819 Y23.358
G00 X153.082 Y23.776
G00 X158.227 Y24.947
G00 X163.088 Y26.989
G00 X167.038 Y30.414
G00 X170.321 Y34.542
G00 X174.412 Y37.871
G00 X178.664 Y41.019
G00 X182.63 Y44.5
G00 X185.633 Y48.803
G00 X187.58 Y53.714
G00 X189.336 Y58.723
G00 X191.343 Y63.581
G00 X193.768 Y68.274
G00 X195.826 Y73.13
G00 X197.473 Y78.146
G00 X199.199 Y83.144
G00 X201.443 Y87.92
G00 X204.523 Y92.203
G00 X207.916 Y96.252
G00 X211.068 Y100.486
G00 X213.812 Y104.999
G00 X216.572 Y109.503
G00 X219.637 Y113.801
G00 X223.249 Y117.647
G00 X227.283 Y121.062
G00 X231.28 Y124.528
G00 X235.272 Y127.956
G00 X240.067 Y130.129
G00 X245.306 Y130.373
G00 X250.531 Y130.98
G00 X255.719 Y131.77
G00 X260.864 Y130.648
G00 X265.793 Y128.744
G00 X270.819 Y127.13
G00 X275.349 Y124.59
G00 X278.783 Y120.572
G00 X281.825 Y116.242
G00 X284.682 Y111.8
G00 X287.507 Y107.328
G00 X290.523 Y103.008
G00 X293.656 Y98.755
G00 X296.647 Y94.403
G00 X299.28 Y89.826
G00 X301.715 Y85.139
G00 X304.066 Y80.409
G00 X306.413 Y75.677
G00 X308.774 Y70.941
G00 X310.999 Y66.161
G00 X313.163 Y61.341
G00 X315.35 Y56.535
G00 X317.656 Y51.789
G00 X320.173 Y47.144
G00 X323.018 Y42.71
G00 X327.12 Y39.383
G00 X331.683 Y37.231
G00 X336.01 Y34.203
G00 X341.209 Y33.625
G00 X346.128 Y35.229
G00 X350.515 Y38.152
G00 X354.048 Y41.811
G00 X356.384 Y46.556
G00 X358.153 Y51.521
G00 X359.296 Y56.678
G00 X360.345 Y61.856
G00 X362.285 Y66.688
G00 X364.817 Y71.25
G00 X366.015 Y76.393
G00 X366.965 Y81.578
G00 X367.934 Y86.781
G00 X369.262 Y91.893
G00 X371.312 Y96.752
G00 X374.44 Y100.986
G00 X379.507 Y102.019
;Nearing path end, moving to preshutoff position
G00 X384.43 Y101.784
M107 ;Pump off
G00 X384.782 Y101.767
G4 P0 ;Pause for 0 milliseconds
;Completed path #1/1 on color #1
;PancakePainter Footer Start
G4 P1000 ;Pause for 1000 milliseconds
G28 X0 Y0 ;Home All Axis
M84 ;Motors off
;PancakePainter Footer Complete
