;PancakePainter v1.0.0 GCODE header start
;Originally generated @ Thu Jun 23 2016 16:44:16 GMT-0400 (Eastern Daylight Time)
;Settings used to generate this file:
;----------------------------------------
;flattenResolution: 15
;lineEndPreShutoff: 1
;startWait: 0
;endWait: 0
;shadeChangeWait: 35
;fillSpacing: 15
;fillAngle: 23
;fillGroupThreshold: 27
;----------------------------------------
W1 X42 Y210 L485 T0 ;Define Workspace of this file
G21 ;Set units to MM
G1 F5600 ;Set Speed
M107 ;Pump off
G4 P1000 ;Pause for 1000 milliseconds
M84 ;Motors off
G28 X0 Y0 ;Home All Axis
;PancakePainter header complete
;Starting path #1/1, segments: 12, length: 5177, color #1
G00 X97.95 Y42.488
M106 ;Pump on
G4 P0 ;Pause for 0 milliseconds
G00 X102.972 Y43.935
G00 X107.88 Y45.829
G00 X112.782 Y47.821
G00 X117.636 Y49.845
G00 X122.497 Y51.904
G00 X127.35 Y53.983
G00 X132.196 Y56.077
G00 X137.038 Y58.182
G00 X141.881 Y60.3
G00 X146.731 Y62.429
G00 X151.559 Y64.557
G00 X156.368 Y66.683
G00 X161.194 Y68.822
G00 X166.036 Y70.974
G00 X170.847 Y73.117
G00 X175.658 Y75.263
G00 X180.491 Y77.423
G00 X185.304 Y79.577
G00 X190.113 Y81.732
G00 X194.945 Y83.9
G00 X199.747 Y86.057
G00 X204.561 Y88.222
G00 X209.385 Y90.392
G00 X214.184 Y92.554
G00 X219.006 Y94.728
G00 X223.81 Y96.895
G00 X228.622 Y99.066
G00 X233.437 Y101.24
G00 X238.24 Y103.411
G00 X243.059 Y105.589
G00 X247.86 Y107.76
G00 X252.673 Y109.937
G00 X257.479 Y112.112
G00 X262.288 Y114.288
G00 X267.097 Y116.465
G00 X271.9 Y118.64
G00 X276.706 Y120.817
G00 X281.516 Y122.995
G00 X286.329 Y125.175
G00 X291.141 Y127.355
G00 X295.95 Y129.534
G00 X300.753 Y131.71
G00 X305.56 Y133.887
G00 X310.365 Y136.063
G00 X315.177 Y138.242
G00 X319.977 Y140.416
G00 X324.794 Y142.596
G00 X329.597 Y144.77
G00 X334.41 Y146.947
G00 X339.219 Y149.123
G00 X344.024 Y151.295
G00 X348.841 Y153.472
G00 X353.637 Y155.638
G00 X358.461 Y157.816
G00 X363.269 Y159.985
G00 X368.076 Y162.152
G00 X372.899 Y164.325
G00 X377.697 Y166.485
G00 X382.521 Y168.654
G00 X387.34 Y170.819
G00 X392.133 Y172.97
G00 X396.97 Y175.137
G00 X401.791 Y177.294
G00 X406.591 Y179.438
G00 X411.422 Y181.592
G00 X416.256 Y183.743
G00 X421.077 Y185.882
G00 X425.885 Y188.01
G00 X430.712 Y190.139
G00 X435.559 Y192.268
G00 X440.403 Y194.385
G00 X445.247 Y196.49
G00 X450.092 Y198.578
G00 X454.933 Y200.642
G00 X459.798 Y202.684
G00 X464.706 Y204.692
G00 X469.63 Y206.595
G00 X474.306 Y206.945
G00 X473.177 Y201.859
G00 X470.969 Y197.059
G00 X468.51 Y192.396
G00 X465.92 Y187.796
G00 X463.25 Y183.239
G00 X460.521 Y178.708
G00 X457.766 Y174.221
G00 X454.97 Y169.733
G00 X452.16 Y165.275
G00 X449.325 Y160.815
G00 X446.481 Y156.373
G00 X443.633 Y151.946
G00 X440.76 Y147.5
G00 X437.895 Y143.079
G00 X435.017 Y138.647
G00 X432.14 Y134.219
G00 X429.262 Y129.79
G00 X426.386 Y125.361
G00 X423.516 Y120.935
G00 X420.643 Y116.49
G00 X417.794 Y112.066
G00 X414.947 Y107.624
G00 X412.113 Y103.172
G00 X409.293 Y98.705
G00 X406.501 Y94.234
G00 X403.73 Y89.734
G00 X400.998 Y85.217
G00 X398.322 Y80.679
G00 X395.715 Y76.094
G00 X393.214 Y71.432
G00 X390.938 Y66.683
G00 X389.306 Y61.685
G00 X388.874 Y58.545
G00 X383.727 Y57.407
G00 X378.532 Y56.464
G00 X373.326 Y55.594
G00 X368.106 Y54.766
G00 X362.876 Y53.965
G00 X357.671 Y53.188
G00 X352.452 Y52.425
G00 X347.227 Y51.673
G00 X342.001 Y50.932
G00 X336.773 Y50.198
G00 X331.545 Y49.471
G00 X326.315 Y48.75
G00 X321.084 Y48.033
G00 X315.852 Y47.32
G00 X310.617 Y46.611
G00 X305.382 Y45.905
G00 X300.155 Y45.203
G00 X294.928 Y44.503
G00 X289.697 Y43.805
G00 X284.473 Y43.108
G00 X279.247 Y42.414
G00 X273.997 Y41.716
G00 X268.772 Y41.024
G00 X263.537 Y40.33
G00 X258.298 Y39.636
G00 X253.064 Y38.942
G00 X247.835 Y38.249
G00 X242.587 Y37.554
G00 X237.368 Y36.861
G00 X232.138 Y36.166
G00 X226.905 Y35.469
G00 X221.675 Y34.771
G00 X216.447 Y34.071
G00 X211.223 Y33.369
G00 X205.988 Y32.664
G00 X200.754 Y31.955
G00 X195.521 Y31.242
G00 X190.29 Y30.526
G00 X185.06 Y29.804
G00 X179.832 Y29.076
G00 X174.606 Y28.34
G00 X169.385 Y27.596
G00 X164.174 Y26.842
G00 X158.942 Y26.069
G00 X153.708 Y25.276
G00 X148.524 Y24.463
G00 X143.288 Y23.597
G00 X138.099 Y22.658
G00 X132.962 Y21.457
G00 X135.393 Y22.782
G00 X138.195 Y27.277
G00 X140.623 Y31.941
G00 X142.905 Y36.703
G00 X145.092 Y41.506
G00 X147.218 Y46.339
G00 X149.303 Y51.2
G00 X151.345 Y56.055
G00 X153.37 Y60.941
G00 X155.366 Y65.816
G00 X157.351 Y70.711
G00 X159.321 Y75.607
G00 X161.277 Y80.496
G00 X163.233 Y85.408
G00 X165.178 Y90.307
G00 X167.124 Y95.221
G00 X169.066 Y100.13
G00 X171.008 Y105.043
G00 X172.951 Y109.951
G00 X174.896 Y114.859
G00 X176.85 Y119.773
G00 X178.801 Y124.661
G00 X180.767 Y129.561
G00 X182.742 Y134.447
G00 X184.737 Y139.343
G00 X186.745 Y144.218
G00 X188.781 Y149.095
G00 X190.84 Y153.941
G00 X192.948 Y158.793
G00 X195.106 Y163.613
G00 X197.341 Y168.396
G00 X199.692 Y173.109
G00 X202.285 Y177.711
G00 X205.703 Y181.634
G00 X210.889 Y180.905
G00 X216.064 Y179.857
G00 X221.225 Y178.725
G00 X226.375 Y177.544
G00 X231.51 Y176.33
G00 X236.64 Y175.091
G00 X241.76 Y173.834
G00 X246.88 Y172.559
G00 X251.998 Y171.271
G00 X257.113 Y169.972
G00 X262.219 Y168.665
G00 X267.331 Y167.347
G00 X272.445 Y166.02
G00 X277.557 Y164.686
G00 X282.671 Y163.345
G00 X287.773 Y162.001
G00 X292.876 Y160.652
G00 X297.976 Y159.297
G00 X303.066 Y157.941
G00 X308.174 Y156.575
G00 X313.266 Y155.209
G00 X318.359 Y153.839
G00 X323.453 Y152.464
G00 X328.55 Y151.084
G00 X333.642 Y149.702
G00 X338.733 Y148.317
G00 X343.834 Y146.925
G00 X348.926 Y145.531
G00 X354.014 Y144.134
G00 X354.978 Y141.215
G00 X352.059 Y136.824
G00 X349.161 Y132.422
G00 X346.27 Y127.991
G00 X343.403 Y123.56
G00 X340.553 Y119.118
G00 X337.724 Y114.671
G00 X334.909 Y110.208
G00 X332.11 Y105.728
G00 X329.343 Y101.254
G00 X326.581 Y96.743
G00 X323.845 Y92.225
G00 X321.138 Y87.698
G00 X318.453 Y83.148
G00 X315.798 Y78.582
G00 X313.181 Y74.005
G00 X310.593 Y69.394
G00 X308.047 Y64.759
G00 X305.563 Y60.122
G00 X303.128 Y55.437
G00 X300.765 Y50.722
G00 X298.487 Y45.963
G00 X296.318 Y41.148
G00 X294.301 Y36.274
G00 X292.503 Y31.309
G00 X291.066 Y26.233
G00 X290.378 Y21.008
G00 X292.072 Y16.201
G00 X297.169 Y15.505
G00 X298.059 Y19.822
G00 X295.081 Y24.194
G00 X291.617 Y28.15
G00 X287.941 Y31.94
G00 X284.158 Y35.621
G00 X280.302 Y39.233
G00 X276.4 Y42.793
G00 X272.471 Y46.309
G00 X268.508 Y49.806
G00 X264.544 Y53.267
G00 X260.549 Y56.729
G00 X256.558 Y60.171
G00 X252.55 Y63.617
G00 X248.542 Y67.059
G00 X244.538 Y70.502
G00 X240.534 Y73.953
G00 X236.548 Y77.405
G00 X232.566 Y80.877
G00 X228.614 Y84.356
G00 X224.669 Y87.872
G00 X220.761 Y91.413
G00 X216.886 Y95
G00 X213.062 Y98.646
G00 X209.318 Y102.367
G00 X205.691 Y106.203
G00 X202.281 Y110.213
G00 X199.355 Y114.601
G00 X199.391 Y119.405
G00 X204.536 Y120.017
G00 X209.713 Y119.102
G00 X214.821 Y117.778
G00 X219.883 Y116.249
G00 X224.894 Y114.601
G00 X229.892 Y112.862
G00 X234.84 Y111.07
G00 X239.784 Y109.226
G00 X244.717 Y107.341
G00 X249.64 Y105.425
G00 X254.551 Y103.484
G00 X259.452 Y101.522
G00 X264.344 Y99.543
G00 X269.229 Y97.548
G00 X274.107 Y95.54
G00 X278.982 Y93.521
G00 X283.853 Y91.492
G00 X288.721 Y89.455
G00 X293.587 Y87.41
G00 X298.452 Y85.359
G00 X303.316 Y83.302
G00 X308.178 Y81.241
G00 X313.014 Y79.188
G00 X317.882 Y77.119
G00 X322.737 Y75.053
G00 X327.593 Y72.985
G00 X332.457 Y70.915
G00 X337.311 Y68.849
G00 X342.17 Y66.782
G00 X347.032 Y64.716
G00 X351.89 Y62.655
G00 X356.754 Y60.596
G00 X361.62 Y58.54
G00 X366.473 Y56.496
G00 X371.358 Y54.445
G00 X376.214 Y52.414
G00 X381.082 Y50.386
G00 X385.958 Y48.364
G00 X390.838 Y46.353
G00 X395.72 Y44.353
G00 X400.607 Y42.366
G00 X405.498 Y40.392
G00 X410.394 Y38.435
G00 X415.304 Y36.492
G00 X420.22 Y34.571
G00 X425.145 Y32.672
G00 X430.078 Y30.801
G00 X435.02 Y28.962
G00 X439.987 Y27.156
G00 X444.971 Y25.393
G00 X449.971 Y23.684
G00 X454.983 Y22.046
G00 X460.017 Y20.495
G00 X465.111 Y19.053
G00 X470.231 Y17.786
G00 X475.411 Y16.79
G00 X480.665 Y16.339
G00 X485.873 Y16.979
G00 X491.076 Y17.864
G00 X496.272 Y18.784
G00 X501.472 Y19.685
G00 X506.684 Y20.509
G00 X511.908 Y21.258
G00 X517.121 Y22.075
G00 X522.305 Y23.025
;Nearing path end, moving to preshutoff position
G00 X526.32 Y23.69
M107 ;Pump off
G00 X526.668 Y23.748
G4 P0 ;Pause for 0 milliseconds
;Completed path #1/1 on color #1
;PancakePainter Footer Start
G4 P1000 ;Pause for 1000 milliseconds
G28 X0 Y0 ;Home All Axis
M84 ;Motors off
;PancakePainter Footer Complete
