;PancakePainter v1.0.0 GCODE header start
;Originally generated @ Mon Jun 27 2016 18:55:26 GMT-0400 (Eastern Daylight Time)
;Settings used to generate this file:
;----------------------------------------
;flattenResolution: 10
;lineEndPreShutoff: 1
;startWait: 0
;endWait: 0
;shadeChangeWait: 35
;fillSpacing: 15
;fillAngle: 23
;fillGroupThreshold: 27
;----------------------------------------
W1 X42 Y210 L485 T0 ;Define Workspace of this file
G21 ;Set units to MM
G1 F5600 ;Set Speed
M107 ;Pump off
G4 P1000 ;Pause for 1000 milliseconds
M84 ;Motors off
G28 X0 Y0 ;Home All Axis
;PancakePainter header complete
;Starting path #1/12, segments: 14, length: 602, color #1
G00 X140.784 Y48.607
M106 ;Pump on
G4 P0 ;Pause for 0 milliseconds
G00 X144.262 Y48.61
G00 X147.741 Y48.619
G00 X151.221 Y48.63
G00 X154.701 Y48.639
G00 X158.182 Y48.643
G00 X161.662 Y48.64
G00 X165.143 Y48.625
G00 X168.623 Y48.596
G00 X172.102 Y48.549
G00 X175.581 Y48.481
G00 X179.059 Y48.388
G00 X182.537 Y48.268
G00 X186.012 Y48.071
G00 X189.476 Y47.722
G00 X192.933 Y47.347
G00 X196.401 Y47.089
G00 X199.88 Y47.085
G00 X203.351 Y47.191
G00 X206.838 Y47.248
G00 X210.317 Y47.284
G00 X213.801 Y47.328
G00 X217.281 Y47.406
G00 X220.756 Y47.548
G00 X224.228 Y47.781
G00 X227.673 Y48.243
G00 X231.103 Y48.848
G00 X234.568 Y49.12
G00 X238.011 Y48.641
G00 X241.422 Y47.96
G00 X244.8 Y47.134
G00 X248.019 Y45.873
G00 X250.544 Y45.498
G00 X250.536 Y48.977
G00 X250.525 Y52.458
G00 X250.52 Y55.938
G00 X250.531 Y59.418
G00 X250.569 Y62.899
G00 X250.644 Y66.377
G00 X250.764 Y69.855
G00 X250.942 Y73.33
G00 X251.172 Y76.804
G00 X251.435 Y80.273
G00 X251.714 Y83.741
G00 X251.995 Y87.209
G00 X252.26 Y90.679
G00 X252.493 Y94.151
G00 X252.677 Y97.625
G00 X252.798 Y101.103
G00 X252.839 Y104.584
G00 X252.839 Y108.064
G00 X252.839 Y111.543
G00 X252.839 Y115.023
G00 X252.839 Y118.503
G00 X252.839 Y121.983
G00 X252.839 Y125.463
G00 X252.714 Y128.936
G00 X252.48 Y132.413
G00 X252.746 Y135.873
G00 X253.946 Y139.134
G00 X253.437 Y141.076
;Nearing path end, moving to preshutoff position
G00 X252.09 Y143.511
M107 ;Pump off
G00 X251.919 Y143.82
G4 P0 ;Pause for 0 milliseconds
;Completed path #1/12 on color #1
;Starting path #2/12, segments: 12, length: 636, color #1
G00 X253.222 Y140.012
M106 ;Pump on
G4 P0 ;Pause for 0 milliseconds
G00 X255.589 Y142.417
G00 X257.745 Y145.029
G00 X260.382 Y146.909
G00 X256.955 Y146.038
G00 X253.528 Y145.425
G00 X250.04 Y145.074
G00 X246.533 Y144.986
G00 X243.026 Y145.034
G00 X239.52 Y145.12
G00 X236.014 Y145.216
G00 X232.509 Y145.291
G00 X229.002 Y145.318
G00 X225.496 Y145.266
G00 X221.993 Y145.106
G00 X218.495 Y144.853
G00 X214.991 Y144.709
G00 X211.485 Y144.67
G00 X207.977 Y144.697
G00 X204.469 Y144.751
G00 X200.962 Y144.792
G00 X197.456 Y144.783
G00 X193.95 Y144.684
G00 X190.47 Y144.492
G00 X186.96 Y144.351
G00 X183.448 Y144.275
G00 X179.936 Y144.258
G00 X176.423 Y144.298
G00 X172.913 Y144.394
G00 X169.405 Y144.551
G00 X165.901 Y144.774
G00 X162.415 Y145.069
G00 X158.929 Y145.391
G00 X155.434 Y145.693
G00 X151.94 Y145.937
G00 X148.435 Y146.092
G00 X146.401 Y145.615
G00 X147.652 Y142.714
G00 X147.548 Y139.209
G00 X147.366 Y135.707
G00 X147.129 Y132.207
G00 X146.858 Y128.711
G00 X146.575 Y125.215
G00 X146.304 Y121.717
G00 X146.063 Y118.22
G00 X145.832 Y114.72
G00 X145.603 Y111.221
G00 X145.374 Y107.721
G00 X145.147 Y104.222
G00 X144.92 Y100.722
G00 X144.693 Y97.222
G00 X144.468 Y93.722
G00 X144.242 Y90.223
G00 X144.017 Y86.723
G00 X143.793 Y83.223
G00 X143.569 Y79.723
G00 X143.345 Y76.223
G00 X143.121 Y72.723
G00 X142.897 Y69.223
G00 X142.673 Y65.724
G00 X142.448 Y62.224
G00 X142.224 Y58.724
G00 X141.999 Y55.224
G00 X141.774 Y51.724
;Nearing path end, moving to preshutoff position
G00 X141.571 Y48.576
M107 ;Pump off
G00 X141.549 Y48.224
G4 P0 ;Pause for 0 milliseconds
;Completed path #2/12 on color #1
;Starting path #3/12, segments: 38, length: 8880, color #1
G00 X143.375 Y61.126
M106 ;Pump on
G4 P0 ;Pause for 0 milliseconds
G00 X144.748 Y57.89
G00 X146.136 Y54.62
G00 X147.511 Y51.38
G00 X148.07 Y50.874
G00 X147.444 Y54.347
G00 X146.82 Y57.812
G00 X146.192 Y61.297
G00 X145.564 Y64.78
G00 X144.94 Y68.244
G00 X144.313 Y71.722
G00 X144.95 Y70.95
G00 X146.33 Y67.7
G00 X147.704 Y64.463
G00 X149.088 Y61.203
G00 X150.471 Y57.944
G00 X151.846 Y54.705
G00 X153.226 Y51.454
G00 X153.732 Y50.761
G00 X152.841 Y54.179
G00 X151.949 Y57.604
G00 X151.062 Y61.007
G00 X150.171 Y64.425
G00 X149.279 Y67.848
G00 X148.386 Y71.272
G00 X147.5 Y74.674
G00 X146.609 Y78.091
G00 X145.719 Y81.507
G00 X145.074 Y84.194
G00 X146.451 Y80.951
G00 X147.834 Y77.693
G00 X149.211 Y74.45
G00 X150.585 Y71.212
G00 X151.968 Y67.955
G00 X153.35 Y64.697
G00 X154.733 Y61.44
G00 X156.108 Y58.201
G00 X157.482 Y54.963
G00 X158.862 Y51.712
G00 X159.505 Y50.493
G00 X158.482 Y53.873
G00 X157.463 Y57.24
G00 X156.439 Y60.623
G00 X155.417 Y63.998
G00 X154.395 Y67.374
G00 X153.374 Y70.746
G00 X152.348 Y74.136
G00 X151.328 Y77.507
G00 X150.304 Y80.89
G00 X149.282 Y84.267
G00 X148.262 Y87.637
G00 X147.239 Y91.018
G00 X146.214 Y94.403
G00 X145.99 Y95.573
G00 X147.37 Y92.323
G00 X148.746 Y89.08
G00 X150.126 Y85.831
G00 X151.501 Y82.59
G00 X152.882 Y79.336
G00 X154.258 Y76.095
G00 X155.64 Y72.839
G00 X157.021 Y69.587
G00 X158.397 Y66.345
G00 X159.778 Y63.091
G00 X161.157 Y59.842
G00 X162.534 Y56.598
G00 X163.917 Y53.339
G00 X165.289 Y50.107
G00 X164.69 Y52.143
G00 X163.604 Y55.479
G00 X162.507 Y58.847
G00 X161.417 Y62.196
G00 X160.321 Y65.56
G00 X159.231 Y68.909
G00 X158.138 Y72.266
G00 X157.048 Y75.615
G00 X155.952 Y78.982
G00 X154.857 Y82.343
G00 X153.767 Y85.693
G00 X152.676 Y89.043
G00 X151.581 Y92.407
G00 X150.488 Y95.762
G00 X149.395 Y99.122
G00 X148.307 Y102.462
G00 X147.215 Y105.818
G00 X147.298 Y106.028
G00 X148.677 Y102.781
G00 X150.048 Y99.551
G00 X151.434 Y96.284
G00 X152.807 Y93.05
G00 X154.188 Y89.797
G00 X155.569 Y86.542
G00 X156.945 Y83.301
G00 X158.323 Y80.056
G00 X159.707 Y76.794
G00 X161.084 Y73.551
G00 X162.461 Y70.307
G00 X163.843 Y67.051
G00 X165.222 Y63.801
G00 X166.596 Y60.565
G00 X167.982 Y57.3
G00 X169.351 Y54.073
G00 X170.731 Y50.823
G00 X170.646 Y51.392
G00 X169.501 Y54.73
G00 X168.354 Y58.072
G00 X167.217 Y61.387
G00 X166.071 Y64.725
G00 X164.924 Y68.069
G00 X163.777 Y71.411
G00 X162.631 Y74.751
G00 X161.486 Y78.089
G00 X160.345 Y81.413
G00 X159.196 Y84.762
G00 X158.047 Y88.111
G00 X156.906 Y91.435
G00 X155.761 Y94.773
G00 X154.615 Y98.112
G00 X153.468 Y101.455
G00 X152.321 Y104.799
G00 X151.175 Y108.138
G00 X150.038 Y111.451
G00 X148.891 Y114.794
G00 X147.745 Y118.133
G00 X147.623 Y118.8
G00 X149.002 Y115.55
G00 X150.379 Y112.306
G00 X151.759 Y109.054
G00 X153.131 Y105.823
G00 X154.509 Y102.577
G00 X155.888 Y99.328
G00 X157.268 Y96.078
G00 X158.647 Y92.828
G00 X160.023 Y89.585
G00 X161.403 Y86.334
G00 X162.788 Y83.072
G00 X164.168 Y79.822
G00 X165.544 Y76.579
G00 X166.924 Y73.329
G00 X168.303 Y70.079
G00 X169.682 Y66.831
G00 X171.059 Y63.588
G00 X172.433 Y60.35
G00 X173.81 Y57.106
G00 X175.191 Y53.852
G00 X176.57 Y50.604
G00 X176.255 Y51.705
G00 X175.074 Y55.034
G00 X173.894 Y58.361
G00 X172.717 Y61.678
G00 X171.537 Y65.005
G00 X170.359 Y68.326
G00 X169.18 Y71.65
G00 X168.001 Y74.973
G00 X166.822 Y78.296
G00 X165.642 Y81.622
G00 X164.465 Y84.941
G00 X163.285 Y88.267
G00 X162.1 Y91.607
G00 X160.917 Y94.942
G00 X159.742 Y98.252
G00 X158.562 Y101.58
G00 X157.381 Y104.909
G00 X156.2 Y108.238
G00 X155.019 Y111.567
G00 X153.839 Y114.894
G00 X152.665 Y118.202
G00 X151.486 Y121.525
G00 X150.306 Y124.853
G00 X149.127 Y128.176
G00 X147.947 Y131.503
G00 X148.988 Y129.12
G00 X150.363 Y125.88
G00 X151.742 Y122.631
G00 X153.121 Y119.383
G00 X154.501 Y116.133
G00 X155.878 Y112.889
G00 X157.255 Y109.645
G00 X158.632 Y106.401
G00 X160.01 Y103.155
G00 X161.388 Y99.906
G00 X162.766 Y96.662
G00 X164.143 Y93.417
G00 X165.527 Y90.155
G00 X166.911 Y86.895
G00 X168.286 Y83.655
G00 X169.665 Y80.408
G00 X171.045 Y77.157
G00 X172.424 Y73.908
G00 X173.802 Y70.66
G00 X175.181 Y67.412
G00 X176.555 Y64.176
G00 X177.933 Y60.93
G00 X179.31 Y57.686
G00 X180.687 Y54.442
G00 X182.068 Y51.187
G00 X182.638 Y49.991
G00 X181.433 Y53.3
G00 X180.225 Y56.618
G00 X179.02 Y59.928
G00 X177.813 Y63.244
G00 X176.606 Y66.559
G00 X175.399 Y69.874
G00 X174.199 Y73.171
G00 X172.99 Y76.491
G00 X171.78 Y79.814
G00 X170.571 Y83.135
G00 X169.367 Y86.443
G00 X168.162 Y89.751
G00 X166.956 Y93.065
G00 X165.744 Y96.394
G00 X164.532 Y99.723
G00 X163.325 Y103.039
G00 X162.121 Y106.344
G00 X160.917 Y109.653
G00 X159.706 Y112.977
G00 X158.497 Y116.299
G00 X157.289 Y119.617
G00 X156.088 Y122.915
G00 X154.882 Y126.229
G00 X153.675 Y129.542
G00 X152.468 Y132.859
G00 X151.26 Y136.176
G00 X150.053 Y139.492
G00 X148.845 Y142.808
G00 X149.201 Y142.154
G00 X150.584 Y138.897
G00 X151.96 Y135.656
G00 X153.342 Y132.4
G00 X154.719 Y129.154
G00 X156.096 Y125.91
G00 X157.473 Y122.666
G00 X158.845 Y119.435
G00 X160.224 Y116.186
G00 X161.606 Y112.931
G00 X162.988 Y109.674
G00 X164.363 Y106.435
G00 X165.738 Y103.195
G00 X167.116 Y99.949
G00 X168.5 Y96.688
G00 X169.885 Y93.426
G00 X171.264 Y90.177
G00 X172.637 Y86.942
G00 X174.016 Y83.695
G00 X175.398 Y80.439
G00 X176.777 Y77.188
G00 X178.154 Y73.945
G00 X179.526 Y70.712
G00 X180.906 Y67.462
G00 X182.285 Y64.212
G00 X183.664 Y60.964
G00 X185.041 Y57.72
G00 X186.421 Y54.468
G00 X187.799 Y51.223
G00 X188.637 Y49.344
G00 X187.428 Y52.661
G00 X186.221 Y55.974
G00 X185.013 Y59.286
G00 X183.806 Y62.599
G00 X182.597 Y65.915
G00 X181.388 Y69.232
G00 X180.188 Y72.526
G00 X178.977 Y75.848
G00 X177.765 Y79.174
G00 X176.559 Y82.482
G00 X175.352 Y85.794
G00 X174.144 Y89.106
G00 X172.939 Y92.415
G00 X171.726 Y95.742
G00 X170.512 Y99.072
G00 X169.302 Y102.391
G00 X168.1 Y105.689
G00 X166.891 Y109.008
G00 X165.68 Y112.33
G00 X164.471 Y115.647
G00 X163.265 Y118.956
G00 X162.062 Y122.257
G00 X160.852 Y125.575
G00 X159.644 Y128.892
G00 X158.435 Y132.206
G00 X157.23 Y135.514
G00 X156.019 Y138.837
G00 X154.813 Y142.144
G00 X154.388 Y143.47
G00 X155.769 Y140.217
G00 X157.148 Y136.97
G00 X158.524 Y133.728
G00 X159.902 Y130.481
G00 X161.281 Y127.232
G00 X162.661 Y123.98
G00 X164.03 Y120.755
G00 X165.414 Y117.496
G00 X166.793 Y114.246
G00 X168.168 Y111.006
G00 X169.548 Y107.757
G00 X170.928 Y104.506
G00 X172.301 Y101.271
G00 X173.683 Y98.016
G00 X175.068 Y94.753
G00 X176.45 Y91.495
G00 X177.825 Y88.257
G00 X179.204 Y85.009
G00 X180.581 Y81.763
G00 X181.956 Y78.525
G00 X183.34 Y75.265
G00 X184.722 Y72.009
G00 X186.092 Y68.781
G00 X187.471 Y65.532
G00 X188.849 Y62.284
G00 X190.228 Y59.036
G00 X191.606 Y55.791
G00 X192.986 Y52.54
G00 X194.364 Y49.292
G00 X194.296 Y49.712
G00 X193.084 Y53.037
G00 X191.879 Y56.342
G00 X190.668 Y59.664
G00 X189.461 Y62.976
G00 X188.253 Y66.291
G00 X187.046 Y69.6
G00 X185.843 Y72.9
G00 X184.635 Y76.214
G00 X183.425 Y79.534
G00 X182.214 Y82.857
G00 X181.006 Y86.169
G00 X179.802 Y89.472
G00 X178.593 Y92.788
G00 X177.38 Y96.117
G00 X176.167 Y99.445
G00 X174.959 Y102.758
G00 X173.753 Y106.066
G00 X172.547 Y109.374
G00 X171.337 Y112.693
G00 X170.126 Y116.017
G00 X168.916 Y119.336
G00 X167.714 Y122.632
G00 X166.506 Y125.947
G00 X165.298 Y129.261
G00 X164.089 Y132.577
G00 X162.882 Y135.889
G00 X161.672 Y139.207
G00 X160.465 Y142.52
G00 X160.88 Y141.715
G00 X162.262 Y138.459
G00 X163.638 Y135.215
G00 X165.02 Y131.961
G00 X166.398 Y128.714
G00 X167.775 Y125.47
G00 X169.152 Y122.226
G00 X170.523 Y118.995
G00 X171.902 Y115.746
G00 X173.284 Y112.491
G00 X174.666 Y109.235
G00 X176.041 Y105.995
G00 X177.417 Y102.754
G00 X178.794 Y99.509
G00 X180.178 Y96.249
G00 X181.563 Y92.987
G00 X182.943 Y89.736
G00 X184.315 Y86.503
G00 X185.694 Y83.253
G00 X187.076 Y79.998
G00 X188.455 Y76.749
G00 X189.831 Y73.508
G00 X191.206 Y70.27
G00 X192.585 Y67.02
G00 X193.964 Y63.771
G00 X195.342 Y60.524
G00 X196.721 Y57.276
G00 X198.097 Y54.035
G00 X199.478 Y50.781
G00 X200.583 Y48.227
G00 X199.376 Y51.539
G00 X198.168 Y54.855
G00 X196.958 Y58.178
G00 X195.752 Y61.488
G00 X194.544 Y64.804
G00 X193.335 Y68.122
G00 X192.136 Y71.414
G00 X190.925 Y74.738
G00 X189.714 Y78.064
G00 X188.51 Y81.368
G00 X187.303 Y84.681
G00 X186.096 Y87.996
G00 X184.891 Y91.303
G00 X183.679 Y94.629
G00 X182.466 Y97.96
G00 X181.257 Y101.28
G00 X180.056 Y104.577
G00 X178.846 Y107.898
G00 X177.636 Y111.22
G00 X176.428 Y114.536
G00 X175.223 Y117.844
G00 X174.02 Y121.148
G00 X172.811 Y124.466
G00 X171.603 Y127.783
G00 X170.395 Y131.097
G00 X169.19 Y134.406
G00 X167.98 Y137.729
G00 X166.775 Y141.035
G00 X166.352 Y142.358
G00 X167.731 Y139.109
G00 X169.112 Y135.857
G00 X170.486 Y132.619
G00 X171.864 Y129.372
G00 X173.243 Y126.123
G00 X174.623 Y122.873
G00 X175.993 Y119.646
G00 X177.375 Y116.391
G00 X178.758 Y113.131
G00 X180.133 Y109.892
G00 X181.511 Y106.647
G00 X182.889 Y103.4
G00 X184.264 Y100.16
G00 X185.647 Y96.902
G00 X187.032 Y93.639
G00 X188.413 Y90.385
G00 X189.785 Y87.154
G00 X191.166 Y83.9
G00 X192.546 Y80.648
G00 X193.924 Y77.402
G00 X195.297 Y74.167
G00 X196.68 Y70.91
G00 X198.055 Y67.669
G00 X199.433 Y64.423
G00 X200.811 Y61.177
G00 X202.191 Y57.926
G00 X203.567 Y54.683
G00 X204.943 Y51.442
G00 X206.262 Y48.345
G00 X205.058 Y51.652
G00 X203.852 Y54.965
G00 X202.643 Y58.286
G00 X201.435 Y61.603
G00 X200.228 Y64.918
G00 X199.022 Y68.23
G00 X197.822 Y71.527
G00 X196.611 Y74.852
G00 X195.403 Y78.172
G00 X194.199 Y81.478
G00 X192.992 Y84.793
G00 X191.785 Y88.109
G00 X190.581 Y91.415
G00 X189.37 Y94.741
G00 X188.157 Y98.072
G00 X186.948 Y101.393
G00 X185.748 Y104.69
G00 X184.538 Y108.012
G00 X183.329 Y111.333
G00 X182.122 Y114.649
G00 X180.917 Y117.957
G00 X179.714 Y121.263
G00 X178.506 Y124.581
G00 X177.298 Y127.897
G00 X176.091 Y131.212
G00 X174.887 Y134.521
G00 X173.677 Y137.844
G00 X172.473 Y141.151
G00 X172.069 Y142.427
G00 X173.447 Y139.181
G00 X174.827 Y135.929
G00 X176.202 Y132.69
G00 X177.58 Y129.442
G00 X178.959 Y126.194
G00 X180.339 Y122.944
G00 X181.708 Y119.717
G00 X183.09 Y116.462
G00 X184.474 Y113.203
G00 X185.849 Y109.963
G00 X187.226 Y106.717
G00 X188.604 Y103.471
G00 X189.98 Y100.231
G00 X191.363 Y96.972
G00 X192.748 Y93.709
G00 X194.129 Y90.456
G00 X195.5 Y87.225
G00 X196.881 Y83.971
G00 X198.262 Y80.718
G00 X199.64 Y77.472
G00 X201.014 Y74.236
G00 X202.395 Y70.982
G00 X203.771 Y67.739
G00 X205.149 Y64.493
G00 X206.527 Y61.246
G00 X207.907 Y57.996
G00 X209.282 Y54.757
G00 X210.661 Y51.508
G00 X211.897 Y48.62
G00 X210.691 Y51.938
G00 X209.485 Y55.254
G00 X208.275 Y58.58
G00 X207.072 Y61.889
G00 X205.866 Y65.205
G00 X204.659 Y68.524
G00 X203.462 Y71.816
G00 X202.253 Y75.14
G00 X201.044 Y78.467
G00 X199.841 Y81.774
G00 X198.636 Y85.087
G00 X197.431 Y88.4
G00 X196.227 Y91.711
G00 X195.017 Y95.038
G00 X193.806 Y98.369
G00 X192.599 Y101.688
G00 X191.398 Y104.99
G00 X190.193 Y108.305
G00 X188.984 Y111.629
G00 X187.777 Y114.949
G00 X186.571 Y118.264
G00 X185.371 Y121.565
G00 X184.167 Y124.877
G00 X182.962 Y128.189
G00 X181.755 Y131.507
G00 X180.547 Y134.829
G00 X179.342 Y138.143
G00 X178.136 Y141.46
G00 X178.365 Y141.13
G00 X179.747 Y137.874
G00 X181.122 Y134.636
G00 X182.504 Y131.38
G00 X183.882 Y128.133
G00 X185.259 Y124.889
G00 X186.636 Y121.645
G00 X188.008 Y118.413
G00 X189.386 Y115.165
G00 X190.767 Y111.911
G00 X192.15 Y108.654
G00 X193.526 Y105.413
G00 X194.9 Y102.175
G00 X196.279 Y98.927
G00 X197.663 Y95.666
G00 X199.048 Y92.404
G00 X200.426 Y89.157
G00 X201.801 Y85.919
G00 X203.176 Y82.678
G00 X204.559 Y79.421
G00 X205.94 Y76.166
G00 X207.319 Y72.918
G00 X208.691 Y69.686
G00 X210.068 Y66.442
G00 X211.444 Y63.199
G00 X212.823 Y59.95
G00 X214.205 Y56.696
G00 X215.58 Y53.456
G00 X216.96 Y50.204
G00 X217.158 Y49.954
G00 X215.952 Y53.27
G00 X214.748 Y56.583
G00 X213.539 Y59.906
G00 X212.333 Y63.223
G00 X211.128 Y66.536
G00 X209.924 Y69.847
G00 X208.724 Y73.149
G00 X207.519 Y76.463
G00 X206.312 Y79.783
G00 X205.103 Y83.106
G00 X203.897 Y86.423
G00 X202.697 Y89.724
G00 X201.49 Y93.043
G00 X200.279 Y96.374
G00 X199.069 Y99.702
G00 X197.865 Y103.012
G00 X196.66 Y106.325
G00 X195.455 Y109.639
G00 X194.253 Y112.945
G00 X193.043 Y116.272
G00 X191.835 Y119.596
G00 X190.637 Y122.889
G00 X189.431 Y126.206
G00 X188.225 Y129.522
G00 X187.021 Y132.834
G00 X185.812 Y136.159
G00 X184.607 Y139.473
G00 X183.402 Y142.786
G00 X184.703 Y139.736
G00 X186.078 Y136.495
G00 X187.455 Y133.251
G00 X188.835 Y129.999
G00 X190.214 Y126.753
G00 X191.591 Y123.508
G00 X192.965 Y120.271
G00 X194.349 Y117.011
G00 X195.723 Y113.772
G00 X197.1 Y110.529
G00 X198.48 Y107.279
G00 X199.86 Y104.027
G00 X201.233 Y100.793
G00 X202.615 Y97.537
G00 X204 Y94.274
G00 X205.382 Y91.017
G00 X206.756 Y87.781
G00 X208.135 Y84.531
G00 X209.515 Y81.282
G00 X210.89 Y78.041
G00 X212.268 Y74.795
G00 X213.651 Y71.537
G00 X215.023 Y68.303
G00 X216.4 Y65.06
G00 X217.778 Y61.815
G00 X219.158 Y58.562
G00 X220.538 Y55.311
G00 X221.916 Y52.065
G00 X223.294 Y48.818
G00 X222.169 Y51.927
G00 X220.965 Y55.236
G00 X219.759 Y58.553
G00 X218.551 Y61.874
G00 X217.345 Y65.188
G00 X216.141 Y68.499
G00 X214.941 Y71.798
G00 X213.731 Y75.123
G00 X212.523 Y78.443
G00 X211.321 Y81.75
G00 X210.115 Y85.065
G00 X208.908 Y88.381
G00 X207.705 Y91.688
G00 X206.495 Y95.014
G00 X205.284 Y98.345
G00 X204.076 Y101.666
G00 X202.876 Y104.964
G00 X201.668 Y108.286
G00 X200.459 Y111.608
G00 X199.252 Y114.925
G00 X198.048 Y118.236
G00 X196.847 Y121.538
G00 X195.64 Y124.855
G00 X194.434 Y128.172
G00 X193.228 Y131.486
G00 X192.023 Y134.799
G00 X190.816 Y138.116
G00 X189.608 Y141.438
G00 X189.457 Y142.072
G00 X190.836 Y138.823
G00 X192.215 Y135.574
G00 X193.594 Y132.326
G00 X194.973 Y129.077
G00 X196.351 Y125.831
G00 X197.729 Y122.584
G00 X199.1 Y119.353
G00 X200.48 Y116.103
G00 X201.862 Y112.847
G00 X203.244 Y109.592
G00 X204.619 Y106.352
G00 X205.994 Y103.112
G00 X207.372 Y99.866
G00 X208.756 Y96.605
G00 X210.141 Y93.343
G00 X211.52 Y90.095
G00 X212.894 Y86.857
G00 X214.27 Y83.615
G00 X215.652 Y80.358
G00 X217.033 Y77.105
G00 X218.412 Y73.856
G00 X219.784 Y70.624
G00 X221.161 Y67.38
G00 X222.538 Y64.136
G00 X223.917 Y60.887
G00 X225.298 Y57.633
G00 X226.675 Y54.39
G00 X228.05 Y51.151
G00 X228.142 Y51.171
G00 X226.939 Y54.484
G00 X225.736 Y57.794
G00 X224.529 Y61.116
G00 X223.326 Y64.429
G00 X222.121 Y67.746
G00 X220.917 Y71.06
G00 X219.717 Y74.363
G00 X218.514 Y77.675
G00 X217.308 Y80.994
G00 X216.101 Y84.316
G00 X214.895 Y87.638
G00 X213.696 Y90.936
G00 X212.49 Y94.258
G00 X211.279 Y97.59
G00 X210.071 Y100.916
G00 X208.869 Y104.223
G00 X207.664 Y107.54
G00 X206.459 Y110.857
G00 X205.257 Y114.167
G00 X204.054 Y117.48
G00 X202.845 Y120.806
G00 X201.645 Y124.111
G00 X200.441 Y127.425
G00 X199.236 Y130.741
G00 X198.03 Y134.06
G00 X196.828 Y137.369
G00 X195.62 Y140.694
G00 X194.858 Y142.883
G00 X196.236 Y139.639
G00 X197.614 Y136.391
G00 X198.993 Y133.143
G00 X200.37 Y129.898
G00 X201.749 Y126.649
G00 X203.129 Y123.399
G00 X204.498 Y120.172
G00 X205.88 Y116.918
G00 X207.263 Y113.66
G00 X208.639 Y110.417
G00 X210.016 Y107.173
G00 X211.393 Y103.928
G00 X212.77 Y100.686
G00 X214.154 Y97.426
G00 X215.538 Y94.163
G00 X216.918 Y90.913
G00 X218.291 Y87.679
G00 X219.67 Y84.431
G00 X221.051 Y81.175
G00 X222.432 Y77.924
G00 X223.809 Y74.678
G00 X225.182 Y71.445
G00 X226.558 Y68.202
G00 X227.937 Y64.952
G00 X229.315 Y61.707
G00 X230.696 Y58.454
G00 X232.071 Y55.215
G00 X233.453 Y51.959
G00 X233.662 Y51.682
G00 X232.459 Y54.999
G00 X231.256 Y58.313
G00 X230.05 Y61.638
G00 X228.848 Y64.95
G00 X227.644 Y68.268
G00 X226.442 Y71.582
G00 X225.243 Y74.886
G00 X224.041 Y78.198
G00 X222.837 Y81.517
G00 X221.631 Y84.839
G00 X220.426 Y88.162
G00 X219.229 Y91.461
G00 X218.023 Y94.784
G00 X216.814 Y98.116
G00 X215.607 Y101.442
G00 X214.408 Y104.747
G00 X213.204 Y108.066
G00 X211.999 Y111.385
G00 X210.797 Y114.699
G00 X209.598 Y118.004
G00 X208.391 Y121.329
G00 X207.19 Y124.641
G00 X205.986 Y127.957
G00 X204.783 Y131.274
G00 X203.581 Y134.586
G00 X202.376 Y137.908
G00 X201.175 Y141.218
G00 X200.828 Y142.357
G00 X202.202 Y139.118
G00 X203.582 Y135.867
G00 X204.958 Y132.625
G00 X206.337 Y129.377
G00 X207.715 Y126.13
G00 X209.095 Y122.881
G00 X210.465 Y119.652
G00 X211.846 Y116.399
G00 X213.229 Y113.141
G00 X214.607 Y109.895
G00 X215.983 Y106.652
G00 X217.36 Y103.408
G00 X218.737 Y100.165
G00 X220.12 Y96.905
G00 X221.505 Y93.643
G00 X222.885 Y90.391
G00 X224.257 Y87.159
G00 X225.637 Y83.908
G00 X227.019 Y80.654
G00 X228.398 Y77.404
G00 X229.774 Y74.162
G00 X231.147 Y70.928
G00 X232.527 Y67.676
G00 X233.906 Y64.427
G00 X235.285 Y61.18
G00 X236.661 Y57.937
G00 X238.042 Y54.683
G00 X239.417 Y51.444
G00 X240.13 Y49.885
G00 X238.921 Y53.209
G00 X237.715 Y56.527
G00 X236.513 Y59.834
G00 X235.307 Y63.15
G00 X234.101 Y66.466
G00 X232.896 Y69.782
G00 X231.697 Y73.08
G00 X230.49 Y76.399
G00 X229.281 Y79.723
G00 X228.073 Y83.046
G00 X226.87 Y86.354
G00 X225.667 Y89.661
G00 X224.462 Y92.977
G00 X223.251 Y96.306
G00 X222.041 Y99.636
G00 X220.836 Y102.95
G00 X219.633 Y106.259
G00 X218.43 Y109.568
G00 X217.222 Y112.888
G00 X216.013 Y116.213
G00 X214.806 Y119.533
G00 X213.607 Y122.83
G00 X212.401 Y126.147
G00 X211.196 Y129.462
G00 X209.99 Y132.778
G00 X208.788 Y136.085
G00 X207.583 Y139.398
G00 X206.374 Y142.725
G00 X207.185 Y140.916
G00 X208.562 Y137.673
G00 X209.943 Y134.419
G00 X211.319 Y131.176
G00 X212.698 Y127.928
G00 X214.077 Y124.678
G00 X215.456 Y121.43
G00 X216.828 Y118.197
G00 X218.205 Y114.953
G00 X219.586 Y111.701
G00 X220.968 Y108.445
G00 X222.346 Y105.199
G00 X223.719 Y101.964
G00 X225.098 Y98.715
G00 X226.482 Y95.453
G00 X227.867 Y92.192
G00 X229.245 Y88.945
G00 X230.62 Y85.707
G00 X231.996 Y82.465
G00 X233.378 Y79.208
G00 X234.759 Y75.954
G00 X236.137 Y72.708
G00 X237.509 Y69.476
G00 X238.886 Y66.233
G00 X240.266 Y62.982
G00 X241.644 Y59.735
G00 X243.02 Y56.492
G00 X244.402 Y53.236
G00 X245.778 Y49.995
G00 X246.399 Y48.668
G00 X245.19 Y51.986
G00 X243.98 Y55.304
G00 X242.775 Y58.611
G00 X241.567 Y61.925
G00 X240.358 Y65.24
G00 X239.15 Y68.556
G00 X237.949 Y71.852
G00 X236.738 Y75.172
G00 X235.526 Y78.497
G00 X234.318 Y81.811
G00 X233.112 Y85.121
G00 X231.905 Y88.431
G00 X230.699 Y91.742
G00 X229.486 Y95.069
G00 X228.272 Y98.399
G00 X227.063 Y101.717
G00 X225.86 Y105.017
G00 X224.651 Y108.333
G00 X223.44 Y111.655
G00 X222.23 Y114.974
G00 X221.023 Y118.286
G00 X219.82 Y121.586
G00 X218.613 Y124.898
G00 X217.404 Y128.215
G00 X216.196 Y131.529
G00 X214.988 Y134.842
G00 X213.78 Y138.159
G00 X212.569 Y141.479
G00 X212.343 Y142.3
G00 X213.723 Y139.05
G00 X215.101 Y135.803
G00 X216.483 Y132.548
G00 X217.859 Y129.305
G00 X219.238 Y126.057
G00 X220.617 Y122.809
G00 X221.993 Y119.567
G00 X223.368 Y116.326
G00 X224.746 Y113.08
G00 X226.126 Y109.83
G00 X227.505 Y106.58
G00 X228.879 Y103.343
G00 X230.262 Y100.085
G00 X231.647 Y96.822
G00 X233.028 Y93.57
G00 X234.4 Y90.336
G00 X235.778 Y87.089
G00 X237.16 Y83.835
G00 X238.541 Y80.582
G00 X239.92 Y77.331
G00 X241.292 Y74.101
G00 X242.671 Y70.852
G00 X244.049 Y67.605
G00 X245.426 Y64.361
G00 X246.806 Y61.109
G00 X248.185 Y57.862
;Nearing path end, moving to preshutoff position
G00 X249.42 Y54.951
M107 ;Pump off
G00 X249.558 Y54.626
G4 P0 ;Pause for 0 milliseconds
;Completed path #3/12 on color #1
;Starting path #4/12, segments: 2, length: 232, color #1
G00 X249.558 Y68.163
M106 ;Pump on
G4 P0 ;Pause for 0 milliseconds
G00 X248.225 Y71.303
G00 X246.891 Y74.445
G00 X245.555 Y77.594
G00 X244.221 Y80.737
G00 X242.892 Y83.867
G00 X241.556 Y87.015
G00 X240.219 Y90.163
G00 X238.883 Y93.312
G00 X237.546 Y96.461
G00 X236.211 Y99.607
G00 X234.879 Y102.746
G00 X233.538 Y105.904
G00 X232.197 Y109.063
G00 X230.865 Y112.201
G00 X229.53 Y115.347
G00 X228.193 Y118.496
G00 X226.856 Y121.645
G00 X225.52 Y124.794
G00 X224.184 Y127.942
G00 X222.855 Y131.072
G00 X221.521 Y134.214
G00 X220.184 Y137.364
G00 X218.851 Y140.506
;Nearing path end, moving to preshutoff position
G00 X217.656 Y143.321
M107 ;Pump off
G00 X217.518 Y143.646
G4 P0 ;Pause for 0 milliseconds
;Completed path #4/12 on color #1
;Starting path #5/12, segments: 2, length: 196, color #1
G00 X223.206 Y143.782
M106 ;Pump on
G4 P0 ;Pause for 0 milliseconds
G00 X224.551 Y140.613
G00 X225.9 Y137.436
G00 X227.245 Y134.267
G00 X228.594 Y131.087
G00 X229.941 Y127.915
G00 X231.291 Y124.734
G00 X232.641 Y121.553
G00 X233.991 Y118.373
G00 X235.336 Y115.204
G00 X236.69 Y112.016
G00 X238.043 Y108.828
G00 X239.388 Y105.659
G00 X240.738 Y102.479
G00 X242.088 Y99.297
G00 X243.438 Y96.117
G00 X244.785 Y92.945
G00 X246.134 Y89.765
G00 X247.479 Y86.596
G00 X248.828 Y83.419
;Nearing path end, moving to preshutoff position
G00 X250.035 Y80.575
M107 ;Pump off
G00 X250.173 Y80.25
G4 P0 ;Pause for 0 milliseconds
;Completed path #5/12 on color #1
;Starting path #6/12, segments: 2, length: 161, color #1
G00 X251.102 Y91.599
M106 ;Pump on
G4 P0 ;Pause for 0 milliseconds
G00 X249.799 Y94.669
G00 X248.495 Y97.739
G00 X247.192 Y100.81
G00 X245.881 Y103.899
G00 X244.578 Y106.969
G00 X243.27 Y110.05
G00 X241.963 Y113.129
G00 X240.659 Y116.2
G00 X239.348 Y119.29
G00 X238.044 Y122.362
G00 X236.737 Y125.44
G00 X235.429 Y128.522
G00 X234.126 Y131.591
G00 X232.815 Y134.681
G00 X231.511 Y137.751
G00 X230.208 Y140.822
;Nearing path end, moving to preshutoff position
G00 X229.043 Y143.566
M107 ;Pump off
G00 X228.905 Y143.891
G4 P0 ;Pause for 0 milliseconds
;Completed path #6/12 on color #1
;Starting path #7/12, segments: 2, length: 123, color #1
G00 X234.631 Y143.938
M106 ;Pump on
G4 P0 ;Pause for 0 milliseconds
G00 X235.928 Y140.883
G00 X237.239 Y137.795
G00 X238.544 Y134.719
G00 X239.847 Y131.65
G00 X241.147 Y128.587
G00 X242.455 Y125.505
G00 X243.766 Y122.418
G00 X245.074 Y119.337
G00 X246.374 Y116.274
G00 X247.677 Y113.204
G00 X248.982 Y110.128
G00 X250.293 Y107.04
;Nearing path end, moving to preshutoff position
G00 X251.452 Y104.311
M107 ;Pump off
G00 X251.59 Y103.986
G4 P0 ;Pause for 0 milliseconds
;Completed path #7/12 on color #1
;Starting path #8/12, segments: 2, length: 81, color #1
G00 X251.59 Y117.522
M106 ;Pump on
G4 P0 ;Pause for 0 milliseconds
G00 X250.348 Y120.447
G00 X249.1 Y123.387
G00 X247.856 Y126.318
G00 X246.608 Y129.258
G00 X245.358 Y132.202
G00 X244.111 Y135.142
G00 X242.866 Y138.073
G00 X241.618 Y141.013
;Nearing path end, moving to preshutoff position
G00 X240.515 Y143.613
M107 ;Pump off
G00 X240.377 Y143.938
G4 P0 ;Pause for 0 milliseconds
;Completed path #8/12 on color #1
;Starting path #9/12, segments: 2, length: 38, color #1
G00 X246.123 Y143.938
M106 ;Pump on
G4 P0 ;Pause for 0 milliseconds
G00 X247.444 Y140.824
G00 X248.773 Y137.695
G00 X250.101 Y134.566
;Nearing path end, moving to preshutoff position
G00 X251.285 Y131.777
M107 ;Pump off
G00 X251.422 Y131.453
G4 P0 ;Pause for 0 milliseconds
;Completed path #9/12 on color #1
;PancakePainter Footer Start
G4 P1000 ;Pause for 1000 milliseconds
G28 X0 Y0 ;Home All Axis
M84 ;Motors off
;PancakePainter Footer Complete
