;PancakePainter v1.0.0 GCODE header start
;Originally generated @ Mon Jun 27 2016 19:02:54 GMT-0400 (Eastern Daylight Time)
;Settings used to generate this file:
;----------------------------------------
;flattenResolution: 10
;lineEndPreShutoff: 1
;startWait: 0
;endWait: 0
;shadeChangeWait: 35
;fillSpacing: 15
;fillAngle: 90
;fillGroupThreshold: 27
;----------------------------------------
W1 X42 Y210 L485 T0 ;Define Workspace of this file
G21 ;Set units to MM
G1 F5600 ;Set Speed
M107 ;Pump off
G4 P1000 ;Pause for 1000 milliseconds
M84 ;Motors off
G28 X0 Y0 ;Home All Axis
;PancakePainter header complete
;Starting path #1/4, segments: 4, length: 164, color #1
G00 X181.55 Y147.561
M106 ;Pump on
G4 P0 ;Pause for 0 milliseconds
G00 X184.948 Y147.561
G00 X188.347 Y147.561
G00 X191.752 Y147.561
G00 X195.147 Y147.561
G00 X198.563 Y147.561
G00 X201.959 Y147.561
G00 X205.358 Y147.561
G00 X208.772 Y147.561
G00 X212.182 Y147.561
G00 X215.579 Y147.561
G00 X218.987 Y147.561
G00 X222.39 Y147.561
G00 X225.801 Y147.561
G00 X229.204 Y147.561
G00 X232.593 Y147.561
G00 X235.983 Y147.561
;Nearing path end, moving to preshutoff position
G00 X239.04 Y147.561
M107 ;Pump off
G00 X239.393 Y147.561
G4 P0 ;Pause for 0 milliseconds
;Completed path #1/4 on color #1
;Starting path #2/4, segments: 40, length: 10976, color #1
G00 X297.057 Y41.745
M106 ;Pump on
G4 P0 ;Pause for 0 milliseconds
G00 X296.453 Y43.319
G00 X293.814 Y45.674
G00 X293.759 Y47.036
G00 X297.301 Y47.036
G00 X300.817 Y47.036
G00 X298.289 Y48.159
G00 X294.988 Y49.43
G00 X291.691 Y50.7
G00 X288.402 Y51.966
G00 X289.98 Y52.327
G00 X293.505 Y52.327
G00 X297.042 Y52.327
G00 X300.581 Y52.327
G00 X304.092 Y52.327
G00 X303.001 Y52.845
G00 X299.569 Y53.627
G00 X296.124 Y54.412
G00 X292.677 Y55.197
G00 X289.237 Y55.981
G00 X285.801 Y56.763
G00 X282.359 Y57.548
G00 X285.244 Y57.618
G00 X288.773 Y57.618
G00 X292.291 Y57.618
G00 X295.831 Y57.618
G00 X299.368 Y57.618
G00 X302.909 Y57.618
G00 X306.421 Y57.618
G00 X309.943 Y57.618
G00 X307.165 Y58.078
G00 X303.675 Y58.592
G00 X300.183 Y59.106
G00 X296.706 Y59.618
G00 X293.206 Y60.133
G00 X289.708 Y60.648
G00 X286.214 Y61.163
G00 X282.735 Y61.675
G00 X279.235 Y62.191
G00 X275.746 Y62.704
G00 X276.454 Y62.908
G00 X279.985 Y62.908
G00 X283.51 Y62.908
G00 X287.04 Y62.908
G00 X290.554 Y62.908
G00 X294.093 Y62.908
G00 X297.634 Y62.908
G00 X301.171 Y62.908
G00 X304.687 Y62.908
G00 X308.216 Y62.908
G00 X311.748 Y62.908
G00 X315.278 Y62.908
G00 X316.676 Y63.021
G00 X313.165 Y63.4
G00 X309.67 Y63.777
G00 X306.156 Y64.155
G00 X302.653 Y64.533
G00 X299.146 Y64.911
G00 X295.644 Y65.289
G00 X292.124 Y65.668
G00 X288.624 Y66.046
G00 X285.11 Y66.424
G00 X281.604 Y66.802
G00 X278.107 Y67.18
G00 X274.598 Y67.558
G00 X271.074 Y67.938
G00 X269.709 Y68.199
G00 X273.22 Y68.199
G00 X276.753 Y68.199
G00 X280.278 Y68.199
G00 X283.815 Y68.199
G00 X287.337 Y68.199
G00 X290.872 Y68.199
G00 X294.39 Y68.199
G00 X297.932 Y68.199
G00 X301.453 Y68.199
G00 X304.984 Y68.199
G00 X308.505 Y68.199
G00 X312.042 Y68.199
G00 X315.574 Y68.199
G00 X319.105 Y68.199
G00 X322.61 Y68.199
G00 X320.433 Y68.446
G00 X316.939 Y68.751
G00 X313.413 Y69.058
G00 X309.903 Y69.364
G00 X306.38 Y69.671
G00 X302.872 Y69.976
G00 X299.355 Y70.282
G00 X295.848 Y70.588
G00 X292.322 Y70.895
G00 X288.802 Y71.202
G00 X285.293 Y71.507
G00 X281.786 Y71.813
G00 X278.26 Y72.12
G00 X274.749 Y72.426
G00 X271.226 Y72.732
G00 X267.729 Y73.037
G00 X264.215 Y73.343
G00 X264.349 Y73.49
G00 X267.88 Y73.49
G00 X271.387 Y73.49
G00 X274.923 Y73.49
G00 X278.451 Y73.49
G00 X281.974 Y73.49
G00 X285.504 Y73.49
G00 X289.035 Y73.49
G00 X292.553 Y73.49
G00 X296.093 Y73.49
G00 X299.63 Y73.49
G00 X303.15 Y73.49
G00 X306.68 Y73.49
G00 X310.205 Y73.49
G00 X313.725 Y73.49
G00 X317.27 Y73.49
G00 X320.777 Y73.49
G00 X324.307 Y73.49
G00 X327.828 Y73.49
G00 X326.698 Y73.657
G00 X323.177 Y73.911
G00 X319.664 Y74.164
G00 X316.166 Y74.416
G00 X312.638 Y74.671
G00 X309.11 Y74.925
G00 X305.593 Y75.179
G00 X302.077 Y75.432
G00 X298.562 Y75.685
G00 X295.052 Y75.939
G00 X291.519 Y76.193
G00 X287.992 Y76.447
G00 X284.482 Y76.7
G00 X280.962 Y76.954
G00 X277.441 Y77.208
G00 X273.92 Y77.462
G00 X270.406 Y77.715
G00 X266.901 Y77.968
G00 X263.385 Y78.221
G00 X259.863 Y78.475
G00 X256.345 Y78.729
G00 X258.412 Y78.781
G00 X261.941 Y78.781
G00 X265.468 Y78.781
G00 X268.972 Y78.781
G00 X272.501 Y78.781
G00 X276.032 Y78.781
G00 X279.563 Y78.781
G00 X283.092 Y78.781
G00 X286.621 Y78.781
G00 X290.139 Y78.781
G00 X293.673 Y78.781
G00 X297.216 Y78.781
G00 X300.743 Y78.781
G00 X304.266 Y78.781
G00 X307.796 Y78.781
G00 X311.325 Y78.781
G00 X314.854 Y78.781
G00 X318.379 Y78.781
G00 X321.892 Y78.781
G00 X325.421 Y78.781
G00 X328.946 Y78.781
G00 X332.472 Y78.781
G00 X332.648 Y78.883
G00 X329.129 Y79.101
G00 X325.607 Y79.318
G00 X322.085 Y79.535
G00 X318.567 Y79.752
G00 X315.056 Y79.969
G00 X311.534 Y80.186
G00 X308.014 Y80.404
G00 X304.494 Y80.621
G00 X300.973 Y80.838
G00 X297.458 Y81.055
G00 X293.937 Y81.272
G00 X290.4 Y81.491
G00 X286.87 Y81.708
G00 X283.366 Y81.925
G00 X279.845 Y82.142
G00 X276.321 Y82.359
G00 X272.797 Y82.577
G00 X269.274 Y82.794
G00 X265.754 Y83.012
G00 X262.247 Y83.228
G00 X258.725 Y83.445
G00 X255.21 Y83.662
G00 X251.683 Y83.88
G00 X248.968 Y84.071
G00 X252.507 Y84.071
G00 X256.027 Y84.071
G00 X259.559 Y84.071
G00 X263.082 Y84.071
G00 X266.598 Y84.071
G00 X270.127 Y84.071
G00 X273.659 Y84.071
G00 X277.191 Y84.071
G00 X280.711 Y84.071
G00 X284.235 Y84.071
G00 X287.754 Y84.071
G00 X291.283 Y84.071
G00 X294.826 Y84.071
G00 X298.364 Y84.071
G00 X301.877 Y84.071
G00 X305.407 Y84.071
G00 X308.939 Y84.071
G00 X312.47 Y84.071
G00 X315.999 Y84.071
G00 X319.529 Y84.071
G00 X323.033 Y84.071
G00 X326.557 Y84.071
G00 X330.091 Y84.071
G00 X333.619 Y84.071
G00 X337.147 Y84.071
G00 X337.387 Y84.161
G00 X333.864 Y84.354
G00 X330.348 Y84.547
G00 X326.828 Y84.74
G00 X323.308 Y84.933
G00 X319.786 Y85.126
G00 X316.267 Y85.318
G00 X312.74 Y85.512
G00 X309.229 Y85.704
G00 X305.711 Y85.897
G00 X302.187 Y86.09
G00 X298.665 Y86.283
G00 X295.152 Y86.476
G00 X291.619 Y86.669
G00 X288.081 Y86.863
G00 X284.556 Y87.056
G00 X281.046 Y87.249
G00 X277.529 Y87.442
G00 X273.999 Y87.635
G00 X270.471 Y87.828
G00 X266.945 Y88.022
G00 X263.443 Y88.214
G00 X259.921 Y88.407
G00 X256.4 Y88.6
G00 X252.885 Y88.792
G00 X249.354 Y88.986
G00 X245.838 Y89.178
G00 X242.626 Y89.362
G00 X246.155 Y89.362
G00 X249.682 Y89.362
G00 X253.217 Y89.362
G00 X256.739 Y89.362
G00 X260.266 Y89.362
G00 X263.795 Y89.362
G00 X267.299 Y89.362
G00 X270.833 Y89.362
G00 X274.37 Y89.362
G00 X277.897 Y89.362
G00 X281.418 Y89.362
G00 X284.939 Y89.362
G00 X288.464 Y89.362
G00 X292.005 Y89.362
G00 X295.547 Y89.362
G00 X299.074 Y89.362
G00 X302.592 Y89.362
G00 X306.112 Y89.362
G00 X309.645 Y89.362
G00 X313.18 Y89.362
G00 X316.713 Y89.362
G00 X320.219 Y89.362
G00 X323.748 Y89.362
G00 X327.275 Y89.362
G00 X330.799 Y89.362
G00 X334.327 Y89.362
G00 X337.856 Y89.362
G00 X341.384 Y89.362
G00 X338.644 Y89.52
G00 X335.116 Y89.698
G00 X331.597 Y89.876
G00 X328.076 Y90.054
G00 X324.553 Y90.233
G00 X321.029 Y90.411
G00 X317.501 Y90.589
G00 X313.995 Y90.766
G00 X310.479 Y90.944
G00 X306.953 Y91.123
G00 X303.421 Y91.301
G00 X299.899 Y91.479
G00 X296.39 Y91.657
G00 X292.866 Y91.835
G00 X289.329 Y92.014
G00 X285.791 Y92.193
G00 X282.269 Y92.371
G00 X278.758 Y92.549
G00 X275.24 Y92.727
G00 X271.707 Y92.905
G00 X268.179 Y93.084
G00 X264.66 Y93.262
G00 X261.154 Y93.439
G00 X257.632 Y93.617
G00 X254.106 Y93.795
G00 X250.584 Y93.974
G00 X247.065 Y94.151
G00 X243.538 Y94.33
G00 X240.015 Y94.508
G00 X237.781 Y94.653
G00 X241.3 Y94.653
G00 X244.827 Y94.653
G00 X248.36 Y94.653
G00 X251.889 Y94.653
G00 X255.412 Y94.653
G00 X258.936 Y94.653
G00 X262.459 Y94.653
G00 X265.988 Y94.653
G00 X269.503 Y94.653
G00 X273.031 Y94.653
G00 X276.567 Y94.653
G00 X280.095 Y94.653
G00 X283.607 Y94.653
G00 X287.136 Y94.653
G00 X290.678 Y94.653
G00 X294.22 Y94.653
G00 X297.748 Y94.653
G00 X301.261 Y94.653
G00 X304.788 Y94.653
G00 X308.324 Y94.653
G00 X311.853 Y94.653
G00 X315.37 Y94.653
G00 X318.895 Y94.653
G00 X322.42 Y94.653
G00 X325.944 Y94.653
G00 X329.468 Y94.653
G00 X332.997 Y94.653
G00 X336.528 Y94.653
G00 X340.056 Y94.653
G00 X343.584 Y94.653
G00 X341.136 Y94.791
G00 X337.617 Y94.955
G00 X334.093 Y95.119
G00 X330.568 Y95.284
G00 X327.048 Y95.447
G00 X323.525 Y95.612
G00 X319.994 Y95.776
G00 X316.479 Y95.94
G00 X312.952 Y96.104
G00 X309.445 Y96.267
G00 X305.923 Y96.431
G00 X302.389 Y96.596
G00 X298.868 Y96.76
G00 X295.357 Y96.923
G00 X291.836 Y97.087
G00 X288.3 Y97.252
G00 X284.76 Y97.417
G00 X281.229 Y97.581
G00 X277.719 Y97.744
G00 X274.193 Y97.909
G00 X270.674 Y98.072
G00 X267.152 Y98.236
G00 X263.616 Y98.401
G00 X260.111 Y98.564
G00 X256.592 Y98.728
G00 X253.065 Y98.892
G00 X249.542 Y99.057
G00 X246.023 Y99.22
G00 X242.503 Y99.384
G00 X238.973 Y99.549
G00 X235.458 Y99.712
G00 X231.926 Y99.877
G00 X232.55 Y99.944
G00 X236.065 Y99.944
G00 X239.606 Y99.944
G00 X243.127 Y99.944
G00 X246.657 Y99.944
G00 X250.178 Y99.944
G00 X253.702 Y99.944
G00 X257.235 Y99.944
G00 X260.756 Y99.944
G00 X264.265 Y99.944
G00 X267.806 Y99.944
G00 X271.33 Y99.944
G00 X274.853 Y99.944
G00 X278.388 Y99.944
G00 X281.914 Y99.944
G00 X285.442 Y99.944
G00 X288.971 Y99.944
G00 X292.499 Y99.944
G00 X296.03 Y99.944
G00 X299.552 Y99.944
G00 X303.085 Y99.944
G00 X306.618 Y99.944
G00 X310.135 Y99.944
G00 X313.667 Y99.944
G00 X317.18 Y99.944
G00 X320.712 Y99.944
G00 X324.235 Y99.944
G00 X327.763 Y99.944
G00 X331.293 Y99.944
G00 X334.821 Y99.944
G00 X338.344 Y99.944
G00 X341.876 Y99.944
G00 X345.399 Y99.944
G00 X343.6 Y100.059
G00 X340.073 Y100.211
G00 X336.542 Y100.365
G00 X333.019 Y100.517
G00 X329.497 Y100.67
G00 X325.98 Y100.822
G00 X322.451 Y100.975
G00 X318.933 Y101.128
G00 X315.402 Y101.281
G00 X311.895 Y101.433
G00 X308.368 Y101.586
G00 X304.853 Y101.738
G00 X301.319 Y101.891
G00 X297.797 Y102.044
G00 X294.274 Y102.197
G00 X290.743 Y102.35
G00 X287.222 Y102.502
G00 X283.696 Y102.655
G00 X280.173 Y102.808
G00 X276.644 Y102.961
G00 X273.124 Y103.114
G00 X269.596 Y103.267
G00 X266.066 Y103.42
G00 X262.557 Y103.572
G00 X259.018 Y103.725
G00 X255.511 Y103.877
G00 X251.988 Y104.03
G00 X248.463 Y104.183
G00 X244.941 Y104.335
G00 X241.421 Y104.488
G00 X237.891 Y104.641
G00 X234.367 Y104.794
G00 X230.854 Y104.946
G00 X227.327 Y105.099
G00 X224.573 Y105.235
G00 X228.089 Y105.235
G00 X231.613 Y105.235
G00 X235.141 Y105.235
G00 X238.668 Y105.235
G00 X242.199 Y105.235
G00 X245.727 Y105.235
G00 X249.251 Y105.235
G00 X252.779 Y105.235
G00 X256.308 Y105.235
G00 X259.818 Y105.235
G00 X263.352 Y105.235
G00 X266.869 Y105.235
G00 X270.408 Y105.235
G00 X273.93 Y105.235
G00 X277.459 Y105.235
G00 X280.992 Y105.235
G00 X284.516 Y105.235
G00 X288.046 Y105.235
G00 X291.573 Y105.235
G00 X295.104 Y105.235
G00 X298.624 Y105.235
G00 X302.163 Y105.235
G00 X305.686 Y105.235
G00 X309.213 Y105.235
G00 X312.752 Y105.235
G00 X316.258 Y105.235
G00 X319.787 Y105.235
G00 X323.306 Y105.235
G00 X326.841 Y105.235
G00 X330.358 Y105.235
G00 X333.894 Y105.235
G00 X337.422 Y105.235
G00 X340.95 Y105.235
G00 X344.47 Y105.235
G00 X347.994 Y105.235
G00 X348.682 Y105.292
G00 X345.171 Y105.435
G00 X341.633 Y105.578
G00 X338.108 Y105.721
G00 X334.593 Y105.864
G00 X331.073 Y106.007
G00 X327.54 Y106.151
G00 X324.024 Y106.293
G00 X320.498 Y106.437
G00 X316.971 Y106.58
G00 X313.462 Y106.722
G00 X309.938 Y106.866
G00 X306.42 Y107.008
G00 X302.878 Y107.152
G00 X299.367 Y107.295
G00 X295.836 Y107.438
G00 X292.312 Y107.581
G00 X288.787 Y107.725
G00 X285.261 Y107.868
G00 X281.735 Y108.011
G00 X278.212 Y108.154
G00 X274.684 Y108.298
G00 X271.157 Y108.441
G00 X267.638 Y108.584
G00 X264.102 Y108.727
G00 X260.592 Y108.87
G00 X257.054 Y109.014
G00 X253.546 Y109.156
G00 X250.03 Y109.299
G00 X246.498 Y109.442
G00 X242.977 Y109.585
G00 X239.45 Y109.729
G00 X235.935 Y109.871
G00 X232.403 Y110.015
G00 X228.878 Y110.158
G00 X225.366 Y110.301
G00 X221.828 Y110.444
G00 X221.338 Y110.525
G00 X224.848 Y110.525
G00 X228.38 Y110.525
G00 X231.907 Y110.525
G00 X235.429 Y110.525
G00 X238.964 Y110.525
G00 X242.484 Y110.525
G00 X246.021 Y110.525
G00 X249.539 Y110.525
G00 X253.065 Y110.525
G00 X256.597 Y110.525
G00 X260.123 Y110.525
G00 X263.64 Y110.525
G00 X267.161 Y110.525
G00 X270.69 Y110.525
G00 X274.223 Y110.525
G00 X277.746 Y110.525
G00 X281.281 Y110.525
G00 X284.804 Y110.525
G00 X288.334 Y110.525
G00 X291.862 Y110.525
G00 X295.391 Y110.525
G00 X298.918 Y110.525
G00 X302.451 Y110.525
G00 X305.968 Y110.525
G00 X309.511 Y110.525
G00 X313.019 Y110.525
G00 X316.548 Y110.525
G00 X320.075 Y110.525
G00 X323.597 Y110.525
G00 X327.125 Y110.525
G00 X330.656 Y110.525
G00 X334.172 Y110.525
G00 X337.71 Y110.525
G00 X341.23 Y110.525
G00 X344.75 Y110.525
G00 X348.28 Y110.525
G00 X351.816 Y110.525
G00 X355.332 Y110.525
G00 X352.039 Y110.654
G00 X348.529 Y110.786
G00 X345.002 Y110.92
G00 X341.48 Y111.053
G00 X337.947 Y111.186
G00 X334.429 Y111.319
G00 X330.896 Y111.452
G00 X327.381 Y111.585
G00 X323.855 Y111.718
G00 X320.326 Y111.851
G00 X316.803 Y111.985
G00 X313.282 Y112.117
G00 X309.769 Y112.25
G00 X306.244 Y112.383
G00 X302.721 Y112.516
G00 X299.189 Y112.65
G00 X295.669 Y112.783
G00 X292.137 Y112.916
G00 X288.615 Y113.049
G00 X285.088 Y113.182
G00 X281.562 Y113.315
G00 X278.038 Y113.448
G00 X274.509 Y113.582
G00 X270.985 Y113.715
G00 X267.459 Y113.848
G00 X263.929 Y113.981
G00 X260.415 Y114.114
G00 X256.899 Y114.247
G00 X253.375 Y114.38
G00 X249.847 Y114.513
G00 X246.321 Y114.646
G00 X242.801 Y114.779
G00 X239.276 Y114.912
G00 X235.748 Y115.045
G00 X232.23 Y115.178
G00 X228.703 Y115.311
G00 X225.174 Y115.445
G00 X221.654 Y115.577
G00 X218.123 Y115.711
G00 X216.021 Y115.816
G00 X219.55 Y115.816
G00 X223.096 Y115.816
G00 X226.62 Y115.816
G00 X230.135 Y115.816
G00 X233.664 Y115.816
G00 X237.189 Y115.816
G00 X240.723 Y115.816
G00 X244.242 Y115.816
G00 X247.769 Y115.816
G00 X251.299 Y115.816
G00 X254.83 Y115.816
G00 X258.353 Y115.816
G00 X261.872 Y115.816
G00 X265.388 Y115.816
G00 X268.923 Y115.816
G00 X272.448 Y115.816
G00 X275.978 Y115.816
G00 X279.506 Y115.816
G00 X283.035 Y115.816
G00 X286.563 Y115.816
G00 X290.093 Y115.816
G00 X293.618 Y115.816
G00 X297.151 Y115.816
G00 X300.671 Y115.816
G00 X304.21 Y115.816
G00 X307.721 Y115.816
G00 X311.269 Y115.816
G00 X314.776 Y115.816
G00 X318.304 Y115.816
G00 X321.832 Y115.816
G00 X325.359 Y115.816
G00 X328.881 Y115.816
G00 X332.406 Y115.816
G00 X335.94 Y115.816
G00 X339.462 Y115.816
G00 X342.992 Y115.816
G00 X346.511 Y115.816
G00 X350.046 Y115.816
G00 X353.569 Y115.816
G00 X357.105 Y115.816
G00 X359.494 Y115.836
G00 X355.969 Y115.96
G00 X352.442 Y116.085
G00 X348.918 Y116.21
G00 X345.395 Y116.335
G00 X341.859 Y116.46
G00 X338.345 Y116.585
G00 X334.819 Y116.71
G00 X331.285 Y116.835
G00 X327.768 Y116.96
G00 X324.246 Y117.084
G00 X320.722 Y117.209
G00 X317.197 Y117.334
G00 X313.671 Y117.459
G00 X310.165 Y117.583
G00 X306.624 Y117.709
G00 X303.111 Y117.833
G00 X299.573 Y117.959
G00 X296.057 Y118.083
G00 X292.524 Y118.208
G00 X289.003 Y118.333
G00 X285.475 Y118.458
G00 X281.948 Y118.583
G00 X278.428 Y118.708
G00 X274.894 Y118.833
G00 X271.38 Y118.957
G00 X267.839 Y119.083
G00 X264.329 Y119.207
G00 X260.785 Y119.333
G00 X257.281 Y119.457
G00 X253.755 Y119.582
G00 X250.229 Y119.707
G00 X246.704 Y119.832
G00 X243.182 Y119.956
G00 X239.664 Y120.081
G00 X236.134 Y120.206
G00 X232.605 Y120.331
G00 X229.093 Y120.456
G00 X225.555 Y120.581
G00 X222.036 Y120.706
G00 X218.515 Y120.83
G00 X214.978 Y120.956
G00 X211.454 Y121.08
G00 X213.452 Y121.107
G00 X216.971 Y121.107
G00 X220.502 Y121.107
G00 X224.02 Y121.107
G00 X227.553 Y121.107
G00 X231.075 Y121.107
G00 X234.614 Y121.107
G00 X238.131 Y121.107
G00 X241.655 Y121.107
G00 X245.183 Y121.107
G00 X248.712 Y121.107
G00 X252.241 Y121.107
G00 X255.77 Y121.107
G00 X259.296 Y121.107
G00 X262.798 Y121.107
G00 X266.346 Y121.107
G00 X269.857 Y121.107
G00 X273.398 Y121.107
G00 X276.916 Y121.107
G00 X280.452 Y121.107
G00 X283.975 Y121.107
G00 X287.505 Y121.107
G00 X291.034 Y121.107
G00 X294.556 Y121.107
G00 X298.093 Y121.107
G00 X301.609 Y121.107
G00 X305.152 Y121.107
G00 X308.66 Y121.107
G00 X312.211 Y121.107
G00 X315.714 Y121.107
G00 X319.242 Y121.107
G00 X322.77 Y121.107
G00 X326.299 Y121.107
G00 X329.827 Y121.107
G00 X333.353 Y121.107
G00 X336.875 Y121.107
G00 X340.4 Y121.107
G00 X343.935 Y121.107
G00 X347.45 Y121.107
G00 X350.99 Y121.107
G00 X354.514 Y121.107
G00 X358.044 Y121.107
G00 X361.565 Y121.107
G00 X362.986 Y121.142
G00 X359.48 Y121.259
G00 X355.949 Y121.378
G00 X352.428 Y121.495
G00 X348.898 Y121.614
G00 X345.375 Y121.732
G00 X341.842 Y121.85
G00 X338.326 Y121.968
G00 X334.802 Y122.086
G00 X331.274 Y122.204
G00 X327.746 Y122.322
G00 X324.218 Y122.44
G00 X320.695 Y122.558
G00 X317.172 Y122.676
G00 X313.651 Y122.794
G00 X310.146 Y122.911
G00 X306.601 Y123.03
G00 X303.091 Y123.148
G00 X299.551 Y123.266
G00 X296.036 Y123.384
G00 X292.502 Y123.502
G00 X288.981 Y123.62
G00 X285.454 Y123.738
G00 X281.926 Y123.856
G00 X278.404 Y123.974
G00 X274.872 Y124.093
G00 X271.352 Y124.21
G00 X267.818 Y124.329
G00 X264.299 Y124.447
G00 X260.764 Y124.565
G00 X257.246 Y124.683
G00 X253.731 Y124.8
G00 X250.206 Y124.919
G00 X246.683 Y125.037
G00 X243.16 Y125.154
G00 X239.64 Y125.272
G00 X236.112 Y125.39
G00 X232.581 Y125.509
G00 X229.055 Y125.627
G00 X225.542 Y125.744
G00 X222.005 Y125.863
G00 X218.495 Y125.98
G00 X214.959 Y126.099
G00 X211.441 Y126.217
G00 X207.915 Y126.335
G00 X207.644 Y126.398
G00 X211.177 Y126.398
G00 X214.711 Y126.398
G00 X218.228 Y126.398
G00 X221.749 Y126.398
G00 X225.282 Y126.398
G00 X228.809 Y126.398
G00 X232.33 Y126.398
G00 X235.857 Y126.398
G00 X239.387 Y126.398
G00 X242.917 Y126.398
G00 X246.446 Y126.398
G00 X249.972 Y126.398
G00 X253.498 Y126.398
G00 X257.022 Y126.398
G00 X260.526 Y126.398
G00 X264.076 Y126.398
G00 X267.585 Y126.398
G00 X271.128 Y126.398
G00 X274.644 Y126.398
G00 X278.178 Y126.398
G00 X281.703 Y126.398
G00 X285.232 Y126.398
G00 X288.762 Y126.398
G00 X292.288 Y126.398
G00 X295.819 Y126.398
G00 X299.346 Y126.398
G00 X302.875 Y126.398
G00 X306.405 Y126.398
G00 X309.93 Y126.398
G00 X313.464 Y126.398
G00 X316.974 Y126.398
G00 X320.501 Y126.398
G00 X324.028 Y126.398
G00 X327.555 Y126.398
G00 X331.082 Y126.398
G00 X334.607 Y126.398
G00 X338.129 Y126.398
G00 X341.653 Y126.398
G00 X345.19 Y126.398
G00 X348.713 Y126.398
G00 X352.24 Y126.398
G00 X355.76 Y126.398
G00 X359.292 Y126.398
G00 X362.822 Y126.398
G00 X366.344 Y126.398
G00 X363.157 Y126.503
G00 X359.623 Y126.615
G00 X356.102 Y126.726
G00 X352.578 Y126.837
G00 X349.048 Y126.949
G00 X345.521 Y127.06
G00 X342.003 Y127.171
G00 X338.478 Y127.282
G00 X334.949 Y127.394
G00 X331.421 Y127.505
G00 X327.894 Y127.617
G00 X324.369 Y127.728
G00 X320.844 Y127.839
G00 X317.32 Y127.951
G00 X313.797 Y128.062
G00 X310.273 Y128.173
G00 X306.75 Y128.284
G00 X303.24 Y128.395
G00 X299.708 Y128.507
G00 X296.183 Y128.618
G00 X292.657 Y128.729
G00 X289.127 Y128.841
G00 X285.604 Y128.952
G00 X282.075 Y129.064
G00 X278.548 Y129.175
G00 X275.027 Y129.286
G00 X271.492 Y129.398
G00 X267.974 Y129.509
G00 X264.438 Y129.62
G00 X260.918 Y129.732
G00 X257.4 Y129.843
G00 X253.875 Y129.954
G00 X250.35 Y130.065
G00 X246.825 Y130.177
G00 X243.3 Y130.288
G00 X239.775 Y130.399
G00 X236.249 Y130.511
G00 X232.724 Y130.622
G00 X229.2 Y130.733
G00 X225.68 Y130.844
G00 X222.163 Y130.955
G00 X218.625 Y131.067
G00 X215.101 Y131.178
G00 X211.577 Y131.29
G00 X208.063 Y131.401
G00 X204.542 Y131.512
G00 X201.003 Y131.624
G00 X200.37 Y131.689
G00 X203.898 Y131.689
G00 X207.428 Y131.689
G00 X210.955 Y131.689
G00 X214.497 Y131.689
G00 X218.011 Y131.689
G00 X221.537 Y131.689
G00 X225.071 Y131.689
G00 X228.604 Y131.689
G00 X232.125 Y131.689
G00 X235.649 Y131.689
G00 X239.175 Y131.689
G00 X242.701 Y131.689
G00 X246.228 Y131.689
G00 X249.756 Y131.689
G00 X253.283 Y131.689
G00 X256.811 Y131.689
G00 X260.339 Y131.689
G00 X263.845 Y131.689
G00 X267.384 Y131.689
G00 X270.906 Y131.689
G00 X274.436 Y131.689
G00 X277.965 Y131.689
G00 X281.492 Y131.689
G00 X285.022 Y131.689
G00 X288.55 Y131.689
G00 X292.073 Y131.689
G00 X295.61 Y131.689
G00 X299.128 Y131.689
G00 X302.668 Y131.689
G00 X306.188 Y131.689
G00 X309.708 Y131.689
G00 X313.235 Y131.689
G00 X316.762 Y131.689
G00 X320.289 Y131.689
G00 X323.815 Y131.689
G00 X327.342 Y131.689
G00 X330.87 Y131.689
G00 X334.397 Y131.689
G00 X337.924 Y131.689
G00 X341.449 Y131.689
G00 X344.969 Y131.689
G00 X348.496 Y131.689
G00 X352.033 Y131.689
G00 X355.543 Y131.689
G00 X359.087 Y131.689
G00 X362.615 Y131.689
G00 X366.126 Y131.689
G00 X368.344 Y131.708
G00 X364.811 Y131.813
G00 X361.278 Y131.919
G00 X357.762 Y132.024
G00 X354.243 Y132.129
G00 X350.715 Y132.235
G00 X347.178 Y132.34
G00 X343.663 Y132.445
G00 X340.141 Y132.551
G00 X336.617 Y132.656
G00 X333.091 Y132.761
G00 X329.566 Y132.867
G00 X326.041 Y132.972
G00 X322.515 Y133.078
G00 X318.99 Y133.183
G00 X315.464 Y133.288
G00 X311.938 Y133.394
G00 X308.411 Y133.499
G00 X304.885 Y133.605
G00 X301.379 Y133.709
G00 X297.841 Y133.815
G00 X294.321 Y133.92
G00 X290.794 Y134.026
G00 X287.264 Y134.131
G00 X283.74 Y134.237
G00 X280.212 Y134.342
G00 X276.684 Y134.448
G00 X273.161 Y134.553
G00 X269.629 Y134.659
G00 X266.105 Y134.764
G00 X262.579 Y134.869
G00 X259.046 Y134.975
G00 X255.539 Y135.08
G00 X252.016 Y135.185
G00 X248.489 Y135.29
G00 X244.962 Y135.396
G00 X241.436 Y135.501
G00 X237.91 Y135.607
G00 X234.384 Y135.712
G00 X230.858 Y135.817
G00 X227.333 Y135.923
G00 X223.809 Y136.028
G00 X220.287 Y136.134
G00 X216.769 Y136.239
G00 X213.238 Y136.344
G00 X209.704 Y136.45
G00 X206.19 Y136.555
G00 X202.653 Y136.661
G00 X199.132 Y136.766
G00 X195.6 Y136.871
G00 X192.088 Y136.976
G00 X195.387 Y136.979
G00 X198.906 Y136.979
G00 X202.435 Y136.979
G00 X205.977 Y136.979
G00 X209.491 Y136.979
G00 X213.017 Y136.979
G00 X216.55 Y136.979
G00 X220.084 Y136.979
G00 X223.61 Y136.979
G00 X227.134 Y136.979
G00 X230.66 Y136.979
G00 X234.187 Y136.979
G00 X237.715 Y136.979
G00 X241.242 Y136.979
G00 X244.765 Y136.979
G00 X248.289 Y136.979
G00 X251.814 Y136.979
G00 X255.34 Y136.979
G00 X258.858 Y136.979
G00 X262.379 Y136.979
G00 X265.921 Y136.979
G00 X269.438 Y136.979
G00 X272.972 Y136.979
G00 X276.498 Y136.979
G00 X280.025 Y136.979
G00 X283.556 Y136.979
G00 X287.084 Y136.979
G00 X290.606 Y136.979
G00 X294.144 Y136.979
G00 X297.666 Y136.979
G00 X301.199 Y136.979
G00 X304.728 Y136.979
G00 X308.24 Y136.979
G00 X311.764 Y136.979
G00 X315.289 Y136.979
G00 X318.818 Y136.979
G00 X322.347 Y136.979
G00 X325.875 Y136.979
G00 X329.402 Y136.979
G00 X332.93 Y136.979
G00 X336.457 Y136.979
G00 X339.983 Y136.979
G00 X343.508 Y136.979
G00 X347.03 Y136.979
G00 X350.551 Y136.979
G00 X354.091 Y136.979
G00 X357.618 Y136.979
G00 X361.14 Y136.979
G00 X364.658 Y136.979
G00 X368.185 Y136.979
G00 X371.734 Y136.979
G00 X369.891 Y137.055
G00 X366.339 Y137.156
G00 X362.824 Y137.256
G00 X359.311 Y137.356
G00 X355.775 Y137.457
G00 X352.249 Y137.557
G00 X348.732 Y137.657
G00 X345.208 Y137.758
G00 X341.682 Y137.858
G00 X338.156 Y137.959
G00 X334.631 Y138.059
G00 X331.105 Y138.159
G00 X327.58 Y138.26
G00 X324.054 Y138.36
G00 X320.527 Y138.461
G00 X317 Y138.561
G00 X313.472 Y138.661
G00 X309.947 Y138.762
G00 X306.425 Y138.862
G00 X302.914 Y138.962
G00 X299.388 Y139.062
G00 X295.853 Y139.163
G00 X292.335 Y139.263
G00 X288.8 Y139.364
G00 X285.278 Y139.464
G00 X281.751 Y139.565
G00 X278.222 Y139.665
G00 X274.695 Y139.766
G00 X271.174 Y139.866
G00 X267.639 Y139.966
G00 X264.117 Y140.067
G00 X260.588 Y140.167
G00 X257.056 Y140.268
G00 X253.551 Y140.368
G00 X250.025 Y140.468
G00 X246.497 Y140.568
G00 X242.97 Y140.669
G00 X239.444 Y140.769
G00 X235.919 Y140.87
G00 X232.395 Y140.97
G00 X228.871 Y141.07
G00 X225.346 Y141.171
G00 X221.821 Y141.271
G00 X218.295 Y141.371
G00 X214.768 Y141.472
G00 X211.24 Y141.572
G00 X207.715 Y141.673
G00 X204.2 Y141.773
G00 X200.667 Y141.873
G00 X197.144 Y141.974
G00 X193.61 Y142.074
G00 X190.099 Y142.174
G00 X186.878 Y142.27
G00 X190.385 Y142.27
G00 X193.907 Y142.27
G00 X197.443 Y142.27
G00 X200.966 Y142.27
G00 X204.506 Y142.27
G00 X208.02 Y142.27
G00 X211.544 Y142.27
G00 X215.072 Y142.27
G00 X218.599 Y142.27
G00 X222.126 Y142.27
G00 X225.653 Y142.27
G00 X229.18 Y142.27
G00 X232.707 Y142.27
G00 X236.234 Y142.27
G00 X239.763 Y142.27
G00 X243.293 Y142.27
G00 X246.821 Y142.27
G00 X250.343 Y142.27
G00 X253.868 Y142.27
G00 X257.386 Y142.27
G00 X260.907 Y142.27
G00 X264.451 Y142.27
G00 X267.966 Y142.27
G00 X271.498 Y142.27
G00 X275.027 Y142.27
G00 X278.553 Y142.27
G00 X282.083 Y142.27
G00 X285.612 Y142.27
G00 X289.138 Y142.27
G00 X292.668 Y142.27
G00 X296.199 Y142.27
G00 X299.713 Y142.27
G00 X303.259 Y142.27
G00 X306.779 Y142.27
G00 X310.297 Y142.27
G00 X313.822 Y142.27
G00 X317.345 Y142.27
G00 X320.871 Y142.27
G00 X324.401 Y142.27
G00 X327.93 Y142.27
G00 X331.458 Y142.27
G00 X334.986 Y142.27
G00 X338.513 Y142.27
G00 X342.039 Y142.27
G00 X345.567 Y142.27
G00 X349.094 Y142.27
G00 X352.621 Y142.27
G00 X356.143 Y142.27
G00 X359.655 Y142.27
G00 X363.201 Y142.27
G00 X366.718 Y142.27
G00 X370.257 Y142.27
G00 X373.773 Y142.27
;Nearing path end, moving to preshutoff position
G00 X376.931 Y142.27
M107 ;Pump off
G00 X377.284 Y142.27
G4 P0 ;Pause for 0 milliseconds
;Completed path #2/4 on color #1
;Starting path #3/4, segments: 32, length: 1456, color #1
G00 X298.35 Y39.81
M106 ;Pump on
G4 P0 ;Pause for 0 milliseconds
G00 X295.682 Y42.103
G00 X293.211 Y44.605
G00 X290.874 Y47.232
G00 X288.592 Y49.906
G00 X286.278 Y52.552
G00 X283.847 Y55.098
G00 X281.247 Y57.463
G00 X278.436 Y59.582
G00 X275.484 Y61.493
G00 X272.516 Y63.382
G00 X269.663 Y65.438
G00 X267.566 Y68.246
G00 X264.976 Y70.617
G00 X262.244 Y72.831
G00 X259.454 Y74.973
G00 X256.632 Y77.074
G00 X253.8 Y79.161
G00 X250.982 Y81.267
G00 X248.199 Y83.419
G00 X245.478 Y85.647
G00 X242.872 Y88.007
G00 X240.568 Y90.665
G00 X238.034 Y93.101
G00 X235.321 Y95.339
G00 X232.537 Y97.489
G00 X229.747 Y99.632
G00 X227.012 Y101.844
G00 X224.403 Y104.201
G00 X221.964 Y106.736
G00 X219.638 Y109.374
G00 X217.385 Y112.075
G00 X215.165 Y114.805
G00 X212.938 Y117.529
G00 X210.665 Y120.213
G00 X208.307 Y122.822
G00 X205.827 Y125.316
G00 X203.194 Y127.647
G00 X200.369 Y129.74
G00 X197.452 Y131.709
G00 X194.594 Y133.757
G00 X191.914 Y136.036
G00 X189.389 Y138.485
G00 X186.965 Y141.031
G00 X184.57 Y143.604
G00 X182.128 Y146.138
G00 X179.573 Y148.557
G00 X176.768 Y150.669
G00 X173.969 Y152.716
G00 X176.053 Y152.834
G00 X179.533 Y152.24
G00 X183.039 Y151.958
G00 X186.548 Y151.713
G00 X190.059 Y151.49
G00 X193.57 Y151.277
G00 X197.081 Y151.062
G00 X200.59 Y150.833
G00 X204.098 Y150.576
G00 X207.604 Y150.282
G00 X211.113 Y150.044
G00 X214.627 Y149.892
G00 X218.143 Y149.798
G00 X221.66 Y149.735
G00 X225.177 Y149.674
G00 X228.694 Y149.587
G00 X232.206 Y149.404
G00 X235.708 Y149.081
G00 X239.203 Y148.684
G00 X242.698 Y148.277
G00 X246.197 Y147.924
G00 X249.706 Y147.692
G00 X253.234 Y147.614
G00 X256.74 Y147.662
G00 X260.262 Y147.826
G00 X263.759 Y148.058
G00 X267.272 Y148.273
G00 X270.778 Y148.401
G00 X274.306 Y148.426
G00 X277.822 Y148.424
G00 X281.339 Y148.419
G00 X284.856 Y148.412
G00 X288.374 Y148.401
G00 X291.892 Y148.386
G00 X295.41 Y148.367
G00 X298.928 Y148.342
G00 X302.445 Y148.313
G00 X305.962 Y148.277
G00 X309.479 Y148.236
G00 X312.997 Y148.187
G00 X316.514 Y148.132
G00 X320.03 Y148.068
G00 X323.548 Y147.985
G00 X327.062 Y147.845
G00 X330.574 Y147.659
G00 X334.085 Y147.439
G00 X337.595 Y147.201
G00 X341.103 Y146.956
G00 X344.612 Y146.72
G00 X348.123 Y146.507
G00 X351.636 Y146.329
G00 X355.151 Y146.201
G00 X358.667 Y146.136
G00 X362.186 Y146.185
G00 X365.697 Y146.419
G00 X369.201 Y146.704
G00 X372.712 Y146.885
G00 X376.228 Y146.921
G00 X379.745 Y146.791
G00 X379.387 Y143.684
G00 X377.54 Y140.703
G00 X375.194 Y138.085
G00 X372.82 Y135.49
G00 X370.8 Y132.612
G00 X369.169 Y129.498
G00 X367.74 Y126.282
G00 X366.321 Y123.061
G00 X364.721 Y119.931
G00 X362.756 Y117.021
G00 X360.469 Y114.349
G00 X358.011 Y111.83
G00 X355.487 Y109.378
G00 X352.988 Y106.9
G00 X350.616 Y104.305
G00 X348.502 Y101.498
G00 X346.78 Y98.434
G00 X345.343 Y95.223
G00 X344.026 Y91.96
G00 X342.67 Y88.714
G00 X341.113 Y85.561
G00 X339.205 Y82.61
G00 X336.98 Y79.889
G00 X334.552 Y77.343
G00 X332.004 Y74.91
G00 X329.411 Y72.534
G00 X326.828 Y70.148
G00 X324.322 Y67.696
G00 X321.806 Y65.229
G00 X319.209 Y62.854
G00 X316.468 Y60.644
G00 X313.525 Y58.715
G00 X310.618 Y56.775
G00 X308.39 Y54.054
G00 X305.846 Y51.646
G00 X303.564 Y48.97
G00 X301.62 Y46.017
G00 X299.904 Y42.964
;Nearing path end, moving to preshutoff position
G00 X298.506 Y40.127
M107 ;Pump off
G00 X298.35 Y39.81
G4 P0 ;Pause for 0 milliseconds
;Completed path #3/4 on color #1
;PancakePainter Footer Start
G4 P1000 ;Pause for 1000 milliseconds
G28 X0 Y0 ;Home All Axis
M84 ;Motors off
;PancakePainter Footer Complete
