;PancakePainter v1.0.0 GCODE header start
;Originally generated @ Wed Jun 29 2016 14:14:09 GMT-0400 (Eastern Daylight Time)
;Settings used to generate this file:
;----------------------------------------
;flattenResolution: 40
;lineEndPreShutoff: 1
;startWait: 0
;endWait: 0
;shadeChangeWait: 35
;fillSpacing: 15
;fillAngle: 23
;fillGroupThreshold: 27
;----------------------------------------
W1 X42 Y210 L485 T0 ;Define Workspace of this file
G21 ;Set units to MM
G1 F5600 ;Set Speed
M107 ;Pump off
G4 P1000 ;Pause for 1000 milliseconds
M84 ;Motors off
G28 X0 Y0 ;Home All Axis
;PancakePainter header complete
;Starting path #1/1, segments: 56, length: 1596, color #1
G00 X277.255 Y23.553
M106 ;Pump on
G4 P0 ;Pause for 0 milliseconds
G00 X266.751 Y32.916
G00 X257.755 Y43.689
G00 X246.711 Y52.349
G00 X236.719 Y62.203
G00 X226.09 Y71.399
G00 X217.575 Y80.4
G00 X231.264 Y78.044
G00 X245.194 Y76.68
G00 X259.174 Y75.279
G00 X251.59 Y86.313
G00 X242.222 Y96.814
G00 X232.84 Y107.302
G00 X223.877 Y118.043
G00 X231.182 Y116.094
G00 X244.025 Y110.321
G00 X255.718 Y110.021
G00 X257.427 Y123.958
G00 X260.151 Y137.752
G00 X261.105 Y151.762
G00 X273.354 Y148.645
G00 X287.316 Y146.991
G00 X301.251 Y145.659
G00 X299.055 Y131.965
G00 X296.832 Y118.074
G00 X293.113 Y104.577
G00 X305.554 Y103.862
G00 X319.617 Y103.053
G00 X328.349 Y100.216
G00 X316.679 Y92.355
G00 X304.913 Y85.187
G00 X296.119 Y79.523
G00 X310.157 Y80.055
G00 X324.154 Y81.174
G00 X338.219 Y80.127
G00 X334.42 Y72.827
G00 X323.189 Y64.374
G00 X311.05 Y57.275
G00 X298.798 Y50.35
G00 X286.54 Y43.432
;Nearing path end, moving to preshutoff position
G00 X277.179 Y33.795
M107 ;Pump off
G00 X276.933 Y33.542
G4 P0 ;Pause for 0 milliseconds
;Completed path #1/1 on color #1
;PancakePainter Footer Start
G4 P1000 ;Pause for 1000 milliseconds
G28 X0 Y0 ;Home All Axis
M84 ;Motors off
;PancakePainter Footer Complete
