;PancakePainter v1.0.0 GCODE header start
;Originally generated @ Wed Jun 29 2016 14:11:54 GMT-0400 (Eastern Daylight Time)
;Settings used to generate this file:
;----------------------------------------
;flattenResolution: 40
;lineEndPreShutoff: 1
;startWait: 0
;endWait: 0
;shadeChangeWait: 35
;fillSpacing: 15
;fillAngle: 23
;fillGroupThreshold: 27
;----------------------------------------
W1 X42 Y210 L485 T0 ;Define Workspace of this file
G21 ;Set units to MM
G1 F5600 ;Set Speed
M107 ;Pump off
G4 P1000 ;Pause for 1000 milliseconds
M84 ;Motors off
G28 X0 Y0 ;Home All Axis
;PancakePainter header complete
;Starting path #1/1, segments: 67, length: 1545, color #1
G00 X230.21 Y109.587
M106 ;Pump on
G4 P0 ;Pause for 0 milliseconds
G00 X230.133 Y123.56
G00 X230.731 Y137.519
G00 X231.907 Y151.396
G00 X241.269 Y156.256
G00 X255.153 Y155.355
G00 X268.941 Y157.404
G00 X268.48 Y145.259
G00 X271.615 Y131.691
G00 X271.777 Y117.728
G00 X277.354 Y110.315
G00 X291.147 Y108.357
G00 X305.121 Y108.298
G00 X301.243 Y101.193
G00 X294.373 Y89.157
G00 X288.247 Y76.791
G00 X280.749 Y65.324
G00 X278.36 Y56.601
G00 X289.87 Y64.018
G00 X302.967 Y68.632
G00 X298.146 Y61.142
G00 X289.614 Y50.217
G00 X280.15 Y39.955
G00 X270.051 Y30.291
G00 X258.327 Y22.946
G00 X248.068 Y28.769
G00 X238.933 Y38.866
G00 X227.885 Y47.022
G00 X217.38 Y55.74
G00 X207.843 Y65.686
G00 X218.822 Y61.015
G00 X231.633 Y56.783
G00 X228.078 Y66.462
G00 X221.099 Y78.508
G00 X214.066 Y90.482
G00 X206.431 Y102.11
G00 X199.405 Y114.115
G00 X203.351 Y115.196
G00 X216.724 Y111.996
;Nearing path end, moving to preshutoff position
G00 X229.863 Y109.649
M107 ;Pump off
G00 X230.21 Y109.587
G4 P0 ;Pause for 0 milliseconds
;Completed path #1/1 on color #1
;PancakePainter Footer Start
G4 P1000 ;Pause for 1000 milliseconds
G28 X0 Y0 ;Home All Axis
M84 ;Motors off
;PancakePainter Footer Complete
