;PancakePainter v1.0.0 GCODE header start
;Originally generated @ Wed Jun 29 2016 14:20:50 GMT-0400 (Eastern Daylight Time)
;Settings used to generate this file:
;----------------------------------------
;flattenResolution: 40
;lineEndPreShutoff: 1
;startWait: 0
;endWait: 0
;shadeChangeWait: 35
;fillSpacing: 15
;fillAngle: 23
;fillGroupThreshold: 27
;----------------------------------------
W1 X42 Y210 L485 T0 ;Define Workspace of this file
G21 ;Set units to MM
G1 F5600 ;Set Speed
M107 ;Pump off
G4 P1000 ;Pause for 1000 milliseconds
M84 ;Motors off
G28 X0 Y0 ;Home All Axis
;PancakePainter header complete
;Starting path #1/4, segments: 5, length: 92, color #1
G00 X201.854 Y66.409
M106 ;Pump on
G4 P0 ;Pause for 0 milliseconds
G00 X212.4 Y64.406
G00 X223.047 Y63.127
;Nearing path end, moving to preshutoff position
G00 X233.403 Y62.249
M107 ;Pump off
G00 X233.755 Y62.22
G4 P0 ;Pause for 0 milliseconds
;Completed path #1/4 on color #1
;Starting path #2/4, segments: 5, length: 98, color #1
G00 X266.622 Y60.286
M106 ;Pump on
G4 P0 ;Pause for 0 milliseconds
G00 X278.071 Y59.753
G00 X289.169 Y57.014
;Nearing path end, moving to preshutoff position
G00 X299.781 Y56.439
M107 ;Pump off
G00 X300.133 Y56.42
G4 P0 ;Pause for 0 milliseconds
;Completed path #2/4 on color #1
;Starting path #3/4, segments: 12, length: 260, color #1
G00 X272.422 Y131.82
M106 ;Pump on
G4 P0 ;Pause for 0 milliseconds
G00 X265.184 Y121.08
G00 X258.084 Y110.373
G00 X251.091 Y99.283
G00 X245.336 Y96.207
G00 X241.116 Y108.601
G00 X235.396 Y120.372
;Nearing path end, moving to preshutoff position
G00 X230.664 Y132.137
M107 ;Pump off
G00 X230.532 Y132.465
G4 P0 ;Pause for 0 milliseconds
;Completed path #3/4 on color #1
;Starting path #4/4, segments: 43, length: 1424, color #1
G00 X215.065 Y20.33
M106 ;Pump on
G4 P0 ;Pause for 0 milliseconds
G00 X202.235 Y25.67
G00 X192.847 Y35.792
G00 X183.967 Y46.517
G00 X176.131 Y58.055
G00 X170.132 Y70.231
G00 X168.6 Y83.96
G00 X168.5 Y97.876
G00 X171.522 Y111.286
G00 X178.033 Y123.344
G00 X185.397 Y135.216
G00 X193.51 Y146.527
G00 X203.52 Y156.137
G00 X215.705 Y162.83
G00 X228.132 Y168.881
G00 X241.934 Y170.394
G00 X255.739 Y170.534
G00 X269.18 Y167.432
G00 X282.212 Y162.772
G00 X294.113 Y155.52
G00 X302.962 Y145.101
G00 X311.191 Y133.876
G00 X318.353 Y122.11
G00 X324.741 Y109.71
G00 X327.771 Y96.163
G00 X328.721 Y82.283
G00 X329.928 Y68.407
G00 X329.302 Y54.462
G00 X321.868 Y42.933
G00 X313.163 Y32.265
G00 X301.865 Y24.09
G00 X288.74 Y19.459
G00 X275.205 Y17.054
G00 X261.521 Y14.882
G00 X247.644 Y14.042
G00 X233.707 Y14.483
;Nearing path end, moving to preshutoff position
G00 X220.567 Y17.041
M107 ;Pump off
G00 X220.221 Y17.108
G4 P0 ;Pause for 0 milliseconds
;Completed path #4/4 on color #1
;PancakePainter Footer Start
G4 P1000 ;Pause for 1000 milliseconds
G28 X0 Y0 ;Home All Axis
M84 ;Motors off
;PancakePainter Footer Complete
