;PancakePainter v1.0.0 GCODE header start
;Originally generated @ Fri Jan 29 2016 00:06:35 GMT-0600 (Central Standard Time)
;Settings used to generate this file:
;----------------------------------------
;flattenResolution: 15
;lineEndPreShutoff: 10
;startWait: 600
;endWait: 250
;shadeChangeWait: 35
;fillSpacing: 15
;fillAngle: 23
;fillGroupThreshold: 27
;----------------------------------------
W1 X42 Y210 L485 T0 ;Define Workspace of this file
G21 ;Set units to MM
G1 F5600 ;Set Speed
M107 ;Pump off
G4 P1000 ;Pause for 1000 milliseconds
M84 ;Motors off
G28 X0 Y0 ;Home All Axis
;PancakePainter header complete
;Starting path #1/36, segments: 2, length: 272, color #1
G00 X56.853 Y42.242
M106 ;Pump on
G4 P600 ;Pause for 600 milliseconds
;Nearing path end, moving to preshutoff position
G00 X57.473 Y134.737
M107 ;Pump off
G00 X57.497 Y138.265
G4 P250 ;Pause for 250 milliseconds
;Completed path #1/36 on color #1
;Starting path #2/36, segments: 2, length: 281, color #1
G00 X69.742 Y139.876
M106 ;Pump on
G4 P600 ;Pause for 600 milliseconds
;Nearing path end, moving to preshutoff position
G00 X70.052 Y44.158
M107 ;Pump off
G00 X70.064 Y40.631
G4 P250 ;Pause for 250 milliseconds
;Completed path #2/36 on color #1
;Starting path #3/36, segments: 2, length: 286, color #1
G00 X83.597 Y39.986
M106 ;Pump on
G4 P600 ;Pause for 600 milliseconds
;Nearing path end, moving to preshutoff position
G00 X82.043 Y137.315
M107 ;Pump off
G00 X81.986 Y140.842
G4 P250 ;Pause for 250 milliseconds
;Completed path #3/36 on color #1
;Starting path #4/36, segments: 7, length: 67, color #1
G00 X212.81 Y93.798
M106 ;Pump on
G4 P600 ;Pause for 600 milliseconds
G00 X215.614 Y97.007
G00 X215.41 Y101.692
G00 X210.951 Y101.567
G00 X209.989 Y97.41
;Nearing path end, moving to preshutoff position
G00 X210.638 Y96.578
M107 ;Pump off
G00 X212.81 Y93.798
G4 P250 ;Pause for 250 milliseconds
;Completed path #4/36 on color #1
;Starting path #5/36, segments: 2, length: 71, color #1
G00 X225.053 Y79.609
M106 ;Pump on
G4 P600 ;Pause for 600 milliseconds
G00 X227.005 Y75.01
G00 X228.959 Y70.406
G00 X230.916 Y65.797
G00 X232.87 Y61.193
;Nearing path end, moving to preshutoff position
G00 X233.444 Y59.841
M107 ;Pump off
G00 X234.822 Y56.594
G4 P250 ;Pause for 250 milliseconds
;Completed path #5/36 on color #1
;Starting path #6/36, segments: 55, length: 2423, color #1
G00 X230.532 Y50.942
M106 ;Pump on
G4 P600 ;Pause for 600 milliseconds
G00 X215.71 Y62.864
G00 X203.143 Y80.264
G00 X198.31 Y94.442
G00 X198.954 Y109.264
G00 X209.588 Y123.442
G00 X224.41 Y136.976
G00 X239.232 Y151.154
G00 X246.644 Y164.365
G00 X254.699 Y173.709
G00 X265.333 Y181.765
G00 X277.255 Y185.954
G00 X284.988 Y185.31
G00 X292.077 Y181.121
G00 X300.455 Y169.843
G00 X303.678 Y161.465
G00 X308.511 Y152.443
G00 X310.122 Y138.265
G00 X315.922 Y125.376
G00 X326.233 Y110.876
G00 X329.778 Y93.798
G00 X327.2 Y74.142
G00 X319.789 Y58.997
G00 X310.766 Y52.553
G00 X298.844 Y48.042
G00 X280.799 Y43.531
G00 X269.522 Y44.819
G00 X277.899 Y26.775
G00 X268.555 Y19.364
G00 X264.688 Y35.475
G00 X260.177 Y49.331
G00 X242.777 Y34.508
G00 X248.577 Y47.075
G00 X233.432 Y38.053
G00 X224.732 Y37.408
G00 X213.454 Y37.731
G00 X205.076 Y42.886
G00 X223.121 Y45.464
G00 X236.332 Y54.164
G00 X225.377 Y63.509
G00 X220.866 Y73.175
G00 X226.021 Y84.775
G00 X234.721 Y68.986
G00 X242.132 Y64.153
G00 X248.255 Y63.831
G00 X254.377 Y67.697
G00 X256.31 Y94.442
G00 X263.722 Y65.764
G00 X270.488 Y78.653
G00 X272.099 Y64.153
G00 X287.244 Y83.486
G00 X278.222 Y56.742
G00 X304 Y62.864
G00 X274.677 Y49.008
;Nearing path end, moving to preshutoff position
G00 X283.558 Y46.204
M107 ;Pump off
G00 X286.922 Y45.142
G4 P250 ;Pause for 250 milliseconds
;Completed path #6/36 on color #1
;Starting path #7/36, segments: 2, length: 6, color #1
G00 X280.188 Y44.449
M106 ;Pump on
G4 P600 ;Pause for 600 milliseconds
;Very short path, early shutoff without move
M107 ;Pump off
G00 X279.314 Y46.508
G4 P250 ;Pause for 250 milliseconds
;Completed path #7/36 on color #1
;Starting path #8/36, segments: 4, length: 151, color #1
G00 X277.237 Y51.403
M106 ;Pump on
G4 P600 ;Pause for 600 milliseconds
G00 X275.355 Y55.835
G00 X273.456 Y60.31
G00 X272.336 Y61.757
G00 X272.811 Y56.953
G00 X273.289 Y52.124
G00 X273.764 Y47.322
G00 X272.694 Y48.572
G00 X270.807 Y53.018
G00 X268.912 Y57.481
G00 X267.022 Y61.933
;Nearing path end, moving to preshutoff position
G00 X266.515 Y63.129
M107 ;Pump off
G00 X265.136 Y66.376
G4 P250 ;Pause for 250 milliseconds
;Completed path #8/36 on color #1
;Starting path #9/36, segments: 2, length: 18, color #1
G00 X270.729 Y66.734
M106 ;Pump on
G4 P600 ;Pause for 600 milliseconds
;Nearing path end, moving to preshutoff position
G00 X269.646 Y69.286
M107 ;Pump off
G00 X269.498 Y69.634
G00 X268.267 Y72.533
G4 P250 ;Pause for 250 milliseconds
;Completed path #9/36 on color #1
;Starting path #10/36, segments: 6, length: 85, color #1
G00 X276.095 Y67.626
M106 ;Pump on
G4 P600 ;Pause for 600 milliseconds
G00 X278.055 Y63.007
G00 X279.047 Y64.756
G00 X279.55 Y69.754
G00 X280.739 Y70.217
G00 X282.275 Y72.551
;Nearing path end, moving to preshutoff position
G00 X282.571 Y73.421
M107 ;Pump off
G00 X283.706 Y76.762
G4 P250 ;Pause for 250 milliseconds
;Completed path #10/36 on color #1
;Starting path #11/36, segments: 7, length: 55, color #1
G00 X280.799 Y90.253
M106 ;Pump on
G4 P600 ;Pause for 600 milliseconds
G00 X281.528 Y93.779
G00 X285.208 Y96.738
G00 X285.165 Y92.188
;Nearing path end, moving to preshutoff position
G00 X284.025 Y91.683
M107 ;Pump off
G00 X280.799 Y90.253
G4 P250 ;Pause for 250 milliseconds
;Completed path #11/36 on color #1
;Starting path #12/36, segments: 4, length: 13, color #1
G00 X258.676 Y81.595
M106 ;Pump on
G4 P600 ;Pause for 600 milliseconds
;Nearing path end, moving to preshutoff position
G00 X258.29 Y82.505
M107 ;Pump off
G00 X256.912 Y85.752
G4 P250 ;Pause for 250 milliseconds
;Completed path #12/36 on color #1
;Starting path #13/36, segments: 4, length: 91, color #1
G00 X256.142 Y74.032
M106 ;Pump on
G4 P600 ;Pause for 600 milliseconds
G00 X257.929 Y69.822
G00 X259.724 Y65.593
G00 X261.524 Y61.354
G00 X263.303 Y57.161
G00 X265.095 Y52.94
G00 X266.89 Y48.711
;Nearing path end, moving to preshutoff position
G00 X267.301 Y47.744
M107 ;Pump off
G00 X268.679 Y44.497
G4 P250 ;Pause for 250 milliseconds
;Completed path #13/36 on color #1
;Starting path #14/36, segments: 2, length: 12, color #1
G00 X270.047 Y41.275
M106 ;Pump on
G4 P600 ;Pause for 600 milliseconds
;Nearing path end, moving to preshutoff position
G00 X270.362 Y40.533
M107 ;Pump off
G00 X271.74 Y37.286
G4 P250 ;Pause for 250 milliseconds
;Completed path #14/36 on color #1
;Starting path #15/36, segments: 2, length: 31, color #1
G00 X266.48 Y36.145
M106 ;Pump on
G4 P600 ;Pause for 600 milliseconds
G00 X265.04 Y39.536
G00 X263.593 Y42.946
;Nearing path end, moving to preshutoff position
G00 X263.532 Y43.09
M107 ;Pump off
G00 X262.153 Y46.337
G4 P250 ;Pause for 250 milliseconds
;Completed path #15/36 on color #1
;Starting path #16/36, segments: 6, length: 266, color #1
G00 X260.597 Y50.003
M106 ;Pump on
G4 P600 ;Pause for 600 milliseconds
G00 X258.562 Y54.799
G00 X256.518 Y59.615
G00 X254.478 Y64.42
G00 X254.238 Y62.475
G00 X254.858 Y57.273
G00 X255.478 Y52.071
G00 X255.971 Y47.37
G00 X253.929 Y52.18
G00 X251.887 Y56.992
G00 X249.847 Y61.797
G00 X249.782 Y59.326
G00 X250.448 Y54.128
G00 X251.114 Y48.93
G00 X251.776 Y43.766
G00 X249.778 Y48.426
G00 X247.734 Y53.241
G00 X245.689 Y58.059
;Nearing path end, moving to preshutoff position
G00 X245.034 Y59.603
M107 ;Pump off
G00 X243.655 Y62.85
G4 P250 ;Pause for 250 milliseconds
;Completed path #16/36 on color #1
;Starting path #17/36, segments: 14, length: 390, color #1
G00 X245.017 Y46.109
M106 ;Pump on
G4 P600 ;Pause for 600 milliseconds
G00 X243.025 Y50.803
G00 X241.033 Y55.496
G00 X239.037 Y60.197
G00 X237.042 Y64.898
G00 X236.866 Y63.483
G00 X237.758 Y58.465
G00 X238.654 Y53.427
G00 X239.548 Y48.403
G00 X240.443 Y43.375
G00 X238.477 Y47.983
G00 X236.474 Y52.701
G00 X236.197 Y48.049
G00 X235.99 Y42.918
G00 X234.841 Y43.015
G00 X232.843 Y47.723
G00 X231.642 Y47.432
G00 X231.198 Y42.35
G00 X230.291 Y40.201
G00 X228.293 Y44.91
G00 X226.756 Y44.615
G00 X225.635 Y39.625
G00 X223.87 Y41.796
G00 X221.743 Y42.62
G00 X219.446 Y38.685
G00 X217.452 Y43.352
G00 X214.175 Y39.412
;Nearing path end, moving to preshutoff position
G00 X213.926 Y39.788
M107 ;Pump off
G00 X211.983 Y42.733
G4 P250 ;Pause for 250 milliseconds
;Completed path #17/36 on color #1
;Starting path #18/36, segments: 2, length: 4, color #1
G00 X225.102 Y65.959
M106 ;Pump on
G4 P600 ;Pause for 600 milliseconds
;Very short path, early shutoff without move
M107 ;Pump off
G00 X224.529 Y67.31
G4 P250 ;Pause for 250 milliseconds
;Completed path #18/36 on color #1
;Starting path #19/36, segments: 2, length: 4, color #1
G00 X222.48 Y72.136
M106 ;Pump on
G4 P600 ;Pause for 600 milliseconds
;Very short path, early shutoff without move
M107 ;Pump off
G00 X221.954 Y73.376
G4 P250 ;Pause for 250 milliseconds
;Completed path #19/36 on color #1
;Starting path #20/36, segments: 9, length: 71, color #1
G00 X239.555 Y84.131
M106 ;Pump on
G4 P600 ;Pause for 600 milliseconds
G00 X237.527 Y87.762
G00 X239.434 Y92.088
G00 X243.837 Y91.553
G00 X243.763 Y86.593
;Nearing path end, moving to preshutoff position
G00 X242.6 Y85.912
M107 ;Pump off
G00 X239.555 Y84.131
G4 P250 ;Pause for 250 milliseconds
;Completed path #20/36 on color #1
;Starting path #21/36, segments: 5, length: 68, color #1
G00 X253.733 Y104.753
M106 ;Pump on
G4 P600 ;Pause for 600 milliseconds
G00 X258.376 Y104.075
G00 X259.863 Y106.234
G00 X257.644 Y110.514
G00 X255.327 Y109.307
;Nearing path end, moving to preshutoff position
G00 X254.898 Y108.083
M107 ;Pump off
G00 X253.733 Y104.753
G4 P250 ;Pause for 250 milliseconds
;Completed path #21/36 on color #1
;Starting path #22/36, segments: 5, length: 64, color #1
G00 X245.677 Y123.442
M106 ;Pump on
G4 P600 ;Pause for 600 milliseconds
G00 X247.68 Y126.657
G00 X246.579 Y131.047
G00 X243.356 Y131.909
G00 X243.741 Y127.511
;Nearing path end, moving to preshutoff position
G00 X244.161 Y126.628
M107 ;Pump off
G00 X245.677 Y123.442
G4 P250 ;Pause for 250 milliseconds
;Completed path #22/36 on color #1
;Starting path #23/36, segments: 5, length: 66, color #1
G00 X259.855 Y142.131
M106 ;Pump on
G4 P600 ;Pause for 600 milliseconds
G00 X262.833 Y145.477
G00 X264.564 Y149.814
G00 X260.531 Y150.104
G00 X258.796 Y146.679
;Nearing path end, moving to preshutoff position
G00 X259.055 Y145.567
M107 ;Pump off
G00 X259.855 Y142.131
G4 P250 ;Pause for 250 milliseconds
;Completed path #23/36 on color #1
;Starting path #24/36, segments: 8, length: 72, color #1
G00 X273.066 Y131.176
M106 ;Pump on
G4 P600 ;Pause for 600 milliseconds
G00 X270.416 Y126.974
G00 X269.86 Y122.285
G00 X273.811 Y122.089
G00 X275.496 Y126.757
;Nearing path end, moving to preshutoff position
G00 X274.766 Y128.085
M107 ;Pump off
G00 X273.066 Y131.176
G4 P250 ;Pause for 250 milliseconds
;Completed path #24/36 on color #1
;Starting path #25/36, segments: 11, length: 66, color #1
G00 X290.788 Y144.065
M106 ;Pump on
G4 P600 ;Pause for 600 milliseconds
G00 X287.439 Y141.17
G00 X287.05 Y136.636
G00 X291.014 Y137.199
G00 X293.044 Y141.167
;Nearing path end, moving to preshutoff position
G00 X292.956 Y141.281
M107 ;Pump off
G00 X290.788 Y144.065
G4 P250 ;Pause for 250 milliseconds
;Completed path #25/36 on color #1
;Starting path #26/36, segments: 6, length: 65, color #1
G00 X289.822 Y155.02
M106 ;Pump on
G4 P600 ;Pause for 600 milliseconds
G00 X290.482 Y159.207
G00 X287.178 Y162.326
G00 X284.483 Y162.458
G00 X287.107 Y158.69
;Nearing path end, moving to preshutoff position
G00 X287.724 Y157.856
M107 ;Pump off
G00 X289.822 Y155.02
G4 P250 ;Pause for 250 milliseconds
;Completed path #26/36 on color #1
;Starting path #27/36, segments: 4, length: 59, color #1
G00 X269.844 Y160.82
M106 ;Pump on
G4 P600 ;Pause for 600 milliseconds
G00 X270.258 Y166.005
G00 X268.741 Y169.03
G00 X266.263 Y164.523
;Nearing path end, moving to preshutoff position
G00 X267.391 Y163.357
M107 ;Pump off
G00 X269.844 Y160.82
G4 P250 ;Pause for 250 milliseconds
;Completed path #27/36 on color #1
;Starting path #28/36, segments: 6, length: 69, color #1
G00 X303.033 Y120.22
M106 ;Pump on
G4 P600 ;Pause for 600 milliseconds
G00 X301.57 Y115.821
G00 X299.753 Y111.41
G00 X304.024 Y111.332
G00 X304.773 Y115.846
;Nearing path end, moving to preshutoff position
G00 X304.337 Y116.942
M107 ;Pump off
G00 X303.033 Y120.22
G4 P250 ;Pause for 250 milliseconds
;Completed path #28/36 on color #1
;Starting path #29/36, segments: 6, length: 67, color #1
G00 X311.733 Y92.187
M106 ;Pump on
G4 P600 ;Pause for 600 milliseconds
G00 X309.525 Y88.1
G00 X309.691 Y83.853
G00 X313.527 Y86.649
G00 X315.724 Y90.012
;Nearing path end, moving to preshutoff position
G00 X314.831 Y90.499
M107 ;Pump off
G00 X311.733 Y92.187
G4 P250 ;Pause for 250 milliseconds
;Completed path #29/36 on color #1
;Starting path #30/36, segments: 8, length: 78, color #1
G00 X300.777 Y74.464
M106 ;Pump on
G4 P600 ;Pause for 600 milliseconds
G00 X297.581 Y71.22
G00 X294.158 Y69.863
G00 X292.301 Y73.97
G00 X294.703 Y77.701
G00 X298.796 Y78.623
;Nearing path end, moving to preshutoff position
G00 X299.26 Y77.649
M107 ;Pump off
G00 X300.777 Y74.464
G4 P250 ;Pause for 250 milliseconds
;Completed path #30/36 on color #1
;Starting path #31/36, segments: 6, length: 48, color #1
G00 X291.684 Y57.967
M106 ;Pump on
G4 P600 ;Pause for 600 milliseconds
G00 X288.569 Y57.012
G00 X285.978 Y57.666
;Nearing path end, moving to preshutoff position
G00 X283.7 Y55.342
M107 ;Pump off
G00 X283.033 Y54.661
G00 X280.953 Y56.18
G4 P250 ;Pause for 250 milliseconds
;Completed path #31/36 on color #1
;Starting path #32/36, segments: 4, length: 91, color #1
G00 X267.301 Y34.211
M106 ;Pump on
G4 P600 ;Pause for 600 milliseconds
G00 X269.085 Y30.009
G00 X270.885 Y25.768
G00 X272.062 Y25.266
G00 X272.411 Y29.858
G00 X272.757 Y34.42
G00 X274.419 Y30.976
;Nearing path end, moving to preshutoff position
G00 X274.832 Y30.001
M107 ;Pump off
G00 X276.211 Y26.753
G4 P250 ;Pause for 250 milliseconds
;Completed path #32/36 on color #1
;Starting path #33/36, segments: 2, length: 4, color #1
G00 X247.629 Y39.955
M106 ;Pump on
G4 P600 ;Pause for 600 milliseconds
;Very short path, early shutoff without move
M107 ;Pump off
G00 X247.05 Y41.321
G4 P250 ;Pause for 250 milliseconds
;Completed path #33/36 on color #1
;Starting path #34/36, segments: 6, length: 71, color #1
G00 X224.41 Y112.164
M106 ;Pump on
G4 P600 ;Pause for 600 milliseconds
G00 X227.468 Y115.54
G00 X228.399 Y120.466
G00 X224.243 Y119.576
G00 X221.425 Y115.425
;Nearing path end, moving to preshutoff position
G00 X222.028 Y114.767
M107 ;Pump off
G00 X224.41 Y112.164
G4 P250 ;Pause for 250 milliseconds
;Completed path #34/36 on color #1
;PancakePainter Footer Start
G4 P1000 ;Pause for 1000 milliseconds
G28 X0 Y0 ;Home All Axis
M84 ;Motors off
;PancakePainter Footer Complete
