;PancakePainter v1.0.0 GCODE header start
;Originally generated @ Fri Dec 11 2015 12:32:06 GMT-0500 (EST)
;Settings used to generate this file:
;----------------------------------------
;flattenResolution: 15
;lineEndPreShutoff: 5
;startWait: 450
;endWait: 250
;shadeChangeWait: 35
;fillSpacing: 15
;fillAngle: 23
;fillGroupThreshold: 27
;----------------------------------------
W1 X42 Y210 L485 T0 ;Define Workspace of this file
G21 ;Set units to MM
G1 F5600 ;Set Speed
M107 ;Pump off
G4 P1000 ;Pause for 1000 milliseconds
M84 ;Motors off
G28 X0 Y0 ;Home All Axis
;PancakePainter header complete
;Starting path #1/45, segments: 2, length: 37, color #4
G00 X74.031 Y103.685
M106 ;Pump on
G4 P450 ;Pause for 450 milliseconds
;Nearing path end, moving to preshutoff position
G00 X73.106 Y114.79
M107 ;Pump off
G00 X72.96 Y116.547
G4 P250 ;Pause for 250 milliseconds
;Completed path #1/45 on color #4
;Starting path #2/45, segments: 6, length: 140, color #4
G00 X80.462 Y117.261
M106 ;Pump on
G4 P450 ;Pause for 450 milliseconds
G00 X80.819 Y103.685
G00 X82.963 Y104.042
G00 X82.963 Y117.619
G00 X85.821 Y117.976
;Nearing path end, moving to preshutoff position
G00 X85.821 Y102.59
M107 ;Pump off
G00 X85.821 Y100.827
G4 P250 ;Pause for 250 milliseconds
;Completed path #2/45 on color #4
;Starting path #3/45, segments: 2, length: 29, color #4
G00 X89.751 Y104.757
M106 ;Pump on
G4 P450 ;Pause for 450 milliseconds
;Nearing path end, moving to preshutoff position
G00 X89.751 Y113.355
M107 ;Pump off
G00 X89.751 Y115.118
G4 P250 ;Pause for 250 milliseconds
;Completed path #3/45 on color #4
;Starting path #4/45, segments: 4, length: 69, color #4
G00 X71.173 Y106.186
M106 ;Pump on
G4 P450 ;Pause for 450 milliseconds
G00 X70.816 Y114.403
G00 X64.028 Y110.831
;Nearing path end, moving to preshutoff position
G00 X69.695 Y107.147
M107 ;Pump off
G00 X71.173 Y106.186
G4 P250 ;Pause for 250 milliseconds
;Completed path #4/45 on color #4
;Starting path #5/45, segments: 2, length: 47, color #4
G00 X59.383 Y110.116
M106 ;Pump on
G4 P450 ;Pause for 450 milliseconds
;Nearing path end, moving to preshutoff position
G00 X44.711 Y109.797
M107 ;Pump off
G00 X42.949 Y109.759
G4 P250 ;Pause for 250 milliseconds
;Completed path #5/45 on color #4
;Starting path #6/45, segments: 48, length: 2298, color #4
G00 X189.58 Y117.812
M106 ;Pump on
G4 P450 ;Pause for 450 milliseconds
G00 X224.79 Y97.156
G00 X235.118 Y106.545
G00 X248.263 Y94.809
G00 X260.939 Y104.668
G00 X276.901 Y91.523
G00 X291.923 Y101.381
G00 X304.13 Y86.359
G00 X304.827 Y85.107
G00 X271.601 Y91.181
G00 X247.307 Y94.039
G00 X219.797 Y96.183
G00 X180.14 Y99.398
G00 X150.844 Y100.47
G00 X129.765 Y101.184
G00 X109.044 Y102.256
G00 X88.322 Y102.256
G00 X87.608 Y99.041
G00 X84.035 Y98.326
G00 X82.963 Y100.113
G00 X81.534 Y99.398
G00 X80.819 Y102.256
G00 X72.602 Y102.613
G00 X66.529 Y108.33
G00 X60.812 Y108.687
G00 X61.527 Y112.617
G00 X72.96 Y117.261
G00 X80.105 Y118.333
G00 X80.819 Y120.119
G00 X85.464 Y120.477
G00 X85.464 Y121.906
G00 X87.965 Y122.263
G00 X88.322 Y117.261
G00 X131.909 Y117.619
G00 X156.918 Y119.405
G00 X185.499 Y120.119
G00 X210.508 Y121.191
G00 X238.375 Y122.62
G00 X279.461 Y127.265
G00 X305.899 Y132.624
G00 X305.538 Y131.896
G00 X291.454 Y114.526
G00 X275.023 Y125.324
G00 X263.756 Y111.709
G00 X247.324 Y121.568
G00 X236.057 Y109.832
G00 X222.912 Y121.099
;Nearing path end, moving to preshutoff position
G00 X192.922 Y100.956
M107 ;Pump off
G00 X191.458 Y99.973
G4 P250 ;Pause for 250 milliseconds
;Completed path #6/45 on color #4
;Starting path #7/45, segments: 33, length: 1991, color #4
G00 X305.542 Y100.827
M106 ;Pump on
G4 P450 ;Pause for 450 milliseconds
G00 X291.965 Y87.251
G00 X276.603 Y103.328
G00 X264.098 Y94.039
G00 X248.379 Y105.114
G00 X237.661 Y96.54
G00 X208.007 Y119.048
G00 X177.639 Y100.827
G00 X154.774 Y117.261
G00 X136.196 Y102.613
G00 X115.475 Y115.118
G00 X101.184 Y104.042
G00 X92.967 Y114.76
G00 X92.609 Y104.042
G00 X101.898 Y115.475
G00 X115.832 Y102.613
G00 X135.839 Y116.19
G00 X155.489 Y101.899
G00 X174.781 Y117.619
G00 X207.65 Y98.684
G00 X236.231 Y121.191
G00 X247.664 Y110.116
G00 X261.24 Y123.692
G00 X274.816 Y112.974
G00 X291.251 Y127.622
G00 X305.899 Y116.547
G00 X305.542 Y115.475
G00 X273.387 Y111.545
G00 X253.738 Y110.116
G00 X233.373 Y108.33
G00 X256.238 Y106.543
G00 X280.176 Y105.114
;Nearing path end, moving to preshutoff position
G00 X304.51 Y101.781
M107 ;Pump off
G00 X306.256 Y101.542
G4 P250 ;Pause for 250 milliseconds
;Completed path #7/45 on color #4
;Starting path #8/45, segments: 13, length: 443, color #4
G00 X311.615 Y83.321
M106 ;Pump on
G4 P450 ;Pause for 450 milliseconds
G00 X311.615 Y77.605
G00 X306.613 Y77.605
G00 X306.613 Y139.055
G00 X311.258 Y139.412
G00 X311.972 Y134.767
G00 X312.687 Y132.981
G00 X321.261 Y127.622
G00 X312.687 Y115.118
G00 X321.976 Y108.687
G00 X313.402 Y99.398
G00 X321.976 Y90.466
;Nearing path end, moving to preshutoff position
G00 X314.448 Y84.745
M107 ;Pump off
G00 X313.044 Y83.678
G4 P250 ;Pause for 250 milliseconds
;Completed path #8/45 on color #4
;Starting path #9/45, segments: 2, length: 163, color #4
G00 X309.114 Y79.391
M106 ;Pump on
G4 P450 ;Pause for 450 milliseconds
;Nearing path end, moving to preshutoff position
G00 X309.114 Y135.148
M107 ;Pump off
G00 X309.114 Y136.911
G4 P250 ;Pause for 250 milliseconds
;Completed path #9/45 on color #4
;Starting path #10/45, segments: 9, length: 357, color #4
G00 X320.904 Y135.125
M106 ;Pump on
G4 P450 ;Pause for 450 milliseconds
G00 X312.687 Y124.764
G00 X320.19 Y116.547
G00 X312.687 Y109.044
G00 X321.261 Y100.47
G00 X313.044 Y92.61
G00 X321.976 Y81.892
G00 X322.69 Y81.892
;Nearing path end, moving to preshutoff position
G00 X321.654 Y133.005
M107 ;Pump off
G00 X321.619 Y134.767
G4 P250 ;Pause for 250 milliseconds
;Completed path #10/45 on color #4
;Starting path #11/45, segments: 2, length: 146, color #4
G00 X324.477 Y134.053
M106 ;Pump on
G4 P450 ;Pause for 450 milliseconds
;Nearing path end, moving to preshutoff position
G00 X325.512 Y84.369
M107 ;Pump off
G00 X325.549 Y82.607
G4 P250 ;Pause for 250 milliseconds
;Completed path #11/45 on color #4
;Starting path #12/45, segments: 2, length: 147, color #4
G00 X328.407 Y82.964
M106 ;Pump on
G4 P450 ;Pause for 450 milliseconds
;Nearing path end, moving to preshutoff position
G00 X327.371 Y133.005
M107 ;Pump off
G00 X327.335 Y134.767
G4 P250 ;Pause for 250 milliseconds
;Completed path #12/45 on color #4
;Starting path #13/45, segments: 5, length: 143, color #4
G00 X332.337 Y87.966
M106 ;Pump on
G4 P450 ;Pause for 450 milliseconds
G00 X348.414 Y84.393
G00 X358.06 Y82.249
G00 X368.778 Y79.391
;Nearing path end, moving to preshutoff position
G00 X378.945 Y75.078
M107 ;Pump off
G00 X380.568 Y74.389
G4 P250 ;Pause for 250 milliseconds
;Completed path #13/45 on color #4
;Starting path #14/45, segments: 2, length: 49, color #4
G00 X382.999 Y80.725
M106 ;Pump on
G4 P450 ;Pause for 450 milliseconds
;Nearing path end, moving to preshutoff position
G00 X398.607 Y81.147
M107 ;Pump off
G00 X400.37 Y81.195
G4 P250 ;Pause for 250 milliseconds
;Completed path #14/45 on color #4
;Starting path #15/45, segments: 2, length: 41, color #4
G00 X398.961 Y68.989
M106 ;Pump on
G4 P450 ;Pause for 450 milliseconds
;Nearing path end, moving to preshutoff position
G00 X386.17 Y68.576
M107 ;Pump off
G00 X384.408 Y68.519
G4 P250 ;Pause for 250 milliseconds
;Completed path #15/45 on color #4
;Starting path #16/45, segments: 36, length: 1747, color #4
G00 X380.568 Y64.743
M106 ;Pump on
G4 P450 ;Pause for 450 milliseconds
G00 X355.916 Y92.967
G00 X331.979 Y80.106
G00 X330.908 Y97.254
G00 X358.06 Y71.889
G00 X380.925 Y87.966
G00 X373.78 Y91.538
G00 X364.134 Y93.325
G00 X353.058 Y95.111
G00 X342.698 Y96.183
G00 X330.55 Y97.969
G00 X329.479 Y117.976
G00 X336.981 Y119.405
G00 X350.557 Y122.62
G00 X366.635 Y126.907
G00 X380.568 Y131.552
G00 X381.283 Y132.624
G00 X355.202 Y144.414
G00 X329.479 Y119.048
G00 X329.479 Y136.554
G00 X354.845 Y125.478
G00 X380.568 Y151.559
G00 X381.283 Y153.345
G00 X373.78 Y150.487
G00 X359.846 Y146.557
G00 X348.771 Y143.699
G00 X335.552 Y139.769
G00 X320.904 Y136.554
G00 X312.33 Y134.053
G00 X312.33 Y82.607
G00 X321.976 Y80.106
G00 X332.694 Y78.319
G00 X344.127 Y75.818
G00 X356.274 Y71.531
G00 X368.064 Y68.316
;Nearing path end, moving to preshutoff position
G00 X379.298 Y63.635
M107 ;Pump off
G00 X380.925 Y62.957
G4 P250 ;Pause for 250 milliseconds
;Completed path #16/45 on color #4
;Starting path #17/45, segments: 2, length: 288, color #4
G00 X392.001 Y56.883
M106 ;Pump on
G4 P450 ;Pause for 450 milliseconds
;Nearing path end, moving to preshutoff position
G00 X390.947 Y156.584
M107 ;Pump off
G00 X390.929 Y158.347
G4 P250 ;Pause for 250 milliseconds
;Completed path #17/45 on color #4
;Starting path #18/45, segments: 6, length: 401, color #4
G00 X399.146 Y159.419
M106 ;Pump on
G4 P450 ;Pause for 450 milliseconds
G00 X383.783 Y159.061
G00 X382.354 Y160.848
G00 X381.997 Y55.097
G00 X383.426 Y56.169
;Nearing path end, moving to preshutoff position
G00 X397.74 Y56.169
M107 ;Pump off
G00 X399.503 Y56.169
G4 P250 ;Pause for 250 milliseconds
;Completed path #18/45 on color #4
;Starting path #19/45, segments: 9, length: 389, color #4
G00 X402.004 Y57.241
M106 ;Pump on
G4 P450 ;Pause for 450 milliseconds
G00 X413.794 Y71.174
G00 X402.361 Y83.321
G00 X413.437 Y94.396
G00 X402.361 Y107.615
G00 X413.08 Y120.834
G00 X402.004 Y132.981
G00 X413.08 Y145.128
;Nearing path end, moving to preshutoff position
G00 X401.72 Y158.435
M107 ;Pump off
G00 X400.575 Y159.776
G4 P250 ;Pause for 250 milliseconds
;Completed path #19/45 on color #4
;Starting path #20/45, segments: 2, length: 45, color #4
G00 X399.431 Y148.327
M106 ;Pump on
G4 P450 ;Pause for 450 milliseconds
;Nearing path end, moving to preshutoff position
G00 X385.231 Y147.91
M107 ;Pump off
G00 X383.469 Y147.858
G4 P250 ;Pause for 250 milliseconds
;Completed path #20/45 on color #4
;Starting path #21/45, segments: 2, length: 47, color #4
G00 X383.469 Y136.121
M106 ;Pump on
G4 P450 ;Pause for 450 milliseconds
;Nearing path end, moving to preshutoff position
G00 X398.138 Y136.54
M107 ;Pump off
G00 X399.9 Y136.591
G4 P250 ;Pause for 250 milliseconds
;Completed path #21/45 on color #4
;Starting path #22/45, segments: 2, length: 48, color #4
G00 X400.37 Y122.507
M106 ;Pump on
G4 P450 ;Pause for 450 milliseconds
;Nearing path end, moving to preshutoff position
G00 X385.232 Y122.507
M107 ;Pump off
G00 X383.469 Y122.507
G4 P250 ;Pause for 250 milliseconds
;Completed path #22/45 on color #4
;Starting path #23/45, segments: 2, length: 48, color #4
G00 X382.53 Y108.893
M106 ;Pump on
G4 P450 ;Pause for 450 milliseconds
;Nearing path end, moving to preshutoff position
G00 X397.668 Y108.893
M107 ;Pump off
G00 X399.431 Y108.893
G4 P250 ;Pause for 250 milliseconds
;Completed path #23/45 on color #4
;Starting path #24/45, segments: 2, length: 48, color #4
G00 X400.37 Y97.156
M106 ;Pump on
G4 P450 ;Pause for 450 milliseconds
;Nearing path end, moving to preshutoff position
G00 X385.229 Y96.315
M107 ;Pump off
G00 X383.469 Y96.217
G4 P250 ;Pause for 250 milliseconds
;Completed path #24/45 on color #4
;Starting path #25/45, segments: 13, length: 539, color #4
G00 X414.509 Y69.745
M106 ;Pump on
G4 P450 ;Pause for 450 milliseconds
G00 X414.509 Y49.381
G00 X414.151 Y51.524
G00 X402.361 Y71.889
G00 X413.437 Y83.321
G00 X403.076 Y95.111
G00 X412.722 Y106.543
G00 X401.647 Y119.405
G00 X412.722 Y132.624
G00 X401.647 Y146.2
G00 X412.365 Y165.849
G00 X413.08 Y165.492
;Nearing path end, moving to preshutoff position
G00 X413.08 Y144.747
M107 ;Pump off
G00 X413.08 Y142.984
G4 P250 ;Pause for 250 milliseconds
;Completed path #25/45 on color #4
;Starting path #26/45, segments: 2, length: 57, color #4
G00 X417.27 Y145.511
M106 ;Pump on
G4 P450 ;Pause for 450 milliseconds
;Nearing path end, moving to preshutoff position
G00 X416.413 Y163.936
M107 ;Pump off
G00 X416.331 Y165.697
G4 P250 ;Pause for 250 milliseconds
;Completed path #26/45 on color #4
;Starting path #27/45, segments: 2, length: 172, color #4
G00 X420.582 Y160.133
M106 ;Pump on
G4 P450 ;Pause for 450 milliseconds
;Nearing path end, moving to preshutoff position
G00 X475.041 Y182.333
M107 ;Pump off
G00 X476.673 Y182.998
G4 P250 ;Pause for 250 milliseconds
;Completed path #27/45 on color #4
;Starting path #28/45, segments: 6, length: 500, color #4
G00 X475.959 Y171.208
M106 ;Pump on
G4 P450 ;Pause for 450 milliseconds
G00 X446.306 Y181.926
G00 X420.582 Y146.2
G00 X419.153 Y168.35
G00 X445.591 Y158.347
;Nearing path end, moving to preshutoff position
G00 X476.617 Y195.577
M107 ;Pump off
G00 X477.745 Y196.932
G4 P250 ;Pause for 250 milliseconds
;Completed path #28/45 on color #4
;Starting path #29/45, segments: 11, length: 338, color #4
G00 X440.946 Y154.417
M106 ;Pump on
G4 P450 ;Pause for 450 milliseconds
G00 X434.516 Y144.056
G00 X429.514 Y135.482
G00 X424.512 Y125.836
G00 X420.582 Y112.26
G00 X419.868 Y101.184
G00 X422.369 Y89.037
G00 X427.728 Y78.319
G00 X433.087 Y69.745
G00 X441.304 Y61.171
;Nearing path end, moving to preshutoff position
G00 X451.368 Y52.993
M107 ;Pump off
G00 X452.736 Y51.882
G4 P250 ;Pause for 250 milliseconds
;Completed path #29/45 on color #4
;Starting path #30/45, segments: 7, length: 278, color #4
G00 X438.088 Y60.099
M106 ;Pump on
G4 P450 ;Pause for 450 milliseconds
G00 X425.941 Y76.176
G00 X418.796 Y89.752
G00 X417.009 Y105.829
G00 X418.081 Y119.405
G00 X424.155 Y132.266
;Nearing path end, moving to preshutoff position
G00 X432.562 Y146.817
M107 ;Pump off
G00 X433.444 Y148.343
G4 P250 ;Pause for 250 milliseconds
;Completed path #30/45 on color #4
;Starting path #31/45, segments: 8, length: 260, color #4
G00 X428.799 Y146.914
M106 ;Pump on
G4 P450 ;Pause for 450 milliseconds
G00 X420.582 Y135.482
G00 X416.295 Y125.478
G00 X414.866 Y115.118
G00 X415.938 Y94.039
G00 X419.868 Y81.177
G00 X424.869 Y72.96
;Nearing path end, moving to preshutoff position
G00 X430.668 Y64.416
M107 ;Pump off
G00 X431.657 Y62.957
G4 P250 ;Pause for 250 milliseconds
;Completed path #31/45 on color #4
;Starting path #32/45, segments: 2, length: 182, color #4
G00 X422.726 Y54.74
M106 ;Pump on
G4 P450 ;Pause for 450 milliseconds
;Nearing path end, moving to preshutoff position
G00 X476.582 Y23.121
M107 ;Pump off
G00 X478.102 Y22.229
G4 P250 ;Pause for 250 milliseconds
;Completed path #32/45 on color #4
;Starting path #33/45, segments: 15, length: 2072, color #4
G00 X477.031 Y9.367
M106 ;Pump on
G4 P450 ;Pause for 450 milliseconds
G00 X447.02 Y52.239
G00 X422.726 Y43.665
G00 X423.083 Y65.101
G00 X449.878 Y25.801
G00 X477.745 Y36.877
G00 X478.102 Y36.519
G00 X478.46 Y7.581
G00 X400.932 Y56.526
G00 X399.861 Y160.49
G00 X478.102 Y198.718
G00 X477.388 Y170.494
G00 X413.437 Y141.555
G00 X414.866 Y70.817
;Nearing path end, moving to preshutoff position
G00 X476.553 Y37.36
M107 ;Pump off
G00 X478.102 Y36.519
G4 P250 ;Pause for 250 milliseconds
;Completed path #33/45 on color #4
;Starting path #34/45, segments: 2, length: 52, color #4
G00 X418.679 Y47.863
M106 ;Pump on
G4 P450 ;Pause for 450 milliseconds
;Nearing path end, moving to preshutoff position
G00 X419.103 Y64.41
M107 ;Pump off
G00 X419.148 Y66.172
G4 P250 ;Pause for 250 milliseconds
;Completed path #34/45 on color #4
;PancakePainter Footer Start
G4 P1000 ;Pause for 1000 milliseconds
G28 X0 Y0 ;Home All Axis
M84 ;Motors off
;PancakePainter Footer Complete
